(G-CODE GENERATED BY FLATCAM v8.994 - www.flatcam.org - Version Date: 2020/11/7)

(Name: med_assoc_lick_sens_addon-B_Cu.gbr_iso_combined_1_cnc)
(Type: G-code from Geometry)
(Units: MM)

(Created on Friday, 14 July 2023 at 12:46)

(This preprocessor is the default preprocessor used by FlatCAM.)
(It is made to work with MACH3 compatible motion controllers.)

(TOOL DIAMETER: 0.2536 mm)
(Feedrate_XY: 120.0 mm/min)
(Feedrate_Z: 60.0 mm/min)
(Feedrate rapids 1500.0 mm/min)

(Z_Cut: -0.1 mm)
(Z_Move: 2.0 mm)
(Z Start: None mm)
(Z End: 15.0 mm)
(X,Y End: None mm)
(Steps per circle: 64)
(Preprocessor Geometry: default)

(X range:    2.9237 ...   53.9763  mm)
(Y range:    5.9237 ...   58.2463  mm)

(Spindle Speed: 0.0 RPM)
G21
G90
G94

G01 F120.00

M5
G00 Z15.0000
G00 X0.0000 Y0.0000
T2M6    
(MSG, Change to Tool Dia = 0.2536)
M0
G00 Z15.0000

M03
G01 F120.00
G00 X15.2374 Y8.9575
G01 F60.00
G01 Z-0.1000
G01 F120.00
G01 X15.3826 Y9.1027
G01 X15.5004 Y9.2709
G01 X15.5872 Y9.4571
G01 X15.6403 Y9.6554
G01 X15.6582 Y9.8600
G01 X15.6442 Y10.0222
G01 X15.6444 Y10.0349
G01 X15.6467 Y10.0721
G01 X15.6481 Y10.0843
G01 X15.6499 Y10.0933
G01 X15.6523 Y10.1022
G01 X15.6554 Y10.1109
G01 X15.6592 Y10.1194
G01 X15.6969 Y10.1888
G01 X15.7052 Y10.2014
G01 X15.7109 Y10.2084
G01 X15.7171 Y10.2150
G01 X17.2073 Y11.7052
G01 X17.2150 Y11.7119
G01 X17.2406 Y11.7324
G01 X17.2510 Y11.7392
G01 X17.2620 Y11.7449
G01 X17.2765 Y11.7506
G01 X17.3494 Y11.7720
G01 X17.3642 Y11.7750
G01 X17.3732 Y11.7760
G01 X17.3823 Y11.7763
G01 X28.4391 Y11.7763
G01 X28.5122 Y11.7743
G01 X28.5157 Y11.7746
G01 X28.5832 Y11.7906
G01 X28.6554 Y11.8056
G01 X28.6582 Y11.8066
G01 X28.7235 Y11.8394
G01 X28.7864 Y11.8687
G01 X28.7894 Y11.8706
G01 X28.8426 Y11.9152
G01 X28.8654 Y11.9333
G01 X28.8760 Y11.9432
G01 X28.9068 Y11.9691
G01 X28.9161 Y11.9813
G01 X28.9361 Y12.0041
G01 X30.7652 Y13.8332
G01 X30.7765 Y13.8432
G01 X30.7889 Y13.8518
G01 X30.8554 Y13.8883
G01 X30.8639 Y13.8925
G01 X30.8756 Y13.8971
G01 X30.8877 Y13.9005
G01 X30.9001 Y13.9027
G01 X30.9126 Y13.9037
G01 X30.9252 Y13.9035
G01 X31.0009 Y13.8979
G01 X31.0128 Y13.8959
G01 X31.0273 Y13.8918
G01 X31.1119 Y13.8603
G01 X31.1489 Y13.8563
G01 X33.2111 Y13.8563
G01 X33.2481 Y13.8603
G01 X33.3510 Y13.8987
G01 X33.4370 Y13.9631
G01 X33.5014 Y14.0491
G01 X33.5397 Y14.1519
G01 X33.5437 Y14.1890
G01 X33.5437 Y18.2311
G01 X33.5397 Y18.2681
G01 X33.5014 Y18.3710
G01 X33.4370 Y18.4570
G01 X33.3510 Y18.5214
G01 X33.2481 Y18.5597
G01 X33.2111 Y18.5637
G01 X31.1489 Y18.5637
G01 X31.1119 Y18.5597
G01 X31.0091 Y18.5214
G01 X30.9231 Y18.4570
G01 X30.8587 Y18.3710
G01 X30.8203 Y18.2681
G01 X30.8163 Y18.2311
G01 X30.8163 Y15.7523
G01 X30.8156 Y15.7387
G01 X30.8124 Y15.7093
G01 X30.8108 Y15.7001
G01 X30.8067 Y15.6850
G01 X30.8034 Y15.6763
G01 X30.7994 Y15.6679
G01 X30.7615 Y15.5986
G01 X30.7529 Y15.5862
G01 X30.7429 Y15.5749
G01 X28.2651 Y13.0972
G01 X28.2550 Y13.0881
G01 X28.2319 Y13.0696
G01 X28.2243 Y13.0642
G01 X28.2108 Y13.0564
G01 X28.2023 Y13.0526
G01 X28.1935 Y13.0495
G01 X28.1177 Y13.0273
G01 X28.1028 Y13.0246
G01 X28.0878 Y13.0237
G01 X17.0309 Y13.0237
G01 X16.9578 Y13.0258
G01 X16.9543 Y13.0254
G01 X16.8832 Y13.0086
G01 X16.8146 Y12.9944
G01 X16.8119 Y12.9934
G01 X16.7466 Y12.9607
G01 X16.6836 Y12.9313
G01 X16.6806 Y12.9294
G01 X16.6275 Y12.8848
G01 X16.6047 Y12.8667
G01 X16.5940 Y12.8568
G01 X16.5633 Y12.8309
G01 X16.5540 Y12.8187
G01 X16.5340 Y12.7960
G01 X14.8350 Y11.0971
G01 X14.8256 Y11.0885
G01 X14.7855 Y11.0590
G01 X14.7750 Y11.0527
G01 X14.7610 Y11.0464
G01 X14.7523 Y11.0434
G01 X14.7434 Y11.0410
G01 X14.6719 Y11.0266
G01 X14.6629 Y11.0251
G01 X14.6509 Y11.0242
G01 X14.6388 Y11.0244
G01 X14.4800 Y11.0382
G01 X14.2754 Y11.0203
G01 X14.0771 Y10.9672
G01 X13.8909 Y10.8804
G01 X13.7227 Y10.7626
G01 X13.5775 Y10.6173
G01 X13.4597 Y10.4491
G01 X13.3729 Y10.2630
G01 X13.3197 Y10.0646
G01 X13.3018 Y9.8600
G01 X13.3197 Y9.6554
G01 X13.3729 Y9.4571
G01 X13.4597 Y9.2709
G01 X13.5775 Y9.1027
G01 X13.7227 Y8.9575
G01 X13.8909 Y8.8397
G01 X14.0771 Y8.7529
G01 X14.2754 Y8.6997
G01 X14.4800 Y8.6818
G01 X14.6846 Y8.6997
G01 X14.8830 Y8.7529
G01 X15.0691 Y8.8397
G01 X15.2374 Y8.9575
G00 Z2.0000
G00 X14.8116 Y10.7247
G01 F60.00
G01 Z-0.1000
G01 F120.00
G01 X14.7491 Y10.7469
G01 X14.6669 Y10.7677
G01 X14.6578 Y10.7696
G01 X14.5709 Y10.7824
G01 X14.4862 Y10.7867
G01 X14.4769 Y10.7868
G01 X14.3892 Y10.7824
G01 X14.2992 Y10.7690
G01 X14.2110 Y10.7469
G01 X14.1312 Y10.7185
G01 X14.1225 Y10.7151
G01 X14.0431 Y10.6774
G01 X13.9651 Y10.6306
G01 X13.8921 Y10.5765
G01 X13.8247 Y10.5154
G01 X13.7636 Y10.4480
G01 X13.7094 Y10.3749
G01 X13.6627 Y10.2969
G01 X13.6263 Y10.2204
G01 X13.6226 Y10.2118
G01 X13.5931 Y10.1291
G01 X13.5710 Y10.0408
G01 X13.5577 Y9.9509
G01 X13.5532 Y9.8600
G01 X13.5577 Y9.7692
G01 X13.5710 Y9.6792
G01 X13.5931 Y9.5910
G01 X13.6238 Y9.5054
G01 X13.6627 Y9.4231
G01 X13.7094 Y9.3451
G01 X13.7636 Y9.2721
G01 X13.8247 Y9.2047
G01 X13.8921 Y9.1436
G01 X13.9651 Y9.0894
G01 X14.0431 Y9.0427
G01 X14.1197 Y9.0063
G01 X14.1282 Y9.0026
G01 X14.2110 Y8.9731
G01 X14.2931 Y8.9524
G01 X14.3053 Y8.9500
G01 X14.3892 Y8.9377
G01 X14.4738 Y8.9334
G01 X14.4862 Y8.9334
G01 X14.5709 Y8.9377
G01 X14.6608 Y8.9510
G01 X14.7431 Y8.9715
G01 X14.7550 Y8.9751
G01 X14.8347 Y9.0038
G01 X14.9169 Y9.0427
G01 X14.9897 Y9.0861
G01 X15.0000 Y9.0930
G01 X15.0680 Y9.1436
G01 X15.1354 Y9.2047
G01 X15.1965 Y9.2721
G01 X15.2470 Y9.3400
G01 X15.2540 Y9.3504
G01 X15.2974 Y9.4231
G01 X15.3338 Y9.4997
G01 X15.3385 Y9.5112
G01 X15.3669 Y9.5910
G01 X15.3884 Y9.6762
G01 X15.3901 Y9.6853
G01 X15.4016 Y9.7630
G01 X15.4028 Y9.7754
G01 X15.4068 Y9.8600
G01 X15.4026 Y9.9478
G01 X15.4016 Y9.9570
G01 X15.3901 Y10.0347
G01 X15.3877 Y10.0469
G01 X15.3669 Y10.1291
G01 X15.3447 Y10.1916
G01 X17.1762 Y12.0231
G01 X28.4500 Y12.0231
G01 X28.4870 Y12.0249
G01 X28.5236 Y12.0303
G01 X28.5594 Y12.0393
G01 X28.5943 Y12.0518
G01 X28.6277 Y12.0676
G01 X28.6594 Y12.0866
G01 X28.6891 Y12.1087
G01 X28.7166 Y12.1335
G01 X31.0632 Y14.4802
G01 X31.0633 Y14.2269
G01 X31.0646 Y14.2114
G01 X31.0678 Y14.1962
G01 X31.0706 Y14.1873
G01 X31.0741 Y14.1786
G01 X31.0782 Y14.1703
G01 X31.0829 Y14.1622
G01 X31.0882 Y14.1545
G01 X31.0940 Y14.1472
G01 X31.1049 Y14.1361
G01 X31.1120 Y14.1301
G01 X31.1196 Y14.1246
G01 X31.1275 Y14.1197
G01 X31.1358 Y14.1154
G01 X31.1444 Y14.1117
G01 X31.1532 Y14.1087
G01 X31.1622 Y14.1063
G01 X31.1714 Y14.1046
G01 X31.1807 Y14.1036
G01 X31.1900 Y14.1032
G01 X33.1731 Y14.1033
G01 X33.1886 Y14.1046
G01 X33.2008 Y14.1070
G01 X33.2127 Y14.1106
G01 X33.2270 Y14.1168
G01 X33.2405 Y14.1246
G01 X33.2528 Y14.1340
G01 X33.2640 Y14.1449
G01 X33.2719 Y14.1545
G01 X33.2788 Y14.1648
G01 X33.2833 Y14.1730
G01 X33.2872 Y14.1815
G01 X33.2904 Y14.1903
G01 X33.2937 Y14.2022
G01 X33.2955 Y14.2114
G01 X33.2965 Y14.2207
G01 X33.2968 Y14.2300
G01 X33.2968 Y18.1900
G01 X33.2962 Y18.2025
G01 X33.2944 Y18.2148
G01 X33.2914 Y18.2268
G01 X33.2872 Y18.2385
G01 X33.2833 Y18.2470
G01 X33.2788 Y18.2552
G01 X33.2737 Y18.2630
G01 X33.2680 Y18.2705
G01 X33.2575 Y18.2819
G01 X33.2505 Y18.2880
G01 X33.2430 Y18.2937
G01 X33.2352 Y18.2988
G01 X33.2270 Y18.3033
G01 X33.2185 Y18.3072
G01 X33.2098 Y18.3104
G01 X33.2008 Y18.3130
G01 X33.1917 Y18.3150
G01 X33.1825 Y18.3162
G01 X33.1731 Y18.3168
G01 X31.1869 Y18.3168
G01 X31.1714 Y18.3155
G01 X31.1592 Y18.3130
G01 X31.1473 Y18.3094
G01 X31.1358 Y18.3047
G01 X31.1248 Y18.2988
G01 X31.1145 Y18.2919
G01 X31.1049 Y18.2840
G01 X31.0961 Y18.2752
G01 X31.0882 Y18.2656
G01 X31.0813 Y18.2552
G01 X31.0768 Y18.2470
G01 X31.0717 Y18.2357
G01 X31.0687 Y18.2268
G01 X31.0657 Y18.2148
G01 X31.0638 Y18.2025
G01 X31.0632 Y18.1900
G01 X31.0632 Y15.5463
G01 X28.2939 Y12.7769
G01 X17.0200 Y12.7769
G01 X16.9831 Y12.7751
G01 X16.9526 Y12.7708
G01 X16.9404 Y12.7683
G01 X16.9076 Y12.7598
G01 X16.8758 Y12.7483
G01 X16.8451 Y12.7339
G01 X16.8159 Y12.7168
G01 X16.8055 Y12.7098
G01 X16.7809 Y12.6914
G01 X16.7557 Y12.6687
G01 X14.8116 Y10.7247
G00 Z2.0000
G00 X18.7141 Y10.2368
G01 F60.00
G01 Z-0.1000
G01 F120.00
G01 X18.7427 Y10.2969
G01 X18.7894 Y10.3749
G01 X18.8436 Y10.4480
G01 X18.9047 Y10.5154
G01 X18.9721 Y10.5765
G01 X19.0451 Y10.6306
G01 X19.1231 Y10.6774
G01 X19.1832 Y10.7060
G01 X19.1832 Y10.9736
G01 X19.1572 Y10.9667
G01 X18.9712 Y10.8799
G01 X18.8030 Y10.7622
G01 X18.6579 Y10.6170
G01 X18.5401 Y10.4489
G01 X18.4534 Y10.2628
G01 X18.4464 Y10.2368
G01 X18.7141 Y10.2368
G00 Z2.0000
G00 X18.7141 Y9.4832
G01 F60.00
G01 Z-0.1000
G01 F120.00
G01 X18.4464 Y9.4832
G01 X18.4534 Y9.4572
G01 X18.5401 Y9.2712
G01 X18.6579 Y9.1030
G01 X18.8030 Y8.9579
G01 X18.9712 Y8.8401
G01 X19.1572 Y8.7534
G01 X19.1832 Y8.7464
G01 X19.1832 Y9.0141
G01 X19.1231 Y9.0427
G01 X19.0451 Y9.0894
G01 X18.9721 Y9.1436
G01 X18.9047 Y9.2047
G01 X18.8436 Y9.2721
G01 X18.7894 Y9.3451
G01 X18.7427 Y9.4231
G01 X18.7141 Y9.4832
G00 Z2.0000
G00 X19.9368 Y9.0141
G01 F60.00
G01 Z-0.1000
G01 F120.00
G01 X19.9368 Y8.7464
G01 X19.9628 Y8.7534
G01 X20.1489 Y8.8401
G01 X20.3170 Y8.9579
G01 X20.4622 Y9.1030
G01 X20.5799 Y9.2712
G01 X20.6667 Y9.4572
G01 X20.6736 Y9.4832
G01 X20.4060 Y9.4832
G01 X20.3774 Y9.4231
G01 X20.3306 Y9.3451
G01 X20.2765 Y9.2721
G01 X20.2154 Y9.2047
G01 X20.1480 Y9.1436
G01 X20.0749 Y9.0894
G01 X19.9969 Y9.0427
G01 X19.9368 Y9.0141
G00 Z2.0000
G00 X19.9368 Y10.7060
G01 F60.00
G01 Z-0.1000
G01 F120.00
G01 X19.9969 Y10.6774
G01 X20.0749 Y10.6306
G01 X20.1480 Y10.5765
G01 X20.2154 Y10.5154
G01 X20.2765 Y10.4480
G01 X20.3306 Y10.3749
G01 X20.3774 Y10.2969
G01 X20.4060 Y10.2368
G01 X20.6736 Y10.2368
G01 X20.6667 Y10.2628
G01 X20.5799 Y10.4489
G01 X20.4622 Y10.6170
G01 X20.3170 Y10.7622
G01 X20.1489 Y10.8799
G01 X19.9628 Y10.9667
G01 X19.9368 Y10.9736
G01 X19.9368 Y10.7060
G00 Z2.0000
G00 X26.1006 Y14.3799
G01 F60.00
G01 Z-0.1000
G01 F120.00
G01 X26.2536 Y14.2136
G01 X26.4319 Y14.0749
G01 X26.6306 Y13.9674
G01 X26.8032 Y13.9081
G01 X26.8032 Y14.1700
G01 X26.7585 Y14.1860
G01 X26.7498 Y14.1895
G01 X26.6563 Y14.2337
G01 X26.6482 Y14.2382
G01 X26.5622 Y14.2897
G01 X26.5545 Y14.2950
G01 X26.4715 Y14.3567
G01 X26.3926 Y14.4282
G01 X26.3860 Y14.4348
G01 X26.3167 Y14.5115
G01 X26.2514 Y14.5996
G01 X26.1951 Y14.6936
G01 X26.1508 Y14.7870
G01 X26.1471 Y14.7955
G01 X26.1113 Y14.8958
G01 X26.0860 Y14.9961
G01 X26.0836 Y15.0083
G01 X26.0694 Y15.1044
G01 X26.0683 Y15.1137
G01 X26.0632 Y15.2200
G01 X26.0632 Y15.8332
G01 X25.8168 Y15.8332
G01 X25.8168 Y15.1636
G01 X25.8308 Y14.9949
G01 X25.8863 Y14.7759
G01 X25.9770 Y14.5690
G01 X26.1006 Y14.3799
G00 Z2.0000
G00 X27.5568 Y14.1700
G01 F60.00
G01 Z-0.1000
G01 F120.00
G01 X27.5568 Y13.9081
G01 X27.7295 Y13.9674
G01 X27.9282 Y14.0749
G01 X28.1065 Y14.2136
G01 X28.2595 Y14.3799
G01 X28.3830 Y14.5690
G01 X28.4738 Y14.7759
G01 X28.5292 Y14.9949
G01 X28.5432 Y15.1636
G01 X28.5432 Y15.8332
G01 X28.2968 Y15.8332
G01 X28.2968 Y15.2200
G01 X28.2919 Y15.1168
G01 X28.2911 Y15.1075
G01 X28.2754 Y15.0021
G01 X28.2487 Y14.8958
G01 X28.2118 Y14.7926
G01 X28.1678 Y14.6991
G01 X28.1619 Y14.6882
G01 X28.1086 Y14.5996
G01 X28.0433 Y14.5115
G01 X27.9697 Y14.4303
G01 X27.8909 Y14.3587
G01 X27.8836 Y14.3529
G01 X27.8005 Y14.2914
G01 X27.7092 Y14.2366
G01 X27.7009 Y14.2323
G01 X27.6103 Y14.1895
G01 X27.6016 Y14.1860
G01 X27.5568 Y14.1700
G00 Z2.0000
G00 X26.2536 Y18.2064
G01 F60.00
G01 Z-0.1000
G01 F120.00
G01 X26.1006 Y18.0402
G01 X25.9770 Y17.8511
G01 X25.8863 Y17.6442
G01 X25.8308 Y17.4252
G01 X25.8168 Y17.2564
G01 X25.8168 Y16.5868
G01 X26.0632 Y16.5868
G01 X26.0632 Y17.2000
G01 X26.0683 Y17.3064
G01 X26.0694 Y17.3157
G01 X26.0836 Y17.4118
G01 X26.0860 Y17.4240
G01 X26.1113 Y17.5242
G01 X26.1471 Y17.6245
G01 X26.1508 Y17.6331
G01 X26.1951 Y17.7265
G01 X26.2514 Y17.8205
G01 X26.3167 Y17.9085
G01 X26.3860 Y17.9852
G01 X26.3926 Y17.9919
G01 X26.4715 Y18.0633
G01 X26.5545 Y18.1250
G01 X26.5622 Y18.1303
G01 X26.6482 Y18.1819
G01 X26.6563 Y18.1864
G01 X26.7498 Y18.2306
G01 X26.7585 Y18.2341
G01 X26.8032 Y18.2501
G01 X26.8032 Y18.5120
G01 X26.6306 Y18.4527
G01 X26.4319 Y18.3452
G01 X26.2536 Y18.2064
G00 Z2.0000
G00 X27.5568 Y18.5120
G01 F60.00
G01 Z-0.1000
G01 F120.00
G01 X27.5568 Y18.2501
G01 X27.6016 Y18.2341
G01 X27.6103 Y18.2306
G01 X27.7037 Y18.1864
G01 X27.7119 Y18.1819
G01 X27.7979 Y18.1303
G01 X27.8056 Y18.1250
G01 X27.8885 Y18.0633
G01 X27.9675 Y17.9919
G01 X27.9740 Y17.9852
G01 X28.0433 Y17.9085
G01 X28.1086 Y17.8205
G01 X28.1650 Y17.7265
G01 X28.2093 Y17.6331
G01 X28.2130 Y17.6245
G01 X28.2487 Y17.5242
G01 X28.2740 Y17.4240
G01 X28.2764 Y17.4118
G01 X28.2907 Y17.3157
G01 X28.2917 Y17.3064
G01 X28.2968 Y17.2000
G01 X28.2968 Y16.5868
G01 X28.5432 Y16.5868
G01 X28.5432 Y17.2564
G01 X28.5292 Y17.4252
G01 X28.4738 Y17.6442
G01 X28.3830 Y17.8511
G01 X28.2595 Y18.0402
G01 X28.1065 Y18.2064
G01 X27.9282 Y18.3452
G01 X27.7295 Y18.4527
G01 X27.5568 Y18.5120
G00 Z2.0000
G00 X15.2374 Y21.6575
G01 F60.00
G01 Z-0.1000
G01 F120.00
G01 X15.3826 Y21.8027
G01 X15.4030 Y21.8319
G01 X15.4108 Y21.8414
G01 X15.4172 Y21.8481
G01 X15.4518 Y21.8813
G01 X15.4610 Y21.8893
G01 X15.4708 Y21.8963
G01 X15.4787 Y21.9010
G01 X15.4896 Y21.9064
G01 X15.4981 Y21.9096
G01 X15.5739 Y21.9320
G01 X15.5827 Y21.9340
G01 X15.5946 Y21.9358
G01 X15.6067 Y21.9363
G01 X18.4334 Y21.9363
G01 X18.4426 Y21.9360
G01 X18.4579 Y21.9339
G01 X18.5049 Y21.9247
G01 X18.5167 Y21.9218
G01 X18.5281 Y21.9177
G01 X18.5392 Y21.9126
G01 X18.5497 Y21.9065
G01 X18.5571 Y21.9012
G01 X18.6141 Y21.8557
G01 X18.6253 Y21.8456
G01 X18.6314 Y21.8389
G01 X18.6370 Y21.8318
G01 X18.6575 Y21.8027
G01 X18.8027 Y21.6575
G01 X18.9709 Y21.5397
G01 X19.1571 Y21.4529
G01 X19.3554 Y21.3997
G01 X19.5600 Y21.3818
G01 X19.7646 Y21.3997
G01 X19.9630 Y21.4529
G01 X20.1491 Y21.5397
G01 X20.3174 Y21.6575
G01 X20.4626 Y21.8027
G01 X20.4849 Y21.8343
G01 X20.4908 Y21.8414
G01 X20.4972 Y21.8481
G01 X20.5318 Y21.8813
G01 X20.5410 Y21.8893
G01 X20.5483 Y21.8947
G01 X20.5560 Y21.8995
G01 X20.5641 Y21.9038
G01 X20.5724 Y21.9075
G01 X20.5839 Y21.9115
G01 X20.6539 Y21.9320
G01 X20.6627 Y21.9340
G01 X20.6746 Y21.9358
G01 X20.6867 Y21.9363
G01 X20.8191 Y21.9363
G01 X20.8922 Y21.9343
G01 X20.8957 Y21.9346
G01 X20.9664 Y21.9513
G01 X21.0354 Y21.9656
G01 X21.0382 Y21.9666
G01 X21.1035 Y21.9994
G01 X21.1664 Y22.0287
G01 X21.1694 Y22.0306
G01 X21.2226 Y22.0752
G01 X21.2454 Y22.0933
G01 X21.2560 Y22.1032
G01 X21.2868 Y22.1291
G01 X21.2961 Y22.1413
G01 X21.3161 Y22.1640
G01 X26.3433 Y27.1913
G01 X26.3965 Y27.2415
G01 X26.3987 Y27.2443
G01 X26.4351 Y27.3033
G01 X26.4753 Y27.3644
G01 X26.4768 Y27.3676
G01 X26.4986 Y27.4335
G01 X26.5237 Y27.5028
G01 X26.5244 Y27.5057
G01 X26.5304 Y27.5748
G01 X26.5337 Y27.6037
G01 X26.5342 Y27.6183
G01 X26.5377 Y27.6583
G01 X26.5356 Y27.6735
G01 X26.5337 Y27.7037
G01 X26.5337 Y28.8324
G01 X26.5342 Y28.8430
G01 X26.5370 Y28.8728
G01 X26.5396 Y28.8850
G01 X26.5433 Y28.8969
G01 X26.5482 Y28.9084
G01 X26.5787 Y28.9712
G01 X26.5832 Y28.9796
G01 X26.5900 Y28.9901
G01 X26.5979 Y29.0000
G01 X26.6067 Y29.0090
G01 X26.6139 Y29.0151
G01 X26.6268 Y29.0241
G01 X26.6865 Y29.0605
G01 X26.6943 Y29.0649
G01 X26.7025 Y29.0688
G01 X26.7115 Y29.0722
G01 X26.8991 Y29.1597
G01 X27.0674 Y29.2775
G01 X27.2126 Y29.4227
G01 X27.3304 Y29.5909
G01 X27.4172 Y29.7771
G01 X27.4703 Y29.9754
G01 X27.4882 Y30.1800
G01 X27.4703 Y30.3846
G01 X27.4172 Y30.5830
G01 X27.3304 Y30.7691
G01 X27.2126 Y30.9374
G01 X27.0674 Y31.0826
G01 X26.8991 Y31.2004
G01 X26.8483 Y31.2241
G01 X26.8398 Y31.2287
G01 X26.8318 Y31.2339
G01 X26.8217 Y31.2418
G01 X26.7703 Y31.2863
G01 X26.7614 Y31.2949
G01 X26.7533 Y31.3043
G01 X26.7461 Y31.3145
G01 X26.7400 Y31.3253
G01 X26.7350 Y31.3367
G01 X26.7320 Y31.3455
G01 X26.7109 Y31.4154
G01 X26.7082 Y31.4277
G01 X26.7067 Y31.4402
G01 X26.7065 Y31.4559
G01 X26.7074 Y31.4653
G01 X26.7090 Y31.4746
G01 X26.7112 Y31.4838
G01 X26.7313 Y31.5540
G01 X26.7356 Y31.5658
G01 X26.7411 Y31.5772
G01 X26.7495 Y31.5905
G01 X26.7574 Y31.6003
G01 X26.7685 Y31.6114
G01 X26.8210 Y31.6576
G01 X26.8328 Y31.6668
G01 X26.8405 Y31.6717
G01 X26.8484 Y31.6760
G01 X26.8991 Y31.6997
G01 X27.0674 Y31.8175
G01 X27.2126 Y31.9627
G01 X27.3304 Y32.1309
G01 X27.4172 Y32.3171
G01 X27.4703 Y32.5154
G01 X27.4882 Y32.7200
G01 X27.4703 Y32.9246
G01 X27.4172 Y33.1230
G01 X27.3304 Y33.3091
G01 X27.2126 Y33.4774
G01 X27.0674 Y33.6226
G01 X26.8991 Y33.7404
G01 X26.8483 Y33.7641
G01 X26.8399 Y33.7687
G01 X26.8318 Y33.7739
G01 X26.8217 Y33.7818
G01 X26.7703 Y33.8263
G01 X26.7614 Y33.8349
G01 X26.7533 Y33.8443
G01 X26.7461 Y33.8545
G01 X26.7400 Y33.8653
G01 X26.7350 Y33.8767
G01 X26.7320 Y33.8855
G01 X26.7109 Y33.9554
G01 X26.7082 Y33.9677
G01 X26.7069 Y33.9770
G01 X26.7064 Y33.9865
G01 X26.7065 Y33.9959
G01 X26.7074 Y34.0053
G01 X26.7090 Y34.0146
G01 X26.7112 Y34.0238
G01 X26.7313 Y34.0940
G01 X26.7356 Y34.1058
G01 X26.7411 Y34.1172
G01 X26.7495 Y34.1305
G01 X26.7574 Y34.1403
G01 X26.7685 Y34.1514
G01 X26.8210 Y34.1976
G01 X26.8328 Y34.2068
G01 X26.8405 Y34.2117
G01 X26.8484 Y34.2160
G01 X26.8991 Y34.2397
G01 X27.0674 Y34.3575
G01 X27.2126 Y34.5027
G01 X27.3304 Y34.6709
G01 X27.4172 Y34.8571
G01 X27.4703 Y35.0554
G01 X27.4882 Y35.2600
G01 X27.4703 Y35.4646
G01 X27.4172 Y35.6630
G01 X27.3304 Y35.8491
G01 X27.2126 Y36.0174
G01 X27.0674 Y36.1626
G01 X26.8991 Y36.2804
G01 X26.8483 Y36.3041
G01 X26.8399 Y36.3087
G01 X26.8318 Y36.3139
G01 X26.8217 Y36.3218
G01 X26.7703 Y36.3663
G01 X26.7614 Y36.3749
G01 X26.7533 Y36.3843
G01 X26.7478 Y36.3919
G01 X26.7415 Y36.4025
G01 X26.7362 Y36.4138
G01 X26.7320 Y36.4255
G01 X26.7118 Y36.4924
G01 X26.7082 Y36.5077
G01 X26.7067 Y36.5202
G01 X26.7065 Y36.5359
G01 X26.7078 Y36.5484
G01 X26.7112 Y36.5638
G01 X26.7304 Y36.6310
G01 X26.7344 Y36.6429
G01 X26.7396 Y36.6544
G01 X26.7443 Y36.6626
G01 X26.7514 Y36.6730
G01 X26.7574 Y36.6803
G01 X26.7685 Y36.6914
G01 X26.8210 Y36.7376
G01 X26.8328 Y36.7468
G01 X26.8405 Y36.7517
G01 X26.8484 Y36.7560
G01 X26.8991 Y36.7797
G01 X27.0674 Y36.8975
G01 X27.2126 Y37.0427
G01 X27.3304 Y37.2109
G01 X27.4172 Y37.3971
G01 X27.4703 Y37.5954
G01 X27.4882 Y37.8000
G01 X27.4703 Y38.0046
G01 X27.4172 Y38.2030
G01 X27.3304 Y38.3891
G01 X27.2126 Y38.5574
G01 X27.0674 Y38.7026
G01 X26.8991 Y38.8204
G01 X26.7130 Y38.9072
G01 X26.5146 Y38.9603
G01 X26.3613 Y38.9737
G01 X25.4588 Y38.9737
G01 X25.3054 Y38.9603
G01 X25.1071 Y38.9072
G01 X24.9209 Y38.8204
G01 X24.7527 Y38.7026
G01 X24.6075 Y38.5574
G01 X24.5870 Y38.5282
G01 X24.5792 Y38.5186
G01 X24.5728 Y38.5120
G01 X24.5383 Y38.4788
G01 X24.5267 Y38.4689
G01 X24.5192 Y38.4637
G01 X24.5114 Y38.4590
G01 X24.5032 Y38.4549
G01 X24.4919 Y38.4504
G01 X24.4191 Y38.4289
G01 X24.4044 Y38.4255
G01 X24.3954 Y38.4243
G01 X24.3834 Y38.4237
G01 X22.1109 Y38.4237
G01 X22.0378 Y38.4258
G01 X22.0343 Y38.4254
G01 X21.9668 Y38.4094
G01 X21.8952 Y38.3946
G01 X21.8919 Y38.3934
G01 X21.8299 Y38.3623
G01 X21.7636 Y38.3313
G01 X21.7606 Y38.3294
G01 X21.7075 Y38.2848
G01 X21.6847 Y38.2667
G01 X21.6740 Y38.2568
G01 X21.6433 Y38.2309
G01 X21.6340 Y38.2187
G01 X21.6140 Y38.1960
G01 X19.1267 Y35.7088
G01 X19.0736 Y35.6585
G01 X19.0713 Y35.6558
G01 X19.0349 Y35.5967
G01 X18.9945 Y35.5351
G01 X18.9932 Y35.5324
G01 X18.9702 Y35.4631
G01 X18.9465 Y35.3978
G01 X18.9457 Y35.3944
G01 X18.9397 Y35.3253
G01 X18.9363 Y35.2963
G01 X18.9358 Y35.2818
G01 X18.9323 Y35.2418
G01 X18.9344 Y35.2266
G01 X18.9363 Y35.1963
G01 X18.9363 Y27.4967
G01 X18.9360 Y27.4874
G01 X18.9339 Y27.4722
G01 X18.9247 Y27.4252
G01 X18.9226 Y27.4163
G01 X18.9199 Y27.4076
G01 X18.9153 Y27.3963
G01 X18.9112 Y27.3882
G01 X18.9048 Y27.3779
G01 X18.8993 Y27.3705
G01 X18.8557 Y27.3159
G01 X18.8477 Y27.3069
G01 X18.8412 Y27.3006
G01 X18.8342 Y27.2948
G01 X18.8027 Y27.2726
G01 X18.6575 Y27.1273
G01 X18.5397 Y26.9591
G01 X18.4529 Y26.7730
G01 X18.3997 Y26.5746
G01 X18.3818 Y26.3700
G01 X18.3997 Y26.1654
G01 X18.4352 Y26.0321
G01 X18.4388 Y26.0146
G01 X18.4404 Y26.0022
G01 X18.4408 Y25.9897
G01 X18.4399 Y25.9772
G01 X18.4285 Y25.8988
G01 X18.4245 Y25.8835
G01 X18.4187 Y25.8689
G01 X18.4111 Y25.8551
G01 X18.4019 Y25.8424
G01 X18.3541 Y25.7872
G01 X18.3454 Y25.7781
G01 X18.3358 Y25.7699
G01 X18.3255 Y25.7627
G01 X18.3145 Y25.7566
G01 X18.3030 Y25.7515
G01 X18.2940 Y25.7485
G01 X18.2241 Y25.7280
G01 X18.2093 Y25.7250
G01 X18.1973 Y25.7239
G01 X17.3789 Y25.7238
G01 X17.3687 Y25.7245
G01 X17.3423 Y25.7273
G01 X17.3331 Y25.7286
G01 X17.3180 Y25.7324
G01 X17.3035 Y25.7379
G01 X17.2951 Y25.7421
G01 X17.2312 Y25.7770
G01 X17.2186 Y25.7853
G01 X17.2071 Y25.7951
G01 X16.1987 Y26.8033
G01 X16.1485 Y26.8565
G01 X16.1458 Y26.8587
G01 X16.0867 Y26.8951
G01 X16.0251 Y26.9355
G01 X16.0224 Y26.9368
G01 X15.9536 Y26.9597
G01 X15.8872 Y26.9837
G01 X15.8844 Y26.9844
G01 X15.8153 Y26.9904
G01 X15.7864 Y26.9937
G01 X15.7718 Y26.9942
G01 X15.7318 Y26.9977
G01 X15.7166 Y26.9956
G01 X15.6894 Y26.9938
G01 X15.6067 Y26.9937
G01 X15.5975 Y26.9941
G01 X15.5852 Y26.9956
G01 X15.5322 Y27.0060
G01 X15.5234 Y27.0083
G01 X15.5119 Y27.0123
G01 X15.4982 Y27.0189
G01 X15.4854 Y27.0270
G01 X15.4259 Y27.0744
G01 X15.4169 Y27.0823
G01 X15.4106 Y27.0889
G01 X15.4048 Y27.0958
G01 X15.3826 Y27.1274
G01 X15.2374 Y27.2726
G01 X15.0691 Y27.3904
G01 X14.8830 Y27.4772
G01 X14.6846 Y27.5303
G01 X14.4800 Y27.5482
G01 X14.2754 Y27.5303
G01 X14.0771 Y27.4772
G01 X13.8909 Y27.3904
G01 X13.7227 Y27.2726
G01 X13.5775 Y27.1273
G01 X13.4597 Y26.9591
G01 X13.3729 Y26.7730
G01 X13.3197 Y26.5746
G01 X13.3018 Y26.3700
G01 X13.3197 Y26.1654
G01 X13.3729 Y25.9671
G01 X13.4597 Y25.7809
G01 X13.5775 Y25.6127
G01 X13.7227 Y25.4675
G01 X13.8909 Y25.3497
G01 X14.0771 Y25.2629
G01 X14.2754 Y25.2097
G01 X14.4800 Y25.1918
G01 X14.6846 Y25.2097
G01 X14.8830 Y25.2629
G01 X15.0691 Y25.3497
G01 X15.2374 Y25.4675
G01 X15.3266 Y25.5567
G01 X15.3355 Y25.5648
G01 X15.3452 Y25.5721
G01 X15.3920 Y25.6022
G01 X15.4059 Y25.6100
G01 X15.4146 Y25.6137
G01 X15.4266 Y25.6177
G01 X15.4390 Y25.6205
G01 X15.4516 Y25.6220
G01 X15.5212 Y25.6270
G01 X15.5307 Y25.6274
G01 X15.5464 Y25.6263
G01 X15.5557 Y25.6248
G01 X15.5649 Y25.6225
G01 X15.5768 Y25.6185
G01 X15.5883 Y25.6133
G01 X15.6524 Y25.5784
G01 X15.6652 Y25.5704
G01 X15.6723 Y25.5648
G01 X15.6791 Y25.5588
G01 X16.5713 Y24.6667
G01 X16.6215 Y24.6136
G01 X16.6242 Y24.6113
G01 X16.6864 Y24.5729
G01 X16.7450 Y24.5345
G01 X16.7476 Y24.5332
G01 X16.8135 Y24.5114
G01 X16.8822 Y24.4865
G01 X16.8857 Y24.4857
G01 X16.9548 Y24.4796
G01 X16.9837 Y24.4763
G01 X16.9982 Y24.4758
G01 X17.0383 Y24.4723
G01 X17.0535 Y24.4744
G01 X17.0837 Y24.4763
G01 X20.8191 Y24.4763
G01 X20.8922 Y24.4743
G01 X20.8957 Y24.4746
G01 X20.9664 Y24.4913
G01 X21.0354 Y24.5056
G01 X21.0382 Y24.5066
G01 X21.1035 Y24.5394
G01 X21.1664 Y24.5687
G01 X21.1694 Y24.5706
G01 X21.2226 Y24.6152
G01 X21.2454 Y24.6333
G01 X21.2560 Y24.6432
G01 X21.2868 Y24.6691
G01 X21.2961 Y24.6813
G01 X21.3161 Y24.7041
G01 X22.5333 Y25.9213
G01 X22.5865 Y25.9715
G01 X22.5887 Y25.9743
G01 X22.6271 Y26.0364
G01 X22.6655 Y26.0949
G01 X22.6668 Y26.0976
G01 X22.6898 Y26.1670
G01 X22.7136 Y26.2322
G01 X22.7144 Y26.2357
G01 X22.7204 Y26.3048
G01 X22.7237 Y26.3337
G01 X22.7242 Y26.3483
G01 X22.7277 Y26.3883
G01 X22.7256 Y26.4035
G01 X22.7237 Y26.4337
G01 X22.7237 Y29.8178
G01 X22.7245 Y29.8314
G01 X22.7273 Y29.8577
G01 X22.7286 Y29.8669
G01 X22.7306 Y29.8761
G01 X22.7333 Y29.8850
G01 X22.7392 Y29.8994
G01 X22.7786 Y29.9715
G01 X22.7872 Y29.9839
G01 X22.7972 Y29.9951
G01 X24.5279 Y31.7258
G01 X24.5376 Y31.7342
G01 X24.5674 Y31.7570
G01 X24.5778 Y31.7636
G01 X24.5888 Y31.7691
G01 X24.6003 Y31.7735
G01 X24.6092 Y31.7761
G01 X24.6770 Y31.7931
G01 X24.6893 Y31.7955
G01 X24.7018 Y31.7967
G01 X24.7144 Y31.7967
G01 X24.7270 Y31.7954
G01 X24.7393 Y31.7929
G01 X24.7483 Y31.7902
G01 X24.8146 Y31.7679
G01 X24.8230 Y31.7647
G01 X24.8312 Y31.7609
G01 X24.8392 Y31.7565
G01 X24.8468 Y31.7516
G01 X24.9209 Y31.6997
G01 X24.9718 Y31.6759
G01 X24.9856 Y31.6679
G01 X24.9983 Y31.6582
G01 X25.0497 Y31.6137
G01 X25.0565 Y31.6074
G01 X25.0628 Y31.6005
G01 X25.0722 Y31.5882
G01 X25.0771 Y31.5802
G01 X25.0814 Y31.5720
G01 X25.0871 Y31.5575
G01 X25.1083 Y31.4877
G01 X25.1113 Y31.4755
G01 X25.1128 Y31.4661
G01 X25.1137 Y31.4536
G01 X25.1133 Y31.4410
G01 X25.1117 Y31.4285
G01 X25.1088 Y31.4163
G01 X25.0897 Y31.3491
G01 X25.0856 Y31.3371
G01 X25.0804 Y31.3257
G01 X25.0741 Y31.3148
G01 X25.0667 Y31.3046
G01 X25.0606 Y31.2974
G01 X25.0515 Y31.2886
G01 X24.9991 Y31.2425
G01 X24.9872 Y31.2332
G01 X24.9796 Y31.2283
G01 X24.9716 Y31.2240
G01 X24.9209 Y31.2004
G01 X24.7527 Y31.0826
G01 X24.6075 Y30.9373
G01 X24.4897 Y30.7691
G01 X24.4029 Y30.5830
G01 X24.3497 Y30.3846
G01 X24.3318 Y30.1800
G01 X24.3497 Y29.9754
G01 X24.4029 Y29.7771
G01 X24.4897 Y29.5909
G01 X24.6075 Y29.4227
G01 X24.7527 Y29.2775
G01 X24.9209 Y29.1597
G01 X25.1086 Y29.0722
G01 X25.1329 Y29.0634
G01 X25.1414 Y29.0597
G01 X25.1497 Y29.0554
G01 X25.1577 Y29.0505
G01 X25.1701 Y29.0410
G01 X25.2229 Y28.9953
G01 X25.2320 Y28.9866
G01 X25.2402 Y28.9770
G01 X25.2474 Y28.9667
G01 X25.2521 Y28.9585
G01 X25.2574 Y28.9471
G01 X25.2615 Y28.9352
G01 X25.2820 Y28.8652
G01 X25.2850 Y28.8505
G01 X25.2863 Y28.8354
G01 X25.2863 Y27.9989
G01 X25.2856 Y27.9887
G01 X25.2819 Y27.9562
G01 X25.2794 Y27.9440
G01 X25.2757 Y27.9321
G01 X25.2721 Y27.9235
G01 X25.2680 Y27.9151
G01 X25.2345 Y27.8538
G01 X25.2282 Y27.8435
G01 X25.2210 Y27.8338
G01 X25.2129 Y27.8249
G01 X20.7613 Y23.3733
G01 X20.7500 Y23.3633
G01 X20.7402 Y23.3563
G01 X20.6931 Y23.3261
G01 X20.6848 Y23.3215
G01 X20.6733 Y23.3163
G01 X20.6582 Y23.3115
G01 X20.6426 Y23.3086
G01 X20.5666 Y23.3030
G01 X20.5572 Y23.3027
G01 X20.5415 Y23.3037
G01 X20.5291 Y23.3059
G01 X20.5170 Y23.3094
G01 X20.5024 Y23.3153
G01 X20.4329 Y23.3532
G01 X20.4203 Y23.3615
G01 X20.4132 Y23.3672
G01 X20.4066 Y23.3733
G01 X20.3174 Y23.4626
G01 X20.1491 Y23.5804
G01 X19.9630 Y23.6672
G01 X19.7646 Y23.7203
G01 X19.5600 Y23.7382
G01 X19.3554 Y23.7203
G01 X19.1571 Y23.6672
G01 X18.9709 Y23.5804
G01 X18.8027 Y23.4626
G01 X18.6575 Y23.3174
G01 X18.6370 Y23.2882
G01 X18.6292 Y23.2786
G01 X18.6228 Y23.2720
G01 X18.5883 Y23.2388
G01 X18.5767 Y23.2289
G01 X18.5692 Y23.2237
G01 X18.5587 Y23.2176
G01 X18.5504 Y23.2137
G01 X18.5390 Y23.2094
G01 X18.4662 Y23.1880
G01 X18.4514 Y23.1850
G01 X18.4394 Y23.1839
G01 X15.6067 Y23.1837
G01 X15.5975 Y23.1841
G01 X15.5883 Y23.1851
G01 X15.5352 Y23.1954
G01 X15.5205 Y23.1992
G01 X15.5119 Y23.2023
G01 X15.5009 Y23.2074
G01 X15.4929 Y23.2120
G01 X15.4829 Y23.2189
G01 X15.4259 Y23.2644
G01 X15.4147 Y23.2745
G01 X15.4086 Y23.2811
G01 X15.4030 Y23.2882
G01 X15.3826 Y23.3174
G01 X15.2374 Y23.4626
G01 X15.0691 Y23.5804
G01 X14.8830 Y23.6672
G01 X14.6846 Y23.7203
G01 X14.4800 Y23.7382
G01 X14.2754 Y23.7203
G01 X14.0771 Y23.6672
G01 X13.8909 Y23.5804
G01 X13.7227 Y23.4626
G01 X13.5775 Y23.3173
G01 X13.4597 Y23.1491
G01 X13.3729 Y22.9630
G01 X13.3197 Y22.7646
G01 X13.3018 Y22.5600
G01 X13.3197 Y22.3554
G01 X13.3729 Y22.1571
G01 X13.4597 Y21.9709
G01 X13.5775 Y21.8027
G01 X13.7227 Y21.6575
G01 X13.8909 Y21.5397
G01 X14.0771 Y21.4529
G01 X14.2754 Y21.3997
G01 X14.4800 Y21.3818
G01 X14.6846 Y21.3997
G01 X14.8830 Y21.4529
G01 X15.0691 Y21.5397
G01 X15.2374 Y21.6575
G00 Z2.0000
G00 X15.3259 Y22.1831
G01 F60.00
G01 Z-0.1000
G01 F120.00
G01 X18.7141 Y22.1831
G01 X18.7427 Y22.1231
G01 X18.7861 Y22.0504
G01 X18.7930 Y22.0400
G01 X18.8398 Y21.9770
G01 X18.8456 Y21.9697
G01 X18.9047 Y21.9047
G01 X18.9674 Y21.8477
G01 X18.9770 Y21.8398
G01 X19.0400 Y21.7930
G01 X19.0477 Y21.7877
G01 X19.1231 Y21.7427
G01 X19.1997 Y21.7063
G01 X19.2112 Y21.7015
G01 X19.2910 Y21.6731
G01 X19.3731 Y21.6524
G01 X19.3853 Y21.6500
G01 X19.4692 Y21.6377
G01 X19.5600 Y21.6332
G01 X19.6509 Y21.6377
G01 X19.7347 Y21.6500
G01 X19.7469 Y21.6524
G01 X19.8291 Y21.6731
G01 X19.9089 Y21.7015
G01 X19.9204 Y21.7063
G01 X19.9969 Y21.7427
G01 X20.0723 Y21.7877
G01 X20.0800 Y21.7930
G01 X20.1431 Y21.8398
G01 X20.1527 Y21.8477
G01 X20.2154 Y21.9047
G01 X20.2744 Y21.9697
G01 X20.2803 Y21.9770
G01 X20.3270 Y22.0400
G01 X20.3340 Y22.0504
G01 X20.3774 Y22.1231
G01 X20.4059 Y22.1831
G01 X20.8300 Y22.1831
G01 X20.8670 Y22.1849
G01 X20.8974 Y22.1893
G01 X20.9096 Y22.1917
G01 X20.9394 Y22.1993
G01 X20.9685 Y22.2096
G01 X20.9800 Y22.2143
G01 X21.0077 Y22.2276
G01 X21.0342 Y22.2433
G01 X21.0445 Y22.2502
G01 X21.0691 Y22.2687
G01 X21.0966 Y22.2935
G01 X26.1766 Y27.3735
G01 X26.2014 Y27.4009
G01 X26.2217 Y27.4281
G01 X26.2394 Y27.4569
G01 X26.2452 Y27.4679
G01 X26.2583 Y27.4958
G01 X26.2707 Y27.5306
G01 X26.2783 Y27.5604
G01 X26.2808 Y27.5726
G01 X26.2851 Y27.6031
G01 X26.2869 Y27.6369
G01 X26.2869 Y29.2532
G01 X26.3162 Y29.2534
G01 X26.4009 Y29.2577
G01 X26.4847 Y29.2700
G01 X26.4969 Y29.2724
G01 X26.5791 Y29.2931
G01 X26.6589 Y29.3215
G01 X26.6704 Y29.3263
G01 X26.7414 Y29.3599
G01 X26.7523 Y29.3657
G01 X26.8249 Y29.4094
G01 X26.8931 Y29.4598
G01 X26.9027 Y29.4677
G01 X26.9654 Y29.5247
G01 X27.0265 Y29.5921
G01 X27.0770 Y29.6600
G01 X27.0840 Y29.6704
G01 X27.1274 Y29.7431
G01 X27.1663 Y29.8254
G01 X27.1950 Y29.9051
G01 X27.1986 Y29.9170
G01 X27.2190 Y29.9992
G01 X27.2316 Y30.0830
G01 X27.2328 Y30.0954
G01 X27.2368 Y30.1800
G01 X27.2328 Y30.2647
G01 X27.2316 Y30.2770
G01 X27.2201 Y30.3547
G01 X27.2177 Y30.3669
G01 X27.1969 Y30.4491
G01 X27.1685 Y30.5289
G01 X27.1638 Y30.5404
G01 X27.1274 Y30.6169
G01 X27.0840 Y30.6897
G01 X27.0770 Y30.7000
G01 X27.0303 Y30.7631
G01 X27.0224 Y30.7727
G01 X26.9654 Y30.8354
G01 X26.9027 Y30.8924
G01 X26.8931 Y30.9003
G01 X26.8249 Y30.9506
G01 X26.7469 Y30.9974
G01 X26.6647 Y31.0363
G01 X26.5850 Y31.0650
G01 X26.5731 Y31.0686
G01 X26.4908 Y31.0890
G01 X26.4070 Y31.1016
G01 X26.3947 Y31.1028
G01 X26.3131 Y31.1068
G01 X25.5069 Y31.1068
G01 X25.4192 Y31.1024
G01 X25.3353 Y31.0901
G01 X25.3262 Y31.0884
G01 X25.2410 Y31.0669
G01 X25.1554 Y31.0363
G01 X25.0731 Y30.9974
G01 X25.0004 Y30.9540
G01 X24.9900 Y30.9470
G01 X24.9270 Y30.9003
G01 X24.9174 Y30.8924
G01 X24.8547 Y30.8354
G01 X24.7936 Y30.7680
G01 X24.7394 Y30.6949
G01 X24.6957 Y30.6223
G01 X24.6899 Y30.6114
G01 X24.6563 Y30.5404
G01 X24.6515 Y30.5289
G01 X24.6231 Y30.4491
G01 X24.6024 Y30.3669
G01 X24.6000 Y30.3547
G01 X24.5877 Y30.2709
G01 X24.5832 Y30.1800
G01 X24.5877 Y30.0892
G01 X24.6000 Y30.0053
G01 X24.6024 Y29.9931
G01 X24.6231 Y29.9110
G01 X24.6538 Y29.8254
G01 X24.6927 Y29.7431
G01 X24.7361 Y29.6704
G01 X24.7430 Y29.6600
G01 X24.7898 Y29.5970
G01 X24.7977 Y29.5874
G01 X24.8547 Y29.5247
G01 X24.9174 Y29.4677
G01 X24.9245 Y29.4617
G01 X24.9951 Y29.4094
G01 X25.0731 Y29.3627
G01 X25.1554 Y29.3238
G01 X25.2380 Y29.2941
G01 X25.2470 Y29.2915
G01 X25.3292 Y29.2710
G01 X25.4130 Y29.2584
G01 X25.4254 Y29.2572
G01 X25.5038 Y29.2534
G01 X25.5331 Y29.2532
G01 X25.5331 Y27.7962
G01 X20.6739 Y22.9369
G01 X20.4059 Y22.9369
G01 X20.3774 Y22.9969
G01 X20.3340 Y23.0697
G01 X20.3270 Y23.0800
G01 X20.2803 Y23.1431
G01 X20.2744 Y23.1504
G01 X20.2154 Y23.2154
G01 X20.1527 Y23.2724
G01 X20.1431 Y23.2803
G01 X20.0800 Y23.3270
G01 X20.0723 Y23.3323
G01 X19.9969 Y23.3774
G01 X19.9204 Y23.4138
G01 X19.9089 Y23.4185
G01 X19.8291 Y23.4469
G01 X19.7469 Y23.4677
G01 X19.7347 Y23.4701
G01 X19.6509 Y23.4824
G01 X19.5600 Y23.4868
G01 X19.4692 Y23.4824
G01 X19.3853 Y23.4701
G01 X19.3731 Y23.4677
G01 X19.2910 Y23.4469
G01 X19.2112 Y23.4185
G01 X19.1997 Y23.4138
G01 X19.1231 Y23.3774
G01 X19.0477 Y23.3323
G01 X19.0400 Y23.3270
G01 X18.9770 Y23.2803
G01 X18.9674 Y23.2724
G01 X18.9047 Y23.2154
G01 X18.8456 Y23.1504
G01 X18.8398 Y23.1431
G01 X18.7930 Y23.0800
G01 X18.7861 Y23.0697
G01 X18.7427 Y22.9969
G01 X18.7141 Y22.9369
G01 X15.3259 Y22.9369
G01 X15.2974 Y22.9969
G01 X15.2540 Y23.0697
G01 X15.2470 Y23.0800
G01 X15.2003 Y23.1431
G01 X15.1944 Y23.1504
G01 X15.1354 Y23.2154
G01 X15.0727 Y23.2724
G01 X15.0631 Y23.2803
G01 X15.0000 Y23.3270
G01 X14.9923 Y23.3323
G01 X14.9169 Y23.3774
G01 X14.8404 Y23.4138
G01 X14.8289 Y23.4185
G01 X14.7491 Y23.4469
G01 X14.6669 Y23.4677
G01 X14.6547 Y23.4701
G01 X14.5709 Y23.4824
G01 X14.4800 Y23.4868
G01 X14.3892 Y23.4824
G01 X14.3053 Y23.4701
G01 X14.2931 Y23.4677
G01 X14.2110 Y23.4469
G01 X14.1312 Y23.4185
G01 X14.1197 Y23.4138
G01 X14.0431 Y23.3774
G01 X13.9651 Y23.3306
G01 X13.8921 Y23.2765
G01 X13.8292 Y23.2197
G01 X13.8204 Y23.2109
G01 X13.7636 Y23.1480
G01 X13.7130 Y23.0800
G01 X13.7061 Y23.0697
G01 X13.6627 Y22.9969
G01 X13.6250 Y22.9176
G01 X13.6215 Y22.9089
G01 X13.5931 Y22.8291
G01 X13.5710 Y22.7408
G01 X13.5577 Y22.6509
G01 X13.5532 Y22.5600
G01 X13.5577 Y22.4692
G01 X13.5710 Y22.3792
G01 X13.5931 Y22.2910
G01 X13.6238 Y22.2054
G01 X13.6627 Y22.1231
G01 X13.7094 Y22.0451
G01 X13.7636 Y21.9721
G01 X13.8247 Y21.9047
G01 X13.8921 Y21.8436
G01 X13.9651 Y21.7894
G01 X14.0431 Y21.7427
G01 X14.1225 Y21.7050
G01 X14.1312 Y21.7015
G01 X14.2110 Y21.6731
G01 X14.2992 Y21.6510
G01 X14.3892 Y21.6377
G01 X14.4800 Y21.6332
G01 X14.5709 Y21.6377
G01 X14.6608 Y21.6510
G01 X14.7491 Y21.6731
G01 X14.8318 Y21.7026
G01 X14.8404 Y21.7063
G01 X14.9169 Y21.7427
G01 X14.9949 Y21.7894
G01 X15.0680 Y21.8436
G01 X15.1331 Y21.9025
G01 X15.1397 Y21.9092
G01 X15.1965 Y21.9721
G01 X15.2489 Y22.0426
G01 X15.2540 Y22.0504
G01 X15.2974 Y22.1231
G01 X15.3259 Y22.1831
G00 Z2.0000
G00 X15.3259 Y25.9931
G01 F60.00
G01 Z-0.1000
G01 F120.00
G01 X15.5939 Y25.9931
G01 X16.7557 Y24.8313
G01 X16.7809 Y24.8087
G01 X16.8055 Y24.7902
G01 X16.8159 Y24.7833
G01 X16.8423 Y24.7676
G01 X16.8701 Y24.7543
G01 X16.8816 Y24.7496
G01 X16.9106 Y24.7393
G01 X16.9434 Y24.7310
G01 X16.9526 Y24.7293
G01 X16.9831 Y24.7249
G01 X17.0200 Y24.7231
G01 X20.8331 Y24.7231
G01 X20.8670 Y24.7249
G01 X20.9036 Y24.7303
G01 X20.9394 Y24.7393
G01 X20.9714 Y24.7506
G01 X20.9800 Y24.7543
G01 X21.0077 Y24.7676
G01 X21.0342 Y24.7833
G01 X21.0445 Y24.7902
G01 X21.0667 Y24.8067
G01 X21.0739 Y24.8127
G01 X21.0966 Y24.8335
G01 X22.3687 Y26.1057
G01 X22.3914 Y26.1309
G01 X22.4134 Y26.1606
G01 X22.4324 Y26.1923
G01 X22.4483 Y26.2258
G01 X22.4607 Y26.2606
G01 X22.4697 Y26.2965
G01 X22.4751 Y26.3331
G01 X22.4769 Y26.3669
G01 X22.4769 Y30.0239
G01 X24.7089 Y32.2558
G01 X24.7394 Y32.2051
G01 X24.7898 Y32.1370
G01 X24.7977 Y32.1274
G01 X24.8525 Y32.0669
G01 X24.8592 Y32.0604
G01 X24.9221 Y32.0036
G01 X24.9926 Y31.9512
G01 X25.0004 Y31.9461
G01 X25.0731 Y31.9027
G01 X25.1554 Y31.8638
G01 X25.2410 Y31.8331
G01 X25.3262 Y31.8117
G01 X25.3353 Y31.8100
G01 X25.4192 Y31.7977
G01 X25.5069 Y31.7933
G01 X26.3131 Y31.7933
G01 X26.4009 Y31.7977
G01 X26.4847 Y31.8100
G01 X26.4969 Y31.8124
G01 X26.5791 Y31.8331
G01 X26.6647 Y31.8638
G01 X26.7469 Y31.9027
G01 X26.8249 Y31.9494
G01 X26.8980 Y32.0036
G01 X26.9654 Y32.0647
G01 X27.0265 Y32.1321
G01 X27.0806 Y32.2051
G01 X27.1274 Y32.2831
G01 X27.1663 Y32.3654
G01 X27.1969 Y32.4510
G01 X27.2190 Y32.5392
G01 X27.2324 Y32.6292
G01 X27.2368 Y32.7200
G01 X27.2324 Y32.8109
G01 X27.2190 Y32.9008
G01 X27.1978 Y32.9861
G01 X27.1950 Y32.9950
G01 X27.1663 Y33.0747
G01 X27.1302 Y33.1514
G01 X27.1243 Y33.1623
G01 X27.0806 Y33.2349
G01 X27.0303 Y33.3031
G01 X27.0224 Y33.3127
G01 X26.9654 Y33.3754
G01 X26.9027 Y33.4324
G01 X26.8931 Y33.4403
G01 X26.8249 Y33.4906
G01 X26.7523 Y33.5343
G01 X26.7414 Y33.5402
G01 X26.6647 Y33.5763
G01 X26.5850 Y33.6050
G01 X26.5731 Y33.6086
G01 X26.4908 Y33.6290
G01 X26.4070 Y33.6416
G01 X26.3947 Y33.6428
G01 X26.3131 Y33.6468
G01 X25.5038 Y33.6467
G01 X25.4192 Y33.6424
G01 X25.3353 Y33.6301
G01 X25.3231 Y33.6277
G01 X25.2470 Y33.6086
G01 X25.2351 Y33.6050
G01 X25.1554 Y33.5763
G01 X25.0787 Y33.5402
G01 X25.0677 Y33.5343
G01 X25.0004 Y33.4940
G01 X24.9900 Y33.4870
G01 X24.9221 Y33.4365
G01 X24.8592 Y33.3797
G01 X24.8525 Y33.3731
G01 X24.7936 Y33.3080
G01 X24.7394 Y33.2349
G01 X24.6927 Y33.1569
G01 X24.6641 Y33.0969
G01 X24.6369 Y33.0969
G01 X24.6062 Y33.0954
G01 X24.5969 Y33.0944
G01 X24.5695 Y33.0903
G01 X24.5604 Y33.0883
G01 X24.5306 Y33.0807
G01 X24.4987 Y33.0694
G01 X24.4901 Y33.0657
G01 X24.4623 Y33.0524
G01 X24.4306 Y33.0334
G01 X24.4009 Y33.0114
G01 X24.3757 Y32.9887
G01 X21.8335 Y30.4466
G01 X21.8087 Y30.4191
G01 X21.7866 Y30.3894
G01 X21.7676 Y30.3577
G01 X21.7518 Y30.3243
G01 X21.7393 Y30.2894
G01 X21.7303 Y30.2536
G01 X21.7249 Y30.2170
G01 X21.7231 Y30.1831
G01 X21.7231 Y26.5262
G01 X20.6739 Y25.4769
G01 X19.8050 Y25.4769
G01 X19.8320 Y25.4841
G01 X19.9089 Y25.5115
G01 X19.9176 Y25.5150
G01 X19.9969 Y25.5527
G01 X20.0723 Y25.5977
G01 X20.0800 Y25.6030
G01 X20.1480 Y25.6536
G01 X20.2109 Y25.7104
G01 X20.2197 Y25.7192
G01 X20.2724 Y25.7774
G01 X20.2784 Y25.7845
G01 X20.3306 Y25.8551
G01 X20.3743 Y25.9277
G01 X20.3802 Y25.9387
G01 X20.4138 Y26.0097
G01 X20.4185 Y26.0212
G01 X20.4469 Y26.1010
G01 X20.4690 Y26.1892
G01 X20.4824 Y26.2792
G01 X20.4868 Y26.3669
G01 X20.4867 Y26.3762
G01 X20.4828 Y26.4547
G01 X20.4816 Y26.4670
G01 X20.4690 Y26.5508
G01 X20.4469 Y26.6391
G01 X20.4185 Y26.7189
G01 X20.4138 Y26.7304
G01 X20.3774 Y26.8069
G01 X20.3323 Y26.8823
G01 X20.3270 Y26.8900
G01 X20.2803 Y26.9531
G01 X20.2724 Y26.9627
G01 X20.2154 Y27.0254
G01 X20.1504 Y27.0844
G01 X20.1431 Y27.0903
G01 X20.0800 Y27.1370
G01 X20.0697 Y27.1440
G01 X19.9969 Y27.1874
G01 X19.9369 Y27.2159
G01 X19.9369 Y35.1039
G01 X22.2562 Y37.4231
G01 X24.6641 Y37.4231
G01 X24.6927 Y37.3631
G01 X24.7361 Y37.2904
G01 X24.7430 Y37.2800
G01 X24.7898 Y37.2170
G01 X24.7977 Y37.2074
G01 X24.8547 Y37.1447
G01 X24.9221 Y37.0836
G01 X24.9951 Y37.0294
G01 X25.0677 Y36.9857
G01 X25.0787 Y36.9799
G01 X25.1554 Y36.9438
G01 X25.2351 Y36.9151
G01 X25.2470 Y36.9115
G01 X25.3262 Y36.8917
G01 X25.3353 Y36.8900
G01 X25.4192 Y36.8777
G01 X25.5069 Y36.8733
G01 X26.3100 Y36.8732
G01 X26.3978 Y36.8774
G01 X26.4070 Y36.8784
G01 X26.4908 Y36.8910
G01 X26.5791 Y36.9131
G01 X26.6647 Y36.9438
G01 X26.7414 Y36.9799
G01 X26.7523 Y36.9857
G01 X26.8249 Y37.0294
G01 X26.8931 Y37.0798
G01 X26.9027 Y37.0877
G01 X26.9609 Y37.1404
G01 X26.9697 Y37.1492
G01 X27.0265 Y37.2121
G01 X27.0770 Y37.2800
G01 X27.0840 Y37.2904
G01 X27.1274 Y37.3631
G01 X27.1663 Y37.4454
G01 X27.1969 Y37.5310
G01 X27.2177 Y37.6131
G01 X27.2201 Y37.6253
G01 X27.2324 Y37.7092
G01 X27.2367 Y37.7938
G01 X27.2367 Y37.8062
G01 X27.2328 Y37.8847
G01 X27.2316 Y37.8970
G01 X27.2190 Y37.9808
G01 X27.1969 Y38.0691
G01 X27.1685 Y38.1489
G01 X27.1638 Y38.1604
G01 X27.1274 Y38.2369
G01 X27.0840 Y38.3097
G01 X27.0770 Y38.3200
G01 X27.0265 Y38.3880
G01 X26.9697 Y38.4509
G01 X26.9631 Y38.4575
G01 X26.8980 Y38.5165
G01 X26.8300 Y38.5670
G01 X26.8197 Y38.5740
G01 X26.7469 Y38.6174
G01 X26.6647 Y38.6563
G01 X26.5850 Y38.6850
G01 X26.5731 Y38.6886
G01 X26.4969 Y38.7077
G01 X26.4878 Y38.7096
G01 X26.4009 Y38.7224
G01 X26.3100 Y38.7268
G01 X25.5100 Y38.7268
G01 X25.4223 Y38.7226
G01 X25.4130 Y38.7216
G01 X25.3353 Y38.7101
G01 X25.3231 Y38.7077
G01 X25.2410 Y38.6869
G01 X25.1612 Y38.6585
G01 X25.1497 Y38.6538
G01 X25.0731 Y38.6174
G01 X25.0004 Y38.5740
G01 X24.9926 Y38.5689
G01 X24.9221 Y38.5165
G01 X24.8592 Y38.4597
G01 X24.8504 Y38.4509
G01 X24.7936 Y38.3880
G01 X24.7430 Y38.3200
G01 X24.7361 Y38.3097
G01 X24.6927 Y38.2369
G01 X24.6641 Y38.1769
G01 X22.1000 Y38.1769
G01 X22.0631 Y38.1751
G01 X22.0265 Y38.1697
G01 X21.9906 Y38.1607
G01 X21.9587 Y38.1494
G01 X21.9501 Y38.1457
G01 X21.9223 Y38.1324
G01 X21.8906 Y38.1134
G01 X21.8609 Y38.0914
G01 X21.8335 Y38.0666
G01 X19.2913 Y35.5243
G01 X19.2687 Y35.4991
G01 X19.2466 Y35.4694
G01 X19.2276 Y35.4377
G01 X19.2118 Y35.4043
G01 X19.1993 Y35.3694
G01 X19.1903 Y35.3336
G01 X19.1849 Y35.2970
G01 X19.1831 Y35.2631
G01 X19.1831 Y27.2159
G01 X19.1231 Y27.1874
G01 X19.0504 Y27.1440
G01 X19.0400 Y27.1370
G01 X18.9770 Y27.0903
G01 X18.9697 Y27.0844
G01 X18.9047 Y27.0254
G01 X18.8477 Y26.9627
G01 X18.8398 Y26.9531
G01 X18.7930 Y26.8900
G01 X18.7877 Y26.8823
G01 X18.7427 Y26.8069
G01 X18.7063 Y26.7304
G01 X18.7015 Y26.7189
G01 X18.6731 Y26.6391
G01 X18.6510 Y26.5508
G01 X18.6384 Y26.4670
G01 X18.6372 Y26.4547
G01 X18.6332 Y26.3700
G01 X18.6377 Y26.2792
G01 X18.6500 Y26.1953
G01 X18.6524 Y26.1831
G01 X18.6715 Y26.1070
G01 X18.6751 Y26.0951
G01 X18.7038 Y26.0154
G01 X18.7427 Y25.9331
G01 X18.7894 Y25.8551
G01 X18.8417 Y25.7845
G01 X18.8477 Y25.7774
G01 X18.9004 Y25.7192
G01 X18.9092 Y25.7104
G01 X18.9721 Y25.6536
G01 X19.0400 Y25.6030
G01 X19.0477 Y25.5977
G01 X19.1231 Y25.5527
G01 X19.2025 Y25.5150
G01 X19.2112 Y25.5115
G01 X19.2880 Y25.4841
G01 X19.3150 Y25.4769
G01 X17.1762 Y25.4769
G01 X16.0166 Y26.6366
G01 X15.9891 Y26.6614
G01 X15.9620 Y26.6817
G01 X15.9542 Y26.6868
G01 X15.9277 Y26.7024
G01 X15.9000 Y26.7157
G01 X15.8885 Y26.7205
G01 X15.8594 Y26.7307
G01 X15.8296 Y26.7383
G01 X15.8174 Y26.7408
G01 X15.7870 Y26.7451
G01 X15.7500 Y26.7469
G01 X15.3259 Y26.7469
G01 X15.2974 Y26.8069
G01 X15.2540 Y26.8797
G01 X15.2470 Y26.8900
G01 X15.2003 Y26.9531
G01 X15.1924 Y26.9627
G01 X15.1354 Y27.0254
G01 X15.0680 Y27.0865
G01 X14.9949 Y27.1406
G01 X14.9223 Y27.1843
G01 X14.9114 Y27.1902
G01 X14.8347 Y27.2263
G01 X14.7550 Y27.2550
G01 X14.7431 Y27.2586
G01 X14.6639 Y27.2784
G01 X14.6547 Y27.2801
G01 X14.5709 Y27.2924
G01 X14.4862 Y27.2967
G01 X14.4738 Y27.2967
G01 X14.3954 Y27.2928
G01 X14.3830 Y27.2916
G01 X14.2992 Y27.2790
G01 X14.2110 Y27.2569
G01 X14.1254 Y27.2263
G01 X14.0431 Y27.1874
G01 X13.9651 Y27.1406
G01 X13.8970 Y27.0903
G01 X13.8874 Y27.0824
G01 X13.8292 Y27.0297
G01 X13.8204 Y27.0209
G01 X13.7636 Y26.9580
G01 X13.7094 Y26.8849
G01 X13.6627 Y26.8069
G01 X13.6250 Y26.7276
G01 X13.6215 Y26.7189
G01 X13.5931 Y26.6391
G01 X13.5710 Y26.5508
G01 X13.5577 Y26.4609
G01 X13.5532 Y26.3700
G01 X13.5577 Y26.2792
G01 X13.5710 Y26.1892
G01 X13.5931 Y26.1010
G01 X13.6238 Y26.0154
G01 X13.6627 Y25.9331
G01 X13.7094 Y25.8551
G01 X13.7636 Y25.7821
G01 X13.8247 Y25.7147
G01 X13.8921 Y25.6536
G01 X13.9651 Y25.5994
G01 X14.0431 Y25.5527
G01 X14.1225 Y25.5150
G01 X14.1312 Y25.5115
G01 X14.2110 Y25.4831
G01 X14.2992 Y25.4610
G01 X14.3892 Y25.4477
G01 X14.4800 Y25.4432
G01 X14.5709 Y25.4477
G01 X14.6608 Y25.4610
G01 X14.7491 Y25.4831
G01 X14.8318 Y25.5126
G01 X14.8404 Y25.5163
G01 X14.9169 Y25.5527
G01 X14.9949 Y25.5994
G01 X15.0680 Y25.6536
G01 X15.1331 Y25.7125
G01 X15.1397 Y25.7192
G01 X15.1965 Y25.7821
G01 X15.2489 Y25.8526
G01 X15.2540 Y25.8604
G01 X15.2974 Y25.9331
G01 X15.3259 Y25.9931
G00 Z2.0000
G00 X15.2374 Y38.1675
G01 F60.00
G01 Z-0.1000
G01 F120.00
G01 X15.3826 Y38.3127
G01 X15.5004 Y38.4809
G01 X15.5872 Y38.6671
G01 X15.6403 Y38.8654
G01 X15.6582 Y39.0700
G01 X15.6442 Y39.2322
G01 X15.6444 Y39.2449
G01 X15.6467 Y39.2821
G01 X15.6481 Y39.2943
G01 X15.6506 Y39.3063
G01 X15.6533 Y39.3152
G01 X15.6566 Y39.3238
G01 X15.6605 Y39.3321
G01 X15.6969 Y39.3988
G01 X15.7035 Y39.4089
G01 X15.7090 Y39.4161
G01 X15.7171 Y39.4250
G01 X18.1832 Y41.8911
G01 X18.1952 Y41.9024
G01 X18.2025 Y41.9084
G01 X18.2128 Y41.9155
G01 X18.2238 Y41.9215
G01 X18.2902 Y41.9519
G01 X18.2989 Y41.9555
G01 X18.3079 Y41.9584
G01 X18.3171 Y41.9607
G01 X18.3264 Y41.9623
G01 X18.3358 Y41.9631
G01 X18.3452 Y41.9633
G01 X18.3578 Y41.9625
G01 X18.4301 Y41.9521
G01 X18.4455 Y41.9489
G01 X18.4604 Y41.9438
G01 X18.4690 Y41.9399
G01 X18.4772 Y41.9353
G01 X18.4902 Y41.9264
G01 X18.5479 Y41.8767
G01 X18.5591 Y41.8656
G01 X18.5671 Y41.8559
G01 X18.5756 Y41.8426
G01 X18.5824 Y41.8284
G01 X18.5865 Y41.8166
G01 X18.6070 Y41.7466
G01 X18.6100 Y41.7318
G01 X18.6112 Y41.7198
G01 X18.6113 Y39.8405
G01 X18.6106 Y39.8234
G01 X18.6088 Y39.8106
G01 X18.6056 Y39.7981
G01 X18.5823 Y39.7289
G01 X18.5779 Y39.7176
G01 X18.5739 Y39.7095
G01 X18.5677 Y39.6991
G01 X18.5397 Y39.6591
G01 X18.4529 Y39.4730
G01 X18.3997 Y39.2746
G01 X18.3818 Y39.0700
G01 X18.3997 Y38.8654
G01 X18.4529 Y38.6671
G01 X18.5397 Y38.4809
G01 X18.6575 Y38.3127
G01 X18.8027 Y38.1675
G01 X18.9709 Y38.0497
G01 X19.1571 Y37.9629
G01 X19.3554 Y37.9097
G01 X19.5600 Y37.8918
G01 X19.7646 Y37.9097
G01 X19.9630 Y37.9629
G01 X20.1491 Y38.0497
G01 X20.3174 Y38.1675
G01 X20.4626 Y38.3127
G01 X20.5804 Y38.4809
G01 X20.6672 Y38.6671
G01 X20.7203 Y38.8654
G01 X20.7382 Y39.0700
G01 X20.7203 Y39.2746
G01 X20.6672 Y39.4730
G01 X20.5804 Y39.6591
G01 X20.4626 Y39.8274
G01 X20.3174 Y39.9726
G01 X20.1491 Y40.0904
G01 X20.0035 Y40.1582
G01 X19.9893 Y40.1660
G01 X19.9762 Y40.1756
G01 X19.9195 Y40.2251
G01 X19.9107 Y40.2340
G01 X19.9010 Y40.2463
G01 X19.8929 Y40.2596
G01 X19.8865 Y40.2739
G01 X19.8835 Y40.2828
G01 X19.8623 Y40.3557
G01 X19.8596 Y40.3705
G01 X19.8587 Y40.3856
G01 X19.8587 Y42.8066
G01 X19.8593 Y42.8184
G01 X19.8615 Y42.8331
G01 X19.8738 Y42.8899
G01 X19.8788 Y42.9048
G01 X19.8841 Y42.9162
G01 X19.8905 Y42.9270
G01 X19.8979 Y42.9372
G01 X19.9472 Y42.9950
G01 X19.9579 Y43.0056
G01 X19.9698 Y43.0149
G01 X20.0999 Y43.0999
G01 X20.2616 Y43.2487
G01 X20.3966 Y43.4222
G01 X20.5012 Y43.6155
G01 X20.5725 Y43.8233
G01 X20.6087 Y44.0401
G01 X20.6087 Y44.2599
G01 X20.5725 Y44.4767
G01 X20.5012 Y44.6846
G01 X20.3966 Y44.8779
G01 X20.2616 Y45.0513
G01 X20.0999 Y45.2002
G01 X20.0819 Y45.2120
G01 X20.0750 Y45.2170
G01 X20.0430 Y45.2447
G01 X20.0341 Y45.2536
G01 X20.0262 Y45.2633
G01 X20.0193 Y45.2738
G01 X20.0148 Y45.2821
G01 X19.9839 Y45.3482
G01 X19.9792 Y45.3599
G01 X19.9749 Y45.3750
G01 X19.9729 Y45.3875
G01 X19.9721 Y45.4000
G01 X19.9728 Y45.4157
G01 X19.9826 Y45.4881
G01 X19.9857 Y45.5035
G01 X19.9896 Y45.5155
G01 X19.9946 Y45.5271
G01 X20.0007 Y45.5381
G01 X20.0079 Y45.5484
G01 X20.0572 Y45.6064
G01 X20.0655 Y45.6152
G01 X20.0722 Y45.6213
G01 X20.0793 Y45.6269
G01 X20.0996 Y45.6403
G01 X20.2612 Y45.7891
G01 X20.3962 Y45.9625
G01 X20.5007 Y46.1557
G01 X20.5548 Y46.3132
G01 X20.2928 Y46.3132
G01 X20.2819 Y46.2828
G01 X20.2784 Y46.2741
G01 X20.2372 Y46.1868
G01 X20.2329 Y46.1785
G01 X20.1799 Y46.0904
G01 X20.1207 Y46.0102
G01 X20.1148 Y46.0029
G01 X20.0457 Y45.9268
G01 X19.9672 Y45.8557
G01 X19.8822 Y45.7926
G01 X19.7940 Y45.7397
G01 X19.7857 Y45.7354
G01 X19.6956 Y45.6929
G01 X19.6017 Y45.6592
G01 X19.5898 Y45.6555
G01 X19.4931 Y45.6315
G01 X19.3945 Y45.6167
G01 X19.3821 Y45.6155
G01 X19.2825 Y45.6107
G01 X19.1844 Y45.6108
G01 X19.0848 Y45.6157
G01 X19.0756 Y45.6167
G01 X18.9770 Y45.6315
G01 X18.8802 Y45.6555
G01 X18.8683 Y45.6592
G01 X18.7745 Y45.6929
G01 X18.6815 Y45.7367
G01 X18.6733 Y45.7412
G01 X18.5879 Y45.7926
G01 X18.5028 Y45.8557
G01 X18.4243 Y45.9268
G01 X18.3552 Y46.0029
G01 X18.3494 Y46.0102
G01 X18.2901 Y46.0904
G01 X18.2372 Y46.1785
G01 X18.2329 Y46.1868
G01 X18.1916 Y46.2741
G01 X18.1881 Y46.2828
G01 X18.1773 Y46.3132
G01 X17.9152 Y46.3132
G01 X17.9693 Y46.1557
G01 X18.0739 Y45.9624
G01 X18.2088 Y45.7891
G01 X18.3705 Y45.6403
G01 X18.3881 Y45.6287
G01 X18.3973 Y45.6218
G01 X18.4271 Y45.5960
G01 X18.4338 Y45.5894
G01 X18.4400 Y45.5823
G01 X18.4491 Y45.5696
G01 X18.4553 Y45.5586
G01 X18.4887 Y45.4867
G01 X18.4928 Y45.4748
G01 X18.4958 Y45.4625
G01 X18.4975 Y45.4501
G01 X18.4980 Y45.4375
G01 X18.4968 Y45.4218
G01 X18.4874 Y45.3526
G01 X18.4851 Y45.3402
G01 X18.4816 Y45.3281
G01 X18.4755 Y45.3136
G01 X18.4694 Y45.3026
G01 X18.4622 Y45.2922
G01 X18.4129 Y45.2342
G01 X18.4046 Y45.2254
G01 X18.3979 Y45.2193
G01 X18.3907 Y45.2138
G01 X18.3702 Y45.2002
G01 X18.2085 Y45.0513
G01 X18.0735 Y44.8779
G01 X17.9689 Y44.6846
G01 X17.8975 Y44.4767
G01 X17.8613 Y44.2599
G01 X17.8613 Y44.0401
G01 X17.8975 Y43.8233
G01 X17.9626 Y43.6336
G01 X17.9668 Y43.6185
G01 X17.9691 Y43.6029
G01 X17.9734 Y43.5270
G01 X17.9729 Y43.5147
G01 X17.9706 Y43.4995
G01 X17.9675 Y43.4876
G01 X17.9633 Y43.4761
G01 X17.9579 Y43.4650
G01 X17.9244 Y43.4037
G01 X17.9181 Y43.3934
G01 X17.9109 Y43.3837
G01 X17.9028 Y43.3748
G01 X14.8350 Y40.3071
G01 X14.8256 Y40.2985
G01 X14.7855 Y40.2690
G01 X14.7722 Y40.2613
G01 X14.7610 Y40.2564
G01 X14.7523 Y40.2534
G01 X14.7434 Y40.2510
G01 X14.6719 Y40.2366
G01 X14.6629 Y40.2351
G01 X14.6509 Y40.2342
G01 X14.6388 Y40.2344
G01 X14.4800 Y40.2482
G01 X14.2754 Y40.2303
G01 X14.0771 Y40.1772
G01 X13.8909 Y40.0904
G01 X13.7227 Y39.9726
G01 X13.5775 Y39.8273
G01 X13.4597 Y39.6591
G01 X13.3729 Y39.4730
G01 X13.3197 Y39.2746
G01 X13.3018 Y39.0700
G01 X13.3197 Y38.8654
G01 X13.3729 Y38.6671
G01 X13.4597 Y38.4809
G01 X13.5775 Y38.3127
G01 X13.7227 Y38.1675
G01 X13.8909 Y38.0497
G01 X14.0771 Y37.9629
G01 X14.2754 Y37.9097
G01 X14.4800 Y37.8918
G01 X14.6846 Y37.9097
G01 X14.8830 Y37.9629
G01 X15.0691 Y38.0497
G01 X15.2374 Y38.1675
G00 Z2.0000
G00 X14.8116 Y39.9347
G01 F60.00
G01 Z-0.1000
G01 F120.00
G01 X14.7491 Y39.9569
G01 X14.6669 Y39.9777
G01 X14.6578 Y39.9796
G01 X14.5709 Y39.9924
G01 X14.4862 Y39.9967
G01 X14.4769 Y39.9968
G01 X14.3892 Y39.9924
G01 X14.2992 Y39.9790
G01 X14.2110 Y39.9569
G01 X14.1312 Y39.9285
G01 X14.1225 Y39.9251
G01 X14.0431 Y39.8874
G01 X13.9651 Y39.8406
G01 X13.8921 Y39.7865
G01 X13.8247 Y39.7254
G01 X13.7636 Y39.6580
G01 X13.7094 Y39.5849
G01 X13.6627 Y39.5069
G01 X13.6263 Y39.4304
G01 X13.6226 Y39.4218
G01 X13.5931 Y39.3391
G01 X13.5710 Y39.2508
G01 X13.5577 Y39.1609
G01 X13.5532 Y39.0700
G01 X13.5577 Y38.9792
G01 X13.5710 Y38.8892
G01 X13.5931 Y38.8010
G01 X13.6238 Y38.7154
G01 X13.6627 Y38.6331
G01 X13.7094 Y38.5551
G01 X13.7636 Y38.4821
G01 X13.8247 Y38.4147
G01 X13.8921 Y38.3536
G01 X13.9651 Y38.2994
G01 X14.0431 Y38.2527
G01 X14.1197 Y38.2163
G01 X14.1282 Y38.2126
G01 X14.2110 Y38.1831
G01 X14.2931 Y38.1624
G01 X14.3053 Y38.1600
G01 X14.3892 Y38.1477
G01 X14.4800 Y38.1432
G01 X14.5647 Y38.1472
G01 X14.5770 Y38.1484
G01 X14.6608 Y38.1610
G01 X14.7431 Y38.1815
G01 X14.7550 Y38.1851
G01 X14.8347 Y38.2138
G01 X14.9169 Y38.2527
G01 X14.9949 Y38.2994
G01 X15.0631 Y38.3498
G01 X15.0727 Y38.3577
G01 X15.1354 Y38.4147
G01 X15.1965 Y38.4821
G01 X15.2470 Y38.5500
G01 X15.2540 Y38.5604
G01 X15.2974 Y38.6331
G01 X15.3338 Y38.7097
G01 X15.3385 Y38.7212
G01 X15.3669 Y38.8010
G01 X15.3884 Y38.8862
G01 X15.3901 Y38.8953
G01 X15.4016 Y38.9730
G01 X15.4028 Y38.9854
G01 X15.4068 Y39.0700
G01 X15.4026 Y39.1578
G01 X15.4016 Y39.1670
G01 X15.3901 Y39.2447
G01 X15.3877 Y39.2569
G01 X15.3669 Y39.3391
G01 X15.3447 Y39.4016
G01 X18.8573 Y42.9142
G01 X18.8581 Y39.6742
G01 X18.8417 Y39.6556
G01 X18.7912 Y39.5875
G01 X18.7861 Y39.5797
G01 X18.7457 Y39.5123
G01 X18.7412 Y39.5042
G01 X18.7038 Y39.4247
G01 X18.6751 Y39.3450
G01 X18.6715 Y39.3331
G01 X18.6517 Y39.2539
G01 X18.6500 Y39.2447
G01 X18.6377 Y39.1609
G01 X18.6334 Y39.0762
G01 X18.6334 Y39.0638
G01 X18.6377 Y38.9792
G01 X18.6500 Y38.8953
G01 X18.6524 Y38.8831
G01 X18.6731 Y38.8010
G01 X18.7038 Y38.7154
G01 X18.7399 Y38.6387
G01 X18.7457 Y38.6277
G01 X18.7894 Y38.5551
G01 X18.8398 Y38.4870
G01 X18.8477 Y38.4774
G01 X18.9047 Y38.4147
G01 X18.9674 Y38.3577
G01 X18.9770 Y38.3498
G01 X19.0451 Y38.2994
G01 X19.1177 Y38.2557
G01 X19.1287 Y38.2499
G01 X19.2054 Y38.2138
G01 X19.2851 Y38.1851
G01 X19.2970 Y38.1815
G01 X19.3792 Y38.1610
G01 X19.4630 Y38.1484
G01 X19.4754 Y38.1472
G01 X19.5600 Y38.1432
G01 X19.6447 Y38.1472
G01 X19.6570 Y38.1484
G01 X19.7408 Y38.1610
G01 X19.8231 Y38.1815
G01 X19.8350 Y38.1851
G01 X19.9147 Y38.2138
G01 X19.9914 Y38.2499
G01 X20.0023 Y38.2557
G01 X20.0749 Y38.2994
G01 X20.1431 Y38.3498
G01 X20.1527 Y38.3577
G01 X20.2131 Y38.4125
G01 X20.2197 Y38.4192
G01 X20.2724 Y38.4774
G01 X20.2803 Y38.4870
G01 X20.3306 Y38.5551
G01 X20.3774 Y38.6331
G01 X20.4163 Y38.7154
G01 X20.4450 Y38.7951
G01 X20.4486 Y38.8070
G01 X20.4690 Y38.8892
G01 X20.4824 Y38.9792
G01 X20.4867 Y39.0638
G01 X20.4867 Y39.0762
G01 X20.4824 Y39.1609
G01 X20.4701 Y39.2447
G01 X20.4677 Y39.2569
G01 X20.4469 Y39.3391
G01 X20.4174 Y39.4218
G01 X20.4138 Y39.4304
G01 X20.3802 Y39.5014
G01 X20.3743 Y39.5123
G01 X20.3306 Y39.5849
G01 X20.2765 Y39.6580
G01 X20.2197 Y39.7209
G01 X20.2109 Y39.7297
G01 X20.1480 Y39.7865
G01 X20.0775 Y39.8389
G01 X20.0697 Y39.8440
G01 X20.0023 Y39.8843
G01 X19.9914 Y39.8902
G01 X19.9147 Y39.9263
G01 X19.8320 Y39.9560
G01 X19.8231 Y39.9586
G01 X19.7469 Y39.9777
G01 X19.7378 Y39.9796
G01 X19.6540 Y39.9920
G01 X19.6447 Y39.9928
G01 X19.6119 Y39.9944
G01 X19.6119 Y43.1228
G01 X19.6956 Y43.1529
G01 X19.7857 Y43.1954
G01 X19.7967 Y43.2012
G01 X19.8822 Y43.2526
G01 X19.9672 Y43.3157
G01 X20.0412 Y43.3826
G01 X20.0500 Y43.3914
G01 X20.1168 Y43.4653
G01 X20.1763 Y43.5453
G01 X20.1833 Y43.5557
G01 X20.2344 Y43.6412
G01 X20.2797 Y43.7370
G01 X20.3154 Y43.8367
G01 X20.3397 Y43.9334
G01 X20.3422 Y43.9456
G01 X20.3566 Y44.0442
G01 X20.3618 Y44.1500
G01 X20.3566 Y44.2558
G01 X20.3411 Y44.3606
G01 X20.3170 Y44.4573
G01 X20.3134 Y44.4692
G01 X20.2819 Y44.5572
G01 X20.2771 Y44.5687
G01 X20.2344 Y44.6588
G01 X20.1833 Y44.7444
G01 X20.1763 Y44.7547
G01 X20.1168 Y44.8347
G01 X20.0479 Y44.9110
G01 X20.0412 Y44.9175
G01 X19.9672 Y44.9843
G01 X19.8822 Y45.0474
G01 X19.7913 Y45.1019
G01 X19.6956 Y45.1472
G01 X19.5958 Y45.1829
G01 X19.4931 Y45.2086
G01 X19.3883 Y45.2241
G01 X19.2825 Y45.2293
G01 X19.1844 Y45.2293
G01 X19.0848 Y45.2244
G01 X19.0756 Y45.2234
G01 X18.9831 Y45.2097
G01 X18.9709 Y45.2072
G01 X18.8742 Y45.1829
G01 X18.7803 Y45.1494
G01 X18.7688 Y45.1446
G01 X18.6787 Y45.1019
G01 X18.5879 Y45.0474
G01 X18.5028 Y44.9843
G01 X18.4266 Y44.9154
G01 X18.4201 Y44.9087
G01 X18.3532 Y44.8347
G01 X18.2901 Y44.7497
G01 X18.2357 Y44.6588
G01 X18.1929 Y44.5687
G01 X18.1881 Y44.5572
G01 X18.1547 Y44.4633
G01 X18.1303 Y44.3667
G01 X18.1279 Y44.3545
G01 X18.1142 Y44.2620
G01 X18.1130 Y44.2496
G01 X18.1082 Y44.1500
G01 X18.1134 Y44.0442
G01 X18.1290 Y43.9395
G01 X18.1547 Y43.8367
G01 X18.1904 Y43.7370
G01 X18.2357 Y43.6412
G01 X18.2901 Y43.5504
G01 X18.3484 Y43.4715
G01 X14.8116 Y39.9347
G00 Z2.0000
G00 X17.9037 Y50.3635
G01 F60.00
G01 Z-0.1000
G01 F120.00
G01 X17.8653 Y50.2606
G01 X17.8613 Y50.2236
G01 X17.8613 Y48.2364
G01 X17.8653 Y48.1994
G01 X17.9037 Y48.0966
G01 X17.9681 Y48.0106
G01 X18.0541 Y47.9462
G01 X18.0745 Y47.9384
G01 X18.0985 Y47.9271
G01 X18.1093 Y47.9211
G01 X18.1195 Y47.9140
G01 X18.1311 Y47.9038
G01 X18.1818 Y47.8513
G01 X18.1881 Y47.8442
G01 X18.1938 Y47.8367
G01 X18.2006 Y47.8261
G01 X18.2049 Y47.8177
G01 X18.2098 Y47.8061
G01 X18.2134 Y47.7941
G01 X18.2290 Y47.7163
G01 X18.2302 Y47.7069
G01 X18.2308 Y47.6944
G01 X18.2304 Y47.6849
G01 X18.2293 Y47.6755
G01 X18.2268 Y47.6632
G01 X18.2241 Y47.6541
G01 X18.1952 Y47.5804
G01 X18.1885 Y47.5669
G01 X18.1837 Y47.5592
G01 X18.1784 Y47.5519
G01 X18.0739 Y47.4176
G01 X17.9693 Y47.2244
G01 X17.9152 Y47.0668
G01 X18.1773 Y47.0668
G01 X18.1881 Y47.0972
G01 X18.1916 Y47.1059
G01 X18.2329 Y47.1932
G01 X18.2372 Y47.2015
G01 X18.2901 Y47.2897
G01 X18.3494 Y47.3698
G01 X18.3552 Y47.3771
G01 X18.4243 Y47.4532
G01 X18.5028 Y47.5243
G01 X18.5879 Y47.5874
G01 X18.6760 Y47.6404
G01 X18.6843 Y47.6447
G01 X18.7745 Y47.6872
G01 X18.8683 Y47.7209
G01 X18.8802 Y47.7245
G01 X18.9770 Y47.7486
G01 X19.0756 Y47.7634
G01 X19.0879 Y47.7646
G01 X19.1875 Y47.7693
G01 X19.2856 Y47.7693
G01 X19.3852 Y47.7644
G01 X19.3945 Y47.7634
G01 X19.4931 Y47.7486
G01 X19.5898 Y47.7245
G01 X19.6017 Y47.7209
G01 X19.6956 Y47.6872
G01 X19.7885 Y47.6433
G01 X19.7967 Y47.6388
G01 X19.8822 Y47.5874
G01 X19.9672 Y47.5243
G01 X20.0457 Y47.4532
G01 X20.1148 Y47.3771
G01 X20.1207 Y47.3698
G01 X20.1799 Y47.2897
G01 X20.2329 Y47.2015
G01 X20.2372 Y47.1932
G01 X20.2784 Y47.1059
G01 X20.2819 Y47.0972
G01 X20.2928 Y47.0668
G01 X20.5548 Y47.0668
G01 X20.5007 Y47.2244
G01 X20.3962 Y47.4176
G01 X20.2896 Y47.5546
G01 X20.2730 Y47.5796
G01 X20.2670 Y47.5904
G01 X20.2621 Y47.6018
G01 X20.2583 Y47.6135
G01 X20.2420 Y47.6878
G01 X20.2396 Y47.7034
G01 X20.2391 Y47.7191
G01 X20.2398 Y47.7285
G01 X20.2412 Y47.7379
G01 X20.2441 Y47.7501
G01 X20.2471 Y47.7591
G01 X20.2738 Y47.8304
G01 X20.2809 Y47.8444
G01 X20.2897 Y47.8575
G01 X20.2979 Y47.8671
G01 X20.3094 Y47.8779
G01 X20.3727 Y47.9254
G01 X20.3828 Y47.9319
G01 X20.3908 Y47.9362
G01 X20.3991 Y47.9398
G01 X20.4160 Y47.9462
G01 X20.5020 Y48.0106
G01 X20.5664 Y48.0966
G01 X20.6047 Y48.1994
G01 X20.6087 Y48.2365
G01 X20.6089 Y49.2996
G01 X20.6131 Y49.3389
G01 X20.6156 Y49.3511
G01 X20.6194 Y49.3629
G01 X20.6229 Y49.3716
G01 X20.6271 Y49.3799
G01 X20.6606 Y49.4412
G01 X20.6652 Y49.4490
G01 X20.6722 Y49.4589
G01 X20.6822 Y49.4701
G01 X24.8249 Y53.6129
G01 X24.8350 Y53.6219
G01 X24.8606 Y53.6424
G01 X24.8737 Y53.6507
G01 X24.8849 Y53.6562
G01 X24.8995 Y53.6615
G01 X24.9694 Y53.6820
G01 X24.9783 Y53.6840
G01 X24.9872 Y53.6854
G01 X25.0023 Y53.6863
G01 X35.6278 Y53.6863
G01 X35.6414 Y53.6856
G01 X35.6739 Y53.6819
G01 X35.6861 Y53.6794
G01 X35.6979 Y53.6757
G01 X35.7066 Y53.6722
G01 X35.7149 Y53.6680
G01 X35.7789 Y53.6330
G01 X35.7915 Y53.6247
G01 X35.7985 Y53.6190
G01 X35.8051 Y53.6129
G01 X38.3629 Y51.0551
G01 X38.3698 Y51.0476
G01 X38.3886 Y51.0244
G01 X38.3942 Y51.0169
G01 X38.3992 Y51.0090
G01 X38.4049 Y50.9980
G01 X38.4096 Y50.9865
G01 X38.4312 Y50.9135
G01 X38.4334 Y50.9048
G01 X38.4350 Y50.8958
G01 X38.4363 Y50.8808
G01 X38.4363 Y48.4789
G01 X38.4403 Y48.4419
G01 X38.4787 Y48.3391
G01 X38.5431 Y48.2531
G01 X38.6291 Y48.1887
G01 X38.7319 Y48.1503
G01 X38.7689 Y48.1463
G01 X38.9255 Y48.1463
G01 X38.9376 Y48.1458
G01 X38.9495 Y48.1440
G01 X39.0071 Y48.1315
G01 X39.0192 Y48.1279
G01 X39.0338 Y48.1217
G01 X39.0475 Y48.1137
G01 X39.0601 Y48.1041
G01 X39.1175 Y48.0542
G01 X39.1262 Y48.0450
G01 X39.1339 Y48.0350
G01 X39.1390 Y48.0271
G01 X39.1435 Y48.0188
G01 X39.1496 Y48.0043
G01 X39.1712 Y47.9313
G01 X39.1734 Y47.9225
G01 X39.1754 Y47.9106
G01 X39.1763 Y47.8955
G01 X39.1763 Y37.8909
G01 X39.1743 Y37.8178
G01 X39.1746 Y37.8143
G01 X39.1906 Y37.7468
G01 X39.2055 Y37.6752
G01 X39.2066 Y37.6719
G01 X39.2378 Y37.6099
G01 X39.2691 Y37.5431
G01 X39.2706 Y37.5406
G01 X39.3152 Y37.4875
G01 X39.3333 Y37.4647
G01 X39.3432 Y37.4541
G01 X39.3691 Y37.4233
G01 X39.3813 Y37.4140
G01 X39.4040 Y37.3940
G01 X39.8249 Y36.9731
G01 X39.8334 Y36.9632
G01 X39.8390 Y36.9552
G01 X39.8738 Y36.8988
G01 X39.8793 Y36.8876
G01 X39.8827 Y36.8789
G01 X39.8862 Y36.8669
G01 X39.8885 Y36.8546
G01 X39.8896 Y36.8422
G01 X39.8922 Y36.7724
G01 X39.8919 Y36.7573
G01 X39.8908 Y36.7483
G01 X39.8894 Y36.7409
G01 X39.8720 Y36.5300
G01 X39.8894 Y36.3197
G01 X39.9412 Y36.1150
G01 X40.0260 Y35.9217
G01 X40.1415 Y35.7450
G01 X40.2844 Y35.5897
G01 X40.4510 Y35.4601
G01 X40.6366 Y35.3596
G01 X40.8363 Y35.2911
G01 X41.0445 Y35.2563
G01 X41.2556 Y35.2563
G01 X41.4638 Y35.2911
G01 X41.6634 Y35.3596
G01 X41.8491 Y35.4601
G01 X42.0156 Y35.5897
G01 X42.0231 Y35.5974
G01 X42.0321 Y35.6051
G01 X42.0664 Y35.6319
G01 X42.0797 Y35.6405
G01 X42.0939 Y35.6474
G01 X42.1089 Y35.6524
G01 X42.1864 Y35.6694
G01 X42.1988 Y35.6712
G01 X42.2083 Y35.6717
G01 X42.2209 Y35.6712
G01 X42.2302 Y35.6701
G01 X42.2395 Y35.6683
G01 X42.2516 Y35.6648
G01 X42.3259 Y35.6369
G01 X42.3372 Y35.6314
G01 X42.3452 Y35.6265
G01 X42.3554 Y35.6191
G01 X42.3648 Y35.6107
G01 X42.3713 Y35.6038
G01 X42.3772 Y35.5965
G01 X42.4191 Y35.5405
G01 X42.4242 Y35.5331
G01 X42.4303 Y35.5226
G01 X42.4353 Y35.5117
G01 X42.4587 Y35.4491
G01 X42.5231 Y35.3631
G01 X42.6091 Y35.2987
G01 X42.7119 Y35.2603
G01 X42.7489 Y35.2563
G01 X42.8185 Y35.2563
G01 X42.8306 Y35.2554
G01 X42.8395 Y35.2540
G01 X42.8971 Y35.2415
G01 X42.9092 Y35.2379
G01 X42.9181 Y35.2344
G01 X42.9266 Y35.2303
G01 X42.9375 Y35.2237
G01 X42.9452 Y35.2182
G01 X43.0075 Y35.1642
G01 X43.0182 Y35.1526
G01 X43.0274 Y35.1398
G01 X43.0349 Y35.1260
G01 X43.0406 Y35.1113
G01 X43.0620 Y35.0383
G01 X43.0640 Y35.0295
G01 X43.0654 Y35.0206
G01 X43.0663 Y35.0055
G01 X43.0663 Y33.0789
G01 X43.0656 Y33.0687
G01 X43.0619 Y33.0362
G01 X43.0586 Y33.0210
G01 X43.0546 Y33.0092
G01 X43.0480 Y32.9951
G01 X43.0130 Y32.9312
G01 X43.0082 Y32.9235
G01 X43.0010 Y32.9138
G01 X42.9929 Y32.9049
G01 X41.0813 Y30.9933
G01 X41.0723 Y30.9852
G01 X41.0627 Y30.9780
G01 X41.0131 Y30.9461
G01 X41.0020 Y30.9401
G01 X40.9933 Y30.9363
G01 X40.9843 Y30.9332
G01 X40.9751 Y30.9308
G01 X40.9658 Y30.9290
G01 X40.9563 Y30.9280
G01 X40.8803 Y30.9227
G01 X40.8646 Y30.9234
G01 X40.8491 Y30.9259
G01 X40.8370 Y30.9294
G01 X40.8224 Y30.9353
G01 X40.7529 Y30.9732
G01 X40.7403 Y30.9815
G01 X40.7332 Y30.9872
G01 X40.7266 Y30.9933
G01 X40.6374 Y31.0826
G01 X40.4691 Y31.2004
G01 X40.2830 Y31.2872
G01 X40.0846 Y31.3403
G01 X39.8800 Y31.3582
G01 X39.6754 Y31.3403
G01 X39.4771 Y31.2872
G01 X39.2909 Y31.2004
G01 X39.1227 Y31.0826
G01 X38.9775 Y30.9373
G01 X38.8597 Y30.7691
G01 X38.7729 Y30.5830
G01 X38.7197 Y30.3846
G01 X38.7018 Y30.1800
G01 X38.7197 Y29.9754
G01 X38.7729 Y29.7771
G01 X38.8597 Y29.5909
G01 X38.9775 Y29.4227
G01 X39.1227 Y29.2775
G01 X39.2909 Y29.1597
G01 X39.4771 Y29.0729
G01 X39.6754 Y29.0197
G01 X39.8800 Y29.0018
G01 X40.0846 Y29.0197
G01 X40.2830 Y29.0729
G01 X40.4691 Y29.1597
G01 X40.6374 Y29.2775
G01 X40.7826 Y29.4227
G01 X40.8030 Y29.4519
G01 X40.8088 Y29.4591
G01 X40.8151 Y29.4659
G01 X40.8518 Y29.5013
G01 X40.8586 Y29.5073
G01 X40.8708 Y29.5163
G01 X40.8841 Y29.5238
G01 X40.8924 Y29.5275
G01 X40.9010 Y29.5306
G01 X40.9710 Y29.5512
G01 X40.9827 Y29.5540
G01 X40.9946 Y29.5558
G01 X41.0067 Y29.5563
G01 X41.1391 Y29.5563
G01 X41.2122 Y29.5543
G01 X41.2157 Y29.5546
G01 X41.2864 Y29.5713
G01 X41.3554 Y29.5856
G01 X41.3582 Y29.5866
G01 X41.4202 Y29.6178
G01 X41.4864 Y29.6487
G01 X41.4894 Y29.6506
G01 X41.5426 Y29.6952
G01 X41.5654 Y29.7133
G01 X41.5760 Y29.7232
G01 X41.6068 Y29.7491
G01 X41.6161 Y29.7613
G01 X41.6361 Y29.7841
G01 X42.8811 Y31.0288
G01 X42.8902 Y31.0364
G01 X42.9001 Y31.0431
G01 X42.9572 Y31.0765
G01 X42.9712 Y31.0835
G01 X42.9860 Y31.0888
G01 X43.0013 Y31.0921
G01 X43.0168 Y31.0936
G01 X43.0961 Y31.0925
G01 X43.1118 Y31.0909
G01 X43.1241 Y31.0882
G01 X43.1360 Y31.0843
G01 X43.1504 Y31.0778
G01 X43.1612 Y31.0714
G01 X43.2194 Y31.0327
G01 X43.2267 Y31.0274
G01 X43.2337 Y31.0216
G01 X43.2443 Y31.0109
G01 X43.2591 Y30.9933
G01 X43.2713 Y30.9840
G01 X43.2940 Y30.9640
G01 X43.7230 Y30.5350
G01 X43.7335 Y30.5231
G01 X43.7610 Y30.4855
G01 X43.7673 Y30.4750
G01 X43.7714 Y30.4667
G01 X43.7748 Y30.4581
G01 X43.7776 Y30.4493
G01 X43.7797 Y30.4404
G01 X43.7935 Y30.3719
G01 X43.7956 Y30.3569
G01 X43.7959 Y30.3449
G01 X43.7955 Y30.3358
G01 X43.7818 Y30.1800
G01 X43.7997 Y29.9754
G01 X43.8529 Y29.7771
G01 X43.9397 Y29.5909
G01 X44.0575 Y29.4227
G01 X44.2027 Y29.2775
G01 X44.3709 Y29.1597
G01 X44.5571 Y29.0729
G01 X44.7554 Y29.0197
G01 X44.9600 Y29.0018
G01 X45.1646 Y29.0197
G01 X45.3630 Y29.0729
G01 X45.5491 Y29.1597
G01 X45.7174 Y29.2775
G01 X45.8626 Y29.4227
G01 X45.9804 Y29.5909
G01 X46.0672 Y29.7771
G01 X46.1203 Y29.9754
G01 X46.1382 Y30.1800
G01 X46.1203 Y30.3846
G01 X46.0672 Y30.5830
G01 X45.9804 Y30.7691
G01 X45.8626 Y30.9374
G01 X45.7174 Y31.0826
G01 X45.5491 Y31.2004
G01 X45.3630 Y31.2872
G01 X45.1646 Y31.3403
G01 X44.9600 Y31.3582
G01 X44.7979 Y31.3442
G01 X44.7851 Y31.3444
G01 X44.7480 Y31.3467
G01 X44.7357 Y31.3481
G01 X44.7267 Y31.3499
G01 X44.7178 Y31.3523
G01 X44.7091 Y31.3554
G01 X44.7007 Y31.3592
G01 X44.6287 Y31.3985
G01 X44.6163 Y31.4071
G01 X44.6050 Y31.4171
G01 X44.3872 Y31.6349
G01 X44.3803 Y31.6424
G01 X44.3615 Y31.6657
G01 X44.3559 Y31.6731
G01 X44.3493 Y31.6837
G01 X44.3438 Y31.6949
G01 X44.3404 Y31.7036
G01 X44.3180 Y31.7794
G01 X44.3160 Y31.7883
G01 X44.3146 Y31.7972
G01 X44.3137 Y31.8123
G01 X44.3137 Y32.6846
G01 X44.3142 Y32.6983
G01 X44.3177 Y32.7383
G01 X44.3156 Y32.7535
G01 X44.3137 Y32.7837
G01 X44.3137 Y35.0055
G01 X44.3143 Y35.0176
G01 X44.3166 Y35.0325
G01 X44.3293 Y35.0901
G01 X44.3344 Y35.1051
G01 X44.3398 Y35.1166
G01 X44.3481 Y35.1301
G01 X44.3559 Y35.1401
G01 X44.4038 Y35.1952
G01 X44.4104 Y35.2020
G01 X44.4175 Y35.2082
G01 X44.4250 Y35.2139
G01 X44.4330 Y35.2190
G01 X44.4441 Y35.2249
G01 X44.4528 Y35.2285
G01 X44.4618 Y35.2315
G01 X44.5317 Y35.2520
G01 X44.5435 Y35.2546
G01 X44.5555 Y35.2560
G01 X44.5645 Y35.2563
G01 X44.6311 Y35.2563
G01 X44.6681 Y35.2603
G01 X44.7710 Y35.2987
G01 X44.8570 Y35.3631
G01 X44.9214 Y35.4491
G01 X44.9597 Y35.5519
G01 X44.9637 Y35.5890
G01 X44.9637 Y37.4711
G01 X44.9597 Y37.5081
G01 X44.9214 Y37.6110
G01 X44.8570 Y37.6970
G01 X44.7710 Y37.7614
G01 X44.6681 Y37.7997
G01 X44.6311 Y37.8037
G01 X42.7489 Y37.8037
G01 X42.7119 Y37.7997
G01 X42.6091 Y37.7614
G01 X42.5231 Y37.6970
G01 X42.4587 Y37.6110
G01 X42.4364 Y37.5512
G01 X42.4330 Y37.5430
G01 X42.4276 Y37.5325
G01 X42.4042 Y37.4920
G01 X42.3969 Y37.4817
G01 X42.3885 Y37.4722
G01 X42.3793 Y37.4636
G01 X42.3692 Y37.4559
G01 X42.3063 Y37.4130
G01 X42.2924 Y37.4056
G01 X42.2837 Y37.4020
G01 X42.2747 Y37.3991
G01 X42.2594 Y37.3957
G01 X42.2468 Y37.3944
G01 X42.1707 Y37.3921
G01 X42.1613 Y37.3924
G01 X42.1519 Y37.3934
G01 X42.1426 Y37.3951
G01 X42.1334 Y37.3975
G01 X42.1216 Y37.4017
G01 X42.1130 Y37.4056
G01 X42.1047 Y37.4102
G01 X42.0397 Y37.4494
G01 X42.0277 Y37.4585
G01 X42.0211 Y37.4646
G01 X42.0156 Y37.4703
G01 X41.8491 Y37.6000
G01 X41.6634 Y37.7004
G01 X41.4638 Y37.7690
G01 X41.2556 Y37.8037
G01 X41.0445 Y37.8037
G01 X40.9266 Y37.7841
G01 X40.9177 Y37.7829
G01 X40.9087 Y37.7824
G01 X40.8559 Y37.7835
G01 X40.8432 Y37.7845
G01 X40.8338 Y37.7860
G01 X40.8246 Y37.7882
G01 X40.8155 Y37.7911
G01 X40.8039 Y37.7961
G01 X40.7343 Y37.8339
G01 X40.7241 Y37.8405
G01 X40.7146 Y37.8479
G01 X40.7080 Y37.8541
G01 X40.4925 Y38.0698
G01 X40.4677 Y38.1006
G01 X40.4609 Y38.1110
G01 X40.4551 Y38.1220
G01 X40.4515 Y38.1306
G01 X40.4485 Y38.1395
G01 X40.4289 Y38.2065
G01 X40.4266 Y38.2153
G01 X40.4243 Y38.2302
G01 X40.4237 Y38.2423
G01 X40.4239 Y47.9016
G01 X40.4246 Y47.9106
G01 X40.4260 Y47.9195
G01 X40.4385 Y47.9771
G01 X40.4432 Y47.9922
G01 X40.4498 Y48.0066
G01 X40.4581 Y48.0201
G01 X40.4659 Y48.0301
G01 X40.5137 Y48.0852
G01 X40.5227 Y48.0941
G01 X40.5324 Y48.1021
G01 X40.5403 Y48.1074
G01 X40.5485 Y48.1121
G01 X40.5570 Y48.1161
G01 X40.5658 Y48.1196
G01 X40.6388 Y48.1412
G01 X40.6505 Y48.1440
G01 X40.6595 Y48.1454
G01 X40.6715 Y48.1463
G01 X40.8311 Y48.1463
G01 X40.8681 Y48.1503
G01 X40.9710 Y48.1887
G01 X41.0570 Y48.2531
G01 X41.1214 Y48.3391
G01 X41.1597 Y48.4419
G01 X41.1637 Y48.4790
G01 X41.1637 Y52.5211
G01 X41.1597 Y52.5581
G01 X41.1214 Y52.6610
G01 X41.0570 Y52.7470
G01 X40.9710 Y52.8114
G01 X40.8681 Y52.8497
G01 X40.8311 Y52.8537
G01 X38.7689 Y52.8537
G01 X38.7319 Y52.8497
G01 X38.6189 Y52.8076
G01 X38.5932 Y52.7962
G01 X38.5817 Y52.7925
G01 X38.5700 Y52.7900
G01 X38.5580 Y52.7885
G01 X38.4883 Y52.7835
G01 X38.4757 Y52.7833
G01 X38.4631 Y52.7843
G01 X38.4507 Y52.7865
G01 X38.4386 Y52.7899
G01 X38.4269 Y52.7945
G01 X38.4185 Y52.7987
G01 X38.3519 Y52.8352
G01 X38.3395 Y52.8438
G01 X38.3282 Y52.8538
G01 X36.4388 Y54.7433
G01 X36.3885 Y54.7965
G01 X36.3858 Y54.7987
G01 X36.3236 Y54.8371
G01 X36.2651 Y54.8755
G01 X36.2624 Y54.8768
G01 X36.1966 Y54.8986
G01 X36.1278 Y54.9236
G01 X36.1244 Y54.9244
G01 X36.0552 Y54.9304
G01 X36.0264 Y54.9337
G01 X36.0118 Y54.9342
G01 X35.9718 Y54.9377
G01 X35.9566 Y54.9356
G01 X35.9263 Y54.9337
G01 X24.6509 Y54.9337
G01 X24.5772 Y54.9358
G01 X24.5743 Y54.9354
G01 X24.5032 Y54.9186
G01 X24.4346 Y54.9044
G01 X24.4319 Y54.9034
G01 X24.3666 Y54.8707
G01 X24.3036 Y54.8413
G01 X24.3006 Y54.8394
G01 X24.2475 Y54.7948
G01 X24.2247 Y54.7767
G01 X24.2140 Y54.7668
G01 X24.1833 Y54.7409
G01 X24.1740 Y54.7287
G01 X24.1540 Y54.7060
G01 X20.0776 Y50.6297
G01 X20.0675 Y50.6206
G01 X20.0469 Y50.6040
G01 X20.0394 Y50.5984
G01 X20.0315 Y50.5934
G01 X20.0233 Y50.5889
G01 X20.0148 Y50.5851
G01 X20.0060 Y50.5820
G01 X19.9302 Y50.5598
G01 X19.9183 Y50.5575
G01 X19.9033 Y50.5563
G01 X18.1939 Y50.5562
G01 X18.1569 Y50.5522
G01 X18.0541 Y50.5139
G01 X17.9681 Y50.4495
G01 X17.9037 Y50.3635
G00 Z2.0000
G00 X28.6832 Y50.8768
G01 F60.00
G01 Z-0.1000
G01 F120.00
G01 X28.6832 Y51.4900
G01 X28.6883 Y51.5964
G01 X28.6894 Y51.6057
G01 X28.7036 Y51.7018
G01 X28.7060 Y51.7140
G01 X28.7313 Y51.8142
G01 X28.7671 Y51.9145
G01 X28.7708 Y51.9231
G01 X28.8151 Y52.0165
G01 X28.8714 Y52.1105
G01 X28.9367 Y52.1985
G01 X29.0060 Y52.2752
G01 X29.0126 Y52.2819
G01 X29.0915 Y52.3533
G01 X29.1745 Y52.4150
G01 X29.1822 Y52.4203
G01 X29.2682 Y52.4719
G01 X29.2763 Y52.4764
G01 X29.3698 Y52.5206
G01 X29.3785 Y52.5241
G01 X29.4232 Y52.5401
G01 X29.4232 Y52.8020
G01 X29.2506 Y52.7427
G01 X29.0519 Y52.6352
G01 X28.8736 Y52.4964
G01 X28.7206 Y52.3302
G01 X28.5970 Y52.1411
G01 X28.5063 Y51.9342
G01 X28.4508 Y51.7152
G01 X28.4368 Y51.5464
G01 X28.4368 Y50.8768
G01 X28.6832 Y50.8768
G00 Z2.0000
G00 X30.1768 Y52.5401
G01 F60.00
G01 Z-0.1000
G01 F120.00
G01 X30.2216 Y52.5241
G01 X30.2303 Y52.5206
G01 X30.3209 Y52.4778
G01 X30.3292 Y52.4735
G01 X30.4205 Y52.4186
G01 X30.5036 Y52.3572
G01 X30.5109 Y52.3513
G01 X30.5897 Y52.2797
G01 X30.6633 Y52.1985
G01 X30.7286 Y52.1105
G01 X30.7819 Y52.0219
G01 X30.7878 Y52.0109
G01 X30.8318 Y51.9174
G01 X30.8687 Y51.8142
G01 X30.8954 Y51.7079
G01 X30.9111 Y51.6026
G01 X30.9119 Y51.5933
G01 X30.9168 Y51.4900
G01 X30.9168 Y50.8768
G01 X31.1632 Y50.8768
G01 X31.1632 Y51.5464
G01 X31.1492 Y51.7152
G01 X31.0938 Y51.9342
G01 X31.0030 Y52.1411
G01 X30.8795 Y52.3302
G01 X30.7265 Y52.4964
G01 X30.5482 Y52.6352
G01 X30.3495 Y52.7427
G01 X30.1768 Y52.8020
G01 X30.1768 Y52.5401
G00 Z2.0000
G00 X30.1768 Y48.4600
G01 F60.00
G01 Z-0.1000
G01 F120.00
G01 X30.1768 Y48.1981
G01 X30.3495 Y48.2574
G01 X30.5482 Y48.3649
G01 X30.7265 Y48.5036
G01 X30.8795 Y48.6699
G01 X31.0030 Y48.8590
G01 X31.0938 Y49.0659
G01 X31.1492 Y49.2849
G01 X31.1632 Y49.4536
G01 X31.1632 Y50.1232
G01 X30.9168 Y50.1232
G01 X30.9168 Y49.5100
G01 X30.9119 Y49.4068
G01 X30.9111 Y49.3975
G01 X30.8954 Y49.2921
G01 X30.8687 Y49.1858
G01 X30.8318 Y49.0826
G01 X30.7878 Y48.9891
G01 X30.7819 Y48.9782
G01 X30.7286 Y48.8896
G01 X30.6633 Y48.8015
G01 X30.5897 Y48.7203
G01 X30.5109 Y48.6487
G01 X30.5036 Y48.6429
G01 X30.4205 Y48.5814
G01 X30.3292 Y48.5266
G01 X30.3209 Y48.5223
G01 X30.2303 Y48.4795
G01 X30.2216 Y48.4760
G01 X30.1768 Y48.4600
G00 Z2.0000
G00 X29.4232 Y48.4600
G01 F60.00
G01 Z-0.1000
G01 F120.00
G01 X29.3785 Y48.4760
G01 X29.3698 Y48.4795
G01 X29.2791 Y48.5223
G01 X29.2708 Y48.5266
G01 X29.1796 Y48.5814
G01 X29.0964 Y48.6429
G01 X29.0892 Y48.6487
G01 X29.0103 Y48.7203
G01 X28.9367 Y48.8015
G01 X28.8714 Y48.8896
G01 X28.8182 Y48.9782
G01 X28.8123 Y48.9891
G01 X28.7682 Y49.0826
G01 X28.7313 Y49.1858
G01 X28.7047 Y49.2921
G01 X28.6889 Y49.3975
G01 X28.6881 Y49.4068
G01 X28.6832 Y49.5100
G01 X28.6832 Y50.1232
G01 X28.4368 Y50.1232
G01 X28.4368 Y49.4536
G01 X28.4508 Y49.2849
G01 X28.5063 Y49.0659
G01 X28.5970 Y48.8590
G01 X28.7206 Y48.6699
G01 X28.8736 Y48.5036
G01 X29.0519 Y48.3649
G01 X29.2506 Y48.2574
G01 X29.4232 Y48.1981
G01 X29.4232 Y48.4600
G00 Z2.0000
G00 X34.7300 Y36.8732
G01 F60.00
G01 Z-0.1000
G01 F120.00
G01 X34.7425 Y36.8738
G01 X34.7548 Y36.8757
G01 X34.7668 Y36.8787
G01 X34.7757 Y36.8817
G01 X34.7870 Y36.8868
G01 X34.7979 Y36.8929
G01 X34.8080 Y36.9001
G01 X34.8175 Y36.9082
G01 X34.8260 Y36.9172
G01 X34.8337 Y36.9270
G01 X34.8404 Y36.9375
G01 X34.8459 Y36.9486
G01 X34.8504 Y36.9603
G01 X34.8530 Y36.9692
G01 X34.8555 Y36.9814
G01 X34.8567 Y36.9938
G01 X34.8568 Y38.6031
G01 X34.8555 Y38.6186
G01 X34.8530 Y38.6308
G01 X34.8483 Y38.6457
G01 X34.8419 Y38.6598
G01 X34.8337 Y38.6730
G01 X34.8240 Y38.6852
G01 X34.8152 Y38.6940
G01 X34.8030 Y38.7037
G01 X34.7952 Y38.7088
G01 X34.7870 Y38.7133
G01 X34.7785 Y38.7172
G01 X34.7698 Y38.7204
G01 X34.7608 Y38.7230
G01 X34.7517 Y38.7250
G01 X34.7394 Y38.7265
G01 X34.7300 Y38.7268
G01 X32.3300 Y38.7268
G01 X32.3145 Y38.7259
G01 X32.2992 Y38.7230
G01 X32.2844 Y38.7183
G01 X32.2730 Y38.7133
G01 X32.2596 Y38.7055
G01 X32.2472 Y38.6960
G01 X32.2361 Y38.6852
G01 X32.2264 Y38.6730
G01 X32.2213 Y38.6652
G01 X32.2168 Y38.6570
G01 X32.2129 Y38.6485
G01 X32.2096 Y38.6398
G01 X32.2070 Y38.6308
G01 X32.2051 Y38.6217
G01 X32.2038 Y38.6125
G01 X32.2033 Y38.6031
G01 X32.2033 Y36.9969
G01 X32.2046 Y36.9814
G01 X32.2078 Y36.9662
G01 X32.2117 Y36.9544
G01 X32.2182 Y36.9403
G01 X32.2264 Y36.9270
G01 X32.2361 Y36.9149
G01 X32.2449 Y36.9061
G01 X32.2570 Y36.8964
G01 X32.2675 Y36.8897
G01 X32.2758 Y36.8854
G01 X32.2844 Y36.8817
G01 X32.2932 Y36.8787
G01 X32.3022 Y36.8763
G01 X32.3114 Y36.8746
G01 X32.3207 Y36.8736
G01 X32.3300 Y36.8732
G01 X34.7300 Y36.8732
G00 Z2.0000
G00 X34.7312 Y34.7958
G01 F60.00
G01 Z-0.1000
G01 F120.00
G01 X36.9631 Y32.5639
G01 X36.9631 Y23.8300
G01 X36.9649 Y23.7931
G01 X36.9703 Y23.7565
G01 X36.9793 Y23.7206
G01 X36.9918 Y23.6858
G01 X37.0076 Y23.6523
G01 X37.0266 Y23.6206
G01 X37.0487 Y23.5909
G01 X37.0735 Y23.5635
G01 X40.7731 Y19.8639
G01 X40.7731 Y18.7469
G01 X40.7749 Y18.7131
G01 X40.7803 Y18.6765
G01 X40.7893 Y18.6406
G01 X40.7996 Y18.6116
G01 X40.8030 Y18.6029
G01 X40.8162 Y18.5751
G01 X40.8207 Y18.5669
G01 X40.8349 Y18.5432
G01 X40.8402 Y18.5355
G01 X40.8587 Y18.5109
G01 X40.8813 Y18.4857
G01 X41.5100 Y17.8570
G01 X40.7259 Y17.8569
G01 X40.6974 Y17.9169
G01 X40.6506 Y17.9949
G01 X40.5965 Y18.0680
G01 X40.5354 Y18.1354
G01 X40.4680 Y18.1965
G01 X40.3949 Y18.2506
G01 X40.3169 Y18.2974
G01 X40.2376 Y18.3351
G01 X40.2289 Y18.3385
G01 X40.1491 Y18.3669
G01 X40.0608 Y18.3890
G01 X39.9709 Y18.4024
G01 X39.8862 Y18.4067
G01 X39.8738 Y18.4067
G01 X39.7954 Y18.4028
G01 X39.7830 Y18.4016
G01 X39.6992 Y18.3890
G01 X39.6170 Y18.3686
G01 X39.6080 Y18.3660
G01 X39.5254 Y18.3363
G01 X39.4487 Y18.3002
G01 X39.4377 Y18.2943
G01 X39.3704 Y18.2540
G01 X39.3600 Y18.2470
G01 X39.2921 Y18.1965
G01 X39.2292 Y18.1397
G01 X39.2204 Y18.1309
G01 X39.1636 Y18.0680
G01 X39.1094 Y17.9949
G01 X39.0627 Y17.9169
G01 X39.0238 Y17.8347
G01 X38.9931 Y17.7491
G01 X38.9724 Y17.6669
G01 X38.9700 Y17.6547
G01 X38.9584 Y17.5770
G01 X38.9572 Y17.5647
G01 X38.9532 Y17.4800
G01 X38.9572 Y17.3954
G01 X38.9584 Y17.3830
G01 X38.9710 Y17.2992
G01 X38.9931 Y17.2110
G01 X39.0238 Y17.1254
G01 X39.0599 Y17.0487
G01 X39.0657 Y17.0377
G01 X39.1094 Y16.9651
G01 X39.1598 Y16.8970
G01 X39.1677 Y16.8874
G01 X39.2204 Y16.8292
G01 X39.2292 Y16.8204
G01 X39.2921 Y16.7636
G01 X39.3651 Y16.7094
G01 X39.4377 Y16.6657
G01 X39.4487 Y16.6599
G01 X39.5254 Y16.6238
G01 X39.6051 Y16.5951
G01 X39.6170 Y16.5915
G01 X39.6992 Y16.5710
G01 X39.7830 Y16.5584
G01 X39.7954 Y16.5572
G01 X39.8800 Y16.5532
G01 X39.9647 Y16.5572
G01 X39.9770 Y16.5584
G01 X40.0608 Y16.5710
G01 X40.1491 Y16.5931
G01 X40.2289 Y16.6215
G01 X40.2404 Y16.6263
G01 X40.3114 Y16.6599
G01 X40.3223 Y16.6657
G01 X40.3949 Y16.7094
G01 X40.4631 Y16.7598
G01 X40.4727 Y16.7677
G01 X40.5309 Y16.8204
G01 X40.5397 Y16.8292
G01 X40.5965 Y16.8921
G01 X40.6506 Y16.9651
G01 X40.6974 Y17.0431
G01 X40.7259 Y17.1031
G01 X44.1141 Y17.1031
G01 X44.1427 Y17.0431
G01 X44.1861 Y16.9704
G01 X44.1930 Y16.9600
G01 X44.2398 Y16.8970
G01 X44.2477 Y16.8874
G01 X44.3047 Y16.8247
G01 X44.3674 Y16.7677
G01 X44.3770 Y16.7598
G01 X44.4451 Y16.7094
G01 X44.5231 Y16.6627
G01 X44.6054 Y16.6238
G01 X44.6880 Y16.5941
G01 X44.6970 Y16.5915
G01 X44.7792 Y16.5710
G01 X44.8692 Y16.5577
G01 X44.9600 Y16.5532
G01 X45.0509 Y16.5577
G01 X45.1408 Y16.5710
G01 X45.2291 Y16.5931
G01 X45.3147 Y16.6238
G01 X45.3914 Y16.6599
G01 X45.4023 Y16.6657
G01 X45.4697 Y16.7061
G01 X45.4800 Y16.7130
G01 X45.5480 Y16.7636
G01 X45.6109 Y16.8204
G01 X45.6197 Y16.8292
G01 X45.6765 Y16.8921
G01 X45.7306 Y16.9651
G01 X45.7774 Y17.0431
G01 X45.8138 Y17.1197
G01 X45.8185 Y17.1312
G01 X45.8469 Y17.2110
G01 X45.8677 Y17.2931
G01 X45.8701 Y17.3053
G01 X45.8816 Y17.3830
G01 X45.8828 Y17.3954
G01 X45.8868 Y17.4800
G01 X45.8824 Y17.5709
G01 X45.8690 Y17.6608
G01 X45.8486 Y17.7431
G01 X45.8450 Y17.7550
G01 X45.8185 Y17.8289
G01 X45.8138 Y17.8404
G01 X45.7774 Y17.9169
G01 X45.7340 Y17.9897
G01 X45.7270 Y18.0000
G01 X45.6765 Y18.0680
G01 X45.6197 Y18.1309
G01 X45.6131 Y18.1375
G01 X45.5480 Y18.1965
G01 X45.4800 Y18.2470
G01 X45.4697 Y18.2540
G01 X45.4023 Y18.2943
G01 X45.3914 Y18.3002
G01 X45.3147 Y18.3363
G01 X45.2350 Y18.3650
G01 X45.2231 Y18.3686
G01 X45.1408 Y18.3890
G01 X45.0509 Y18.4024
G01 X44.9600 Y18.4068
G01 X44.8692 Y18.4024
G01 X44.7853 Y18.3901
G01 X44.7731 Y18.3877
G01 X44.6910 Y18.3669
G01 X44.6112 Y18.3385
G01 X44.5997 Y18.3338
G01 X44.5231 Y18.2974
G01 X44.4504 Y18.2540
G01 X44.4426 Y18.2489
G01 X44.3721 Y18.1965
G01 X44.3092 Y18.1397
G01 X44.3004 Y18.1309
G01 X44.2436 Y18.0680
G01 X44.1930 Y18.0000
G01 X44.1861 Y17.9897
G01 X44.1427 Y17.9169
G01 X44.1141 Y17.8569
G01 X42.5762 Y17.8569
G01 X41.5269 Y18.9062
G01 X41.5269 Y20.0200
G01 X41.5254 Y20.0539
G01 X41.5208 Y20.0874
G01 X41.5183 Y20.0996
G01 X41.5107 Y20.1294
G01 X41.4983 Y20.1643
G01 X41.4852 Y20.1921
G01 X41.4794 Y20.2031
G01 X41.4634 Y20.2294
G01 X41.4433 Y20.2567
G01 X41.4373 Y20.2639
G01 X41.4166 Y20.2866
G01 X37.7169 Y23.9862
G01 X37.7169 Y32.7200
G01 X37.7151 Y32.7570
G01 X37.7108 Y32.7874
G01 X37.7083 Y32.7996
G01 X37.7007 Y32.8294
G01 X37.6905 Y32.8585
G01 X37.6870 Y32.8671
G01 X37.6752 Y32.8921
G01 X37.6694 Y32.9031
G01 X37.6551 Y32.9268
G01 X37.6498 Y32.9345
G01 X37.6314 Y32.9591
G01 X37.6066 Y32.9866
G01 X35.0643 Y35.5287
G01 X35.0391 Y35.5514
G01 X35.0094 Y35.5734
G01 X34.9777 Y35.5924
G01 X34.9500 Y35.6057
G01 X34.9414 Y35.6094
G01 X34.9094 Y35.6207
G01 X34.8796 Y35.6283
G01 X34.8705 Y35.6303
G01 X34.8431 Y35.6344
G01 X34.8339 Y35.6354
G01 X34.8031 Y35.6369
G01 X34.7759 Y35.6369
G01 X34.7474 Y35.6969
G01 X34.7006 Y35.7749
G01 X34.6465 Y35.8480
G01 X34.5875 Y35.9131
G01 X34.5809 Y35.9197
G01 X34.5180 Y35.9765
G01 X34.4500 Y36.0270
G01 X34.4397 Y36.0340
G01 X34.3723 Y36.0743
G01 X34.3614 Y36.0802
G01 X34.2904 Y36.1138
G01 X34.2789 Y36.1185
G01 X34.1991 Y36.1469
G01 X34.1169 Y36.1677
G01 X34.1047 Y36.1701
G01 X34.0209 Y36.1824
G01 X33.9362 Y36.1867
G01 X33.1269 Y36.1868
G01 X33.0454 Y36.1828
G01 X33.0330 Y36.1816
G01 X32.9492 Y36.1690
G01 X32.8670 Y36.1486
G01 X32.8551 Y36.1450
G01 X32.7754 Y36.1163
G01 X32.6987 Y36.0802
G01 X32.6877 Y36.0743
G01 X32.6151 Y36.0306
G01 X32.5470 Y35.9803
G01 X32.5374 Y35.9724
G01 X32.4747 Y35.9154
G01 X32.4136 Y35.8480
G01 X32.3630 Y35.7800
G01 X32.3561 Y35.7697
G01 X32.3127 Y35.6969
G01 X32.2763 Y35.6204
G01 X32.2715 Y35.6089
G01 X32.2431 Y35.5291
G01 X32.2210 Y35.4408
G01 X32.2077 Y35.3509
G01 X32.2032 Y35.2600
G01 X32.2077 Y35.1692
G01 X32.2210 Y35.0792
G01 X32.2431 Y34.9910
G01 X32.2738 Y34.9054
G01 X32.3127 Y34.8231
G01 X32.3594 Y34.7451
G01 X32.4136 Y34.6721
G01 X32.4747 Y34.6047
G01 X32.5421 Y34.5436
G01 X32.6151 Y34.4894
G01 X32.6931 Y34.4427
G01 X32.7754 Y34.4038
G01 X32.8610 Y34.3731
G01 X32.9431 Y34.3524
G01 X32.9553 Y34.3500
G01 X33.0392 Y34.3377
G01 X33.1269 Y34.3333
G01 X33.9331 Y34.3333
G01 X34.0209 Y34.3377
G01 X34.1047 Y34.3500
G01 X34.1139 Y34.3517
G01 X34.1991 Y34.3731
G01 X34.2847 Y34.4038
G01 X34.3669 Y34.4427
G01 X34.4397 Y34.4861
G01 X34.4475 Y34.4912
G01 X34.5180 Y34.5436
G01 X34.5809 Y34.6004
G01 X34.5875 Y34.6069
G01 X34.6424 Y34.6674
G01 X34.6503 Y34.6770
G01 X34.7006 Y34.7451
G01 X34.7312 Y34.7958
G00 Z2.0000
G00 X32.2841 Y32.3431
G01 F60.00
G01 Z-0.1000
G01 F120.00
G01 X32.3127 Y32.2831
G01 X32.3561 Y32.2104
G01 X32.3630 Y32.2000
G01 X32.4098 Y32.1370
G01 X32.4177 Y32.1274
G01 X32.4747 Y32.0647
G01 X32.5397 Y32.0056
G01 X32.5470 Y31.9998
G01 X32.6151 Y31.9494
G01 X32.6931 Y31.9027
G01 X32.7754 Y31.8638
G01 X32.8610 Y31.8331
G01 X32.9431 Y31.8124
G01 X32.9553 Y31.8100
G01 X33.0392 Y31.7977
G01 X33.1269 Y31.7933
G01 X33.9300 Y31.7932
G01 X34.0209 Y31.7977
G01 X34.1108 Y31.8110
G01 X34.1991 Y31.8331
G01 X34.2847 Y31.8638
G01 X34.3614 Y31.8999
G01 X34.3723 Y31.9057
G01 X34.4397 Y31.9461
G01 X34.4500 Y31.9530
G01 X34.5180 Y32.0036
G01 X34.5854 Y32.0647
G01 X34.6465 Y32.1321
G01 X34.6970 Y32.2000
G01 X34.7040 Y32.2104
G01 X34.7443 Y32.2777
G01 X34.7502 Y32.2887
G01 X34.7863 Y32.3654
G01 X34.8169 Y32.4510
G01 X34.8390 Y32.5392
G01 X34.8520 Y32.6261
G01 X34.8528 Y32.6354
G01 X34.8567 Y32.7138
G01 X34.8567 Y32.7262
G01 X34.8524 Y32.8109
G01 X34.8390 Y32.9008
G01 X34.8169 Y32.9891
G01 X34.7885 Y33.0689
G01 X34.7838 Y33.0804
G01 X34.7502 Y33.1514
G01 X34.7443 Y33.1623
G01 X34.7006 Y33.2349
G01 X34.6465 Y33.3080
G01 X34.5854 Y33.3754
G01 X34.5227 Y33.4324
G01 X34.5131 Y33.4403
G01 X34.4500 Y33.4870
G01 X34.4397 Y33.4940
G01 X34.3669 Y33.5374
G01 X34.2876 Y33.5751
G01 X34.2789 Y33.5785
G01 X34.1991 Y33.6069
G01 X34.1108 Y33.6290
G01 X34.0209 Y33.6424
G01 X33.9362 Y33.6467
G01 X33.1269 Y33.6468
G01 X33.0392 Y33.6424
G01 X32.9492 Y33.6290
G01 X32.8610 Y33.6069
G01 X32.7754 Y33.5763
G01 X32.6931 Y33.5374
G01 X32.6204 Y33.4940
G01 X32.6126 Y33.4889
G01 X32.5421 Y33.4365
G01 X32.4792 Y33.3797
G01 X32.4725 Y33.3731
G01 X32.4177 Y33.3127
G01 X32.4098 Y33.3031
G01 X32.3594 Y33.2349
G01 X32.3289 Y33.1842
G01 X31.3669 Y34.1462
G01 X31.3669 Y40.1839
G01 X35.0666 Y43.8835
G01 X35.0873 Y43.9062
G01 X35.0952 Y43.9158
G01 X35.1134 Y43.9406
G01 X35.1294 Y43.9669
G01 X35.1352 Y43.9779
G01 X35.1483 Y44.0058
G01 X35.1588 Y44.0347
G01 X35.1616 Y44.0436
G01 X35.1697 Y44.0765
G01 X35.1744 Y44.1069
G01 X35.1756 Y44.1193
G01 X35.1769 Y44.1500
G01 X35.1769 Y48.4600
G01 X35.2216 Y48.4760
G01 X35.2303 Y48.4795
G01 X35.3237 Y48.5237
G01 X35.3319 Y48.5282
G01 X35.4152 Y48.5781
G01 X35.4231 Y48.5832
G01 X35.5085 Y48.6467
G01 X35.5852 Y48.7160
G01 X35.5940 Y48.7248
G01 X35.6613 Y48.7992
G01 X35.6672 Y48.8064
G01 X35.7286 Y48.8896
G01 X35.7819 Y48.9782
G01 X35.7878 Y48.9891
G01 X35.8318 Y49.0826
G01 X35.8668 Y49.1799
G01 X35.8704 Y49.1918
G01 X35.8940 Y49.2861
G01 X35.8964 Y49.2983
G01 X35.9114 Y49.4006
G01 X35.9168 Y49.5100
G01 X35.9168 Y51.4931
G01 X35.9114 Y51.5995
G01 X35.8954 Y51.7079
G01 X35.8687 Y51.8142
G01 X35.8341 Y51.9116
G01 X35.8293 Y51.9231
G01 X35.7878 Y52.0109
G01 X35.7819 Y52.0219
G01 X35.7286 Y52.1105
G01 X35.6672 Y52.1936
G01 X35.6593 Y52.2032
G01 X35.5897 Y52.2797
G01 X35.5085 Y52.3533
G01 X35.4205 Y52.4186
G01 X35.3265 Y52.4750
G01 X35.2274 Y52.5218
G01 X35.1242 Y52.5587
G01 X35.0179 Y52.5854
G01 X34.9126 Y52.6011
G01 X34.9033 Y52.6019
G01 X34.8000 Y52.6068
G01 X34.6906 Y52.6014
G01 X34.5821 Y52.5854
G01 X34.4758 Y52.5587
G01 X34.3726 Y52.5218
G01 X34.2736 Y52.4750
G01 X34.1796 Y52.4186
G01 X34.0915 Y52.3533
G01 X34.0103 Y52.2797
G01 X33.9367 Y52.1985
G01 X33.8714 Y52.1105
G01 X33.8151 Y52.0165
G01 X33.7682 Y51.9174
G01 X33.7313 Y51.8142
G01 X33.7047 Y51.7079
G01 X33.6894 Y51.6057
G01 X33.6881 Y51.5933
G01 X33.6832 Y51.4900
G01 X33.6832 Y49.5100
G01 X33.6886 Y49.4006
G01 X33.7036 Y49.2983
G01 X33.7053 Y49.2891
G01 X33.7297 Y49.1918
G01 X33.7333 Y49.1799
G01 X33.7682 Y49.0826
G01 X33.8123 Y48.9891
G01 X33.8182 Y48.9782
G01 X33.8714 Y48.8896
G01 X33.9329 Y48.8064
G01 X33.9387 Y48.7992
G01 X34.0060 Y48.7248
G01 X34.0148 Y48.7160
G01 X34.0915 Y48.6467
G01 X34.1770 Y48.5832
G01 X34.1848 Y48.5781
G01 X34.2682 Y48.5282
G01 X34.2763 Y48.5237
G01 X34.3698 Y48.4795
G01 X34.3785 Y48.4760
G01 X34.4231 Y48.4600
G01 X34.4231 Y44.3062
G01 X30.7213 Y40.6043
G01 X30.6987 Y40.5791
G01 X30.6784 Y40.5520
G01 X30.6607 Y40.5231
G01 X30.6548 Y40.5121
G01 X30.6418 Y40.4843
G01 X30.6293 Y40.4494
G01 X30.6203 Y40.4136
G01 X30.6153 Y40.3801
G01 X30.6145 Y40.3708
G01 X30.6131 Y40.3400
G01 X30.6131 Y33.9900
G01 X30.6149 Y33.9531
G01 X30.6203 Y33.9165
G01 X30.6293 Y33.8806
G01 X30.6396 Y33.8516
G01 X30.6443 Y33.8401
G01 X30.6576 Y33.8123
G01 X30.6733 Y33.7859
G01 X30.6802 Y33.7755
G01 X30.6987 Y33.7509
G01 X30.7213 Y33.7257
G01 X31.9957 Y32.4513
G01 X32.0209 Y32.4287
G01 X32.0506 Y32.4066
G01 X32.0823 Y32.3876
G01 X32.1101 Y32.3743
G01 X32.1187 Y32.3706
G01 X32.1506 Y32.3593
G01 X32.1804 Y32.3517
G01 X32.1895 Y32.3498
G01 X32.2169 Y32.3457
G01 X32.2262 Y32.3446
G01 X32.2569 Y32.3431
G01 X32.2841 Y32.3431
G00 Z2.0000
G00 X30.3646 Y33.9243
G01 F60.00
G01 Z-0.1000
G01 F120.00
G01 X30.3806 Y33.8568
G01 X30.3956 Y33.7846
G01 X30.3966 Y33.7819
G01 X30.4294 Y33.7165
G01 X30.4587 Y33.6536
G01 X30.4606 Y33.6506
G01 X30.5052 Y33.5975
G01 X30.5233 Y33.5747
G01 X30.5333 Y33.5640
G01 X30.5591 Y33.5333
G01 X30.5713 Y33.5240
G01 X30.5940 Y33.5040
G01 X31.8113 Y32.2867
G01 X31.8615 Y32.2336
G01 X31.8642 Y32.2313
G01 X31.9264 Y32.1929
G01 X31.9845 Y32.1548
G01 X31.9876 Y32.1532
G01 X32.0474 Y32.1334
G01 X32.0653 Y32.1267
G01 X32.0792 Y32.1197
G01 X32.0871 Y32.1147
G01 X32.0946 Y32.1092
G01 X32.1515 Y32.0636
G01 X32.1625 Y32.0533
G01 X32.1684 Y32.0465
G01 X32.1739 Y32.0392
G01 X32.2275 Y31.9627
G01 X32.3727 Y31.8175
G01 X32.5409 Y31.6997
G01 X32.5918 Y31.6759
G01 X32.6002 Y31.6713
G01 X32.6108 Y31.6642
G01 X32.6183 Y31.6582
G01 X32.6697 Y31.6137
G01 X32.6765 Y31.6074
G01 X32.6828 Y31.6005
G01 X32.6887 Y31.5932
G01 X32.6939 Y31.5856
G01 X32.6986 Y31.5775
G01 X32.7027 Y31.5691
G01 X32.7071 Y31.5575
G01 X32.7291 Y31.4847
G01 X32.7313 Y31.4755
G01 X32.7328 Y31.4661
G01 X32.7336 Y31.4567
G01 X32.7336 Y31.4473
G01 X32.7326 Y31.4347
G01 X32.7297 Y31.4193
G01 X32.7088 Y31.3460
G01 X32.7056 Y31.3371
G01 X32.7018 Y31.3285
G01 X32.6974 Y31.3201
G01 X32.6924 Y31.3122
G01 X32.6827 Y31.2998
G01 X32.6739 Y31.2908
G01 X32.6191 Y31.2425
G01 X32.6097 Y31.2349
G01 X32.5996 Y31.2283
G01 X32.5916 Y31.2240
G01 X32.5409 Y31.2004
G01 X32.3727 Y31.0826
G01 X32.2275 Y30.9373
G01 X32.1097 Y30.7691
G01 X32.0229 Y30.5830
G01 X31.9697 Y30.3846
G01 X31.9518 Y30.1800
G01 X31.9697 Y29.9754
G01 X32.0229 Y29.7771
G01 X32.1097 Y29.5909
G01 X32.2275 Y29.4227
G01 X32.3727 Y29.2775
G01 X32.5409 Y29.1597
G01 X32.7271 Y29.0729
G01 X32.9254 Y29.0197
G01 X33.0788 Y29.0063
G01 X33.9813 Y29.0063
G01 X34.1346 Y29.0197
G01 X34.3330 Y29.0729
G01 X34.5191 Y29.1597
G01 X34.6874 Y29.2775
G01 X34.8326 Y29.4227
G01 X34.9504 Y29.5909
G01 X35.0372 Y29.7771
G01 X35.0903 Y29.9754
G01 X35.1082 Y30.1800
G01 X35.0903 Y30.3846
G01 X35.0372 Y30.5830
G01 X34.9504 Y30.7691
G01 X34.8326 Y30.9374
G01 X34.6874 Y31.0826
G01 X34.5191 Y31.2004
G01 X34.4683 Y31.2241
G01 X34.4599 Y31.2287
G01 X34.4518 Y31.2339
G01 X34.4417 Y31.2418
G01 X34.3903 Y31.2863
G01 X34.3835 Y31.2927
G01 X34.3752 Y31.3019
G01 X34.3661 Y31.3145
G01 X34.3587 Y31.3281
G01 X34.3539 Y31.3396
G01 X34.3301 Y31.4184
G01 X34.3273 Y31.4339
G01 X34.3264 Y31.4496
G01 X34.3270 Y31.4622
G01 X34.3296 Y31.4777
G01 X34.3522 Y31.5570
G01 X34.3569 Y31.5687
G01 X34.3627 Y31.5799
G01 X34.3714 Y31.5930
G01 X34.3795 Y31.6026
G01 X34.3885 Y31.6114
G01 X34.4410 Y31.6576
G01 X34.4528 Y31.6668
G01 X34.4605 Y31.6717
G01 X34.4684 Y31.6760
G01 X34.5191 Y31.6997
G01 X34.6874 Y31.8175
G01 X34.8326 Y31.9627
G01 X34.9504 Y32.1309
G01 X35.0372 Y32.3171
G01 X35.0903 Y32.5154
G01 X35.1082 Y32.7200
G01 X35.0903 Y32.9246
G01 X35.0372 Y33.1230
G01 X34.9504 Y33.3091
G01 X34.8326 Y33.4774
G01 X34.6874 Y33.6226
G01 X34.5191 Y33.7404
G01 X34.4683 Y33.7641
G01 X34.4571 Y33.7704
G01 X34.4492 Y33.7758
G01 X34.4417 Y33.7818
G01 X34.3857 Y33.8305
G01 X34.3793 Y33.8372
G01 X34.3733 Y33.8443
G01 X34.3678 Y33.8519
G01 X34.3630 Y33.8598
G01 X34.3574 Y33.8709
G01 X34.3529 Y33.8825
G01 X34.3301 Y33.9584
G01 X34.3282 Y33.9677
G01 X34.3269 Y33.9770
G01 X34.3264 Y33.9896
G01 X34.3268 Y33.9990
G01 X34.3278 Y34.0084
G01 X34.3304 Y34.0208
G01 X34.3504 Y34.0910
G01 X34.3544 Y34.1029
G01 X34.3596 Y34.1144
G01 X34.3677 Y34.1279
G01 X34.3753 Y34.1379
G01 X34.3862 Y34.1493
G01 X34.4432 Y34.1995
G01 X34.4504 Y34.2051
G01 X34.4579 Y34.2102
G01 X34.4684 Y34.2160
G01 X34.5191 Y34.2397
G01 X34.5933 Y34.2916
G01 X34.6042 Y34.2985
G01 X34.6403 Y34.3173
G01 X34.6517 Y34.3220
G01 X34.6635 Y34.3255
G01 X34.6725 Y34.3274
G01 X34.6817 Y34.3286
G01 X34.7576 Y34.3340
G01 X34.7733 Y34.3338
G01 X34.7889 Y34.3316
G01 X34.8041 Y34.3275
G01 X34.8187 Y34.3215
G01 X34.8856 Y34.2852
G01 X34.8984 Y34.2772
G01 X34.9056 Y34.2716
G01 X34.9145 Y34.2635
G01 X36.6429 Y32.5351
G01 X36.6498 Y32.5276
G01 X36.6705 Y32.5019
G01 X36.6776 Y32.4917
G01 X36.6836 Y32.4808
G01 X36.6874 Y32.4723
G01 X36.6906 Y32.4635
G01 X36.7120 Y32.3906
G01 X36.7150 Y32.3758
G01 X36.7160 Y32.3668
G01 X36.7163 Y32.3578
G01 X36.7163 Y23.8409
G01 X36.7143 Y23.7678
G01 X36.7146 Y23.7643
G01 X36.7314 Y23.6932
G01 X36.7455 Y23.6252
G01 X36.7466 Y23.6219
G01 X36.7778 Y23.5599
G01 X36.8087 Y23.4936
G01 X36.8106 Y23.4906
G01 X36.8552 Y23.4375
G01 X36.8733 Y23.4147
G01 X36.8832 Y23.4040
G01 X36.9091 Y23.3733
G01 X36.9213 Y23.3640
G01 X36.9440 Y23.3440
G01 X40.4552 Y19.8327
G01 X40.4619 Y19.8250
G01 X40.4824 Y19.7995
G01 X40.4907 Y19.7863
G01 X40.4962 Y19.7752
G01 X40.5015 Y19.7606
G01 X40.5212 Y19.6935
G01 X40.5234 Y19.6848
G01 X40.5250 Y19.6758
G01 X40.5260 Y19.6668
G01 X40.5263 Y19.6578
G01 X40.5263 Y18.8488
G01 X40.5252 Y18.8265
G01 X40.5243 Y18.8172
G01 X40.5227 Y18.8080
G01 X40.5186 Y18.7929
G01 X40.5152 Y18.7842
G01 X40.4864 Y18.7171
G01 X40.4806 Y18.7059
G01 X40.4756 Y18.6979
G01 X40.4679 Y18.6879
G01 X40.4593 Y18.6787
G01 X40.4498 Y18.6704
G01 X40.4422 Y18.6648
G01 X40.3844 Y18.6257
G01 X40.3736 Y18.6192
G01 X40.3622 Y18.6137
G01 X40.3504 Y18.6094
G01 X40.3382 Y18.6064
G01 X40.3257 Y18.6045
G01 X40.3163 Y18.6039
G01 X40.2464 Y18.6023
G01 X40.2374 Y18.6024
G01 X40.2284 Y18.6031
G01 X40.2194 Y18.6045
G01 X40.2106 Y18.6065
G01 X40.0846 Y18.6403
G01 X39.8800 Y18.6582
G01 X39.6754 Y18.6403
G01 X39.4771 Y18.5872
G01 X39.2909 Y18.5004
G01 X39.1227 Y18.3826
G01 X38.9775 Y18.2373
G01 X38.8597 Y18.0691
G01 X38.7729 Y17.8830
G01 X38.7197 Y17.6846
G01 X38.7018 Y17.4800
G01 X38.7197 Y17.2754
G01 X38.7729 Y17.0771
G01 X38.8597 Y16.8909
G01 X38.9775 Y16.7227
G01 X39.1227 Y16.5775
G01 X39.2909 Y16.4597
G01 X39.4771 Y16.3729
G01 X39.6754 Y16.3197
G01 X39.8800 Y16.3018
G01 X40.0846 Y16.3197
G01 X40.2830 Y16.3729
G01 X40.4691 Y16.4597
G01 X40.6374 Y16.5775
G01 X40.7826 Y16.7227
G01 X40.8030 Y16.7519
G01 X40.8108 Y16.7614
G01 X40.8172 Y16.7681
G01 X40.8518 Y16.8013
G01 X40.8634 Y16.8111
G01 X40.8734 Y16.8180
G01 X40.8814 Y16.8225
G01 X40.8896 Y16.8264
G01 X40.9010 Y16.8306
G01 X40.9739 Y16.8520
G01 X40.9886 Y16.8550
G01 X41.0007 Y16.8562
G01 X42.3846 Y16.8563
G01 X42.3982 Y16.8558
G01 X42.4383 Y16.8523
G01 X42.4535 Y16.8544
G01 X42.4837 Y16.8563
G01 X43.8334 Y16.8563
G01 X43.8426 Y16.8560
G01 X43.8518 Y16.8550
G01 X43.9049 Y16.8447
G01 X43.9196 Y16.8409
G01 X43.9281 Y16.8377
G01 X43.9392 Y16.8326
G01 X43.9471 Y16.8281
G01 X43.9571 Y16.8212
G01 X44.0141 Y16.7757
G01 X44.0253 Y16.7656
G01 X44.0314 Y16.7589
G01 X44.0370 Y16.7518
G01 X44.0575 Y16.7227
G01 X44.2027 Y16.5775
G01 X44.3709 Y16.4597
G01 X44.5571 Y16.3729
G01 X44.7554 Y16.3197
G01 X44.9600 Y16.3018
G01 X45.1646 Y16.3197
G01 X45.3630 Y16.3729
G01 X45.5491 Y16.4597
G01 X45.7174 Y16.5775
G01 X45.8626 Y16.7227
G01 X45.9804 Y16.8909
G01 X46.0672 Y17.0771
G01 X46.1203 Y17.2754
G01 X46.1382 Y17.4800
G01 X46.1203 Y17.6846
G01 X46.0672 Y17.8830
G01 X45.9804 Y18.0691
G01 X45.8626 Y18.2374
G01 X45.7174 Y18.3826
G01 X45.5491 Y18.5004
G01 X45.3630 Y18.5872
G01 X45.1646 Y18.6403
G01 X44.9600 Y18.6582
G01 X44.7554 Y18.6403
G01 X44.5571 Y18.5872
G01 X44.3709 Y18.5004
G01 X44.2027 Y18.3826
G01 X44.0575 Y18.2374
G01 X44.0370 Y18.2082
G01 X44.0292 Y18.1986
G01 X44.0228 Y18.1920
G01 X43.9883 Y18.1588
G01 X43.9767 Y18.1489
G01 X43.9692 Y18.1437
G01 X43.9614 Y18.1390
G01 X43.9532 Y18.1349
G01 X43.9448 Y18.1314
G01 X43.9361 Y18.1285
G01 X43.8691 Y18.1089
G01 X43.8603 Y18.1066
G01 X43.8484 Y18.1046
G01 X43.8334 Y18.1037
G01 X42.7755 Y18.1039
G01 X42.7423 Y18.1073
G01 X42.7331 Y18.1086
G01 X42.7210 Y18.1115
G01 X42.7092 Y18.1155
G01 X42.6951 Y18.1221
G01 X42.6338 Y18.1556
G01 X42.6260 Y18.1602
G01 X42.6186 Y18.1653
G01 X42.6115 Y18.1710
G01 X42.6049 Y18.1772
G01 X41.8472 Y18.9349
G01 X41.8381 Y18.9450
G01 X41.8177 Y18.9706
G01 X41.8093 Y18.9837
G01 X41.8038 Y18.9949
G01 X41.7985 Y19.0095
G01 X41.7780 Y19.0794
G01 X41.7750 Y19.0942
G01 X41.7738 Y19.1092
G01 X41.7737 Y20.0091
G01 X41.7758 Y20.0828
G01 X41.7754 Y20.0857
G01 X41.7586 Y20.1568
G01 X41.7444 Y20.2254
G01 X41.7434 Y20.2282
G01 X41.7123 Y20.2902
G01 X41.6813 Y20.3564
G01 X41.6794 Y20.3594
G01 X41.6348 Y20.4126
G01 X41.6167 Y20.4354
G01 X41.6068 Y20.4460
G01 X41.5809 Y20.4768
G01 X41.5687 Y20.4861
G01 X41.5460 Y20.5061
G01 X38.0372 Y24.0149
G01 X38.0303 Y24.0224
G01 X38.0096 Y24.0481
G01 X38.0025 Y24.0583
G01 X37.9964 Y24.0692
G01 X37.9926 Y24.0777
G01 X37.9895 Y24.0865
G01 X37.9680 Y24.1594
G01 X37.9660 Y24.1683
G01 X37.9646 Y24.1772
G01 X37.9637 Y24.1923
G01 X37.9637 Y32.7091
G01 X37.9658 Y32.7822
G01 X37.9654 Y32.7857
G01 X37.9494 Y32.8532
G01 X37.9344 Y32.9254
G01 X37.9334 Y32.9282
G01 X37.9007 Y32.9935
G01 X37.8713 Y33.0564
G01 X37.8694 Y33.0594
G01 X37.8248 Y33.1126
G01 X37.8067 Y33.1354
G01 X37.7968 Y33.1460
G01 X37.7709 Y33.1768
G01 X37.7587 Y33.1861
G01 X37.7360 Y33.2061
G01 X35.2488 Y35.6933
G01 X35.1985 Y35.7465
G01 X35.1958 Y35.7487
G01 X35.1336 Y35.7871
G01 X35.0756 Y35.8253
G01 X35.0724 Y35.8268
G01 X35.0086 Y35.8480
G01 X34.9920 Y35.8546
G01 X34.9809 Y35.8603
G01 X34.9679 Y35.8690
G01 X34.9062 Y35.9184
G01 X34.8955 Y35.9290
G01 X34.8879 Y35.9384
G01 X34.8326 Y36.0173
G01 X34.6873 Y36.1626
G01 X34.6694 Y36.1751
G01 X34.6514 Y36.1895
G01 X34.6442 Y36.1959
G01 X34.6353 Y36.2052
G01 X34.6293 Y36.2127
G01 X34.6238 Y36.2207
G01 X34.5865 Y36.2835
G01 X34.5820 Y36.2918
G01 X34.5769 Y36.3033
G01 X34.5731 Y36.3153
G01 X34.5704 Y36.3276
G01 X34.5690 Y36.3401
G01 X34.5688 Y36.3527
G01 X34.5713 Y36.4226
G01 X34.5724 Y36.4351
G01 X34.5740 Y36.4444
G01 X34.5772 Y36.4566
G01 X34.5804 Y36.4655
G01 X34.5843 Y36.4741
G01 X34.5888 Y36.4824
G01 X34.5939 Y36.4904
G01 X34.6337 Y36.5477
G01 X34.6394 Y36.5553
G01 X34.6500 Y36.5669
G01 X34.6621 Y36.5771
G01 X34.6752 Y36.5857
G01 X34.6894 Y36.5926
G01 X34.7539 Y36.6193
G01 X34.7624 Y36.6225
G01 X34.7711 Y36.6250
G01 X34.7799 Y36.6269
G01 X34.8081 Y36.6303
G01 X34.9110 Y36.6687
G01 X34.9970 Y36.7331
G01 X35.0614 Y36.8191
G01 X35.0997 Y36.9219
G01 X35.1037 Y36.9590
G01 X35.1037 Y38.6411
G01 X35.0997 Y38.6781
G01 X35.0614 Y38.7810
G01 X34.9970 Y38.8670
G01 X34.9110 Y38.9314
G01 X34.8081 Y38.9697
G01 X34.7711 Y38.9737
G01 X32.2889 Y38.9737
G01 X32.2519 Y38.9697
G01 X32.1491 Y38.9314
G01 X32.0629 Y38.8668
G01 X32.0566 Y38.8596
G01 X32.0385 Y38.8402
G01 X32.0319 Y38.8336
G01 X32.0224 Y38.8256
G01 X32.0095 Y38.8169
G01 X31.9984 Y38.8112
G01 X31.9348 Y38.7822
G01 X31.9231 Y38.7775
G01 X31.9110 Y38.7741
G01 X31.8987 Y38.7718
G01 X31.8861 Y38.7708
G01 X31.8735 Y38.7710
G01 X31.8641 Y38.7720
G01 X31.7950 Y38.7820
G01 X31.7796 Y38.7852
G01 X31.7676 Y38.7891
G01 X31.7561 Y38.7942
G01 X31.7425 Y38.8021
G01 X31.7324 Y38.8096
G01 X31.6725 Y38.8616
G01 X31.6639 Y38.8708
G01 X31.6544 Y38.8834
G01 X31.6466 Y38.8970
G01 X31.6405 Y38.9115
G01 X31.6189 Y38.9846
G01 X31.6166 Y38.9933
G01 X31.6150 Y39.0022
G01 X31.6140 Y39.0112
G01 X31.6137 Y39.0203
G01 X31.6139 Y39.9846
G01 X31.6173 Y40.0177
G01 X31.6186 Y40.0269
G01 X31.6215 Y40.0391
G01 X31.6255 Y40.0508
G01 X31.6321 Y40.0649
G01 X31.6656 Y40.1262
G01 X31.6702 Y40.1340
G01 X31.6753 Y40.1415
G01 X31.6810 Y40.1485
G01 X31.6872 Y40.1551
G01 X35.2333 Y43.7013
G01 X35.2865 Y43.7515
G01 X35.2887 Y43.7543
G01 X35.3269 Y43.8161
G01 X35.3655 Y43.8749
G01 X35.3668 Y43.8776
G01 X35.3898 Y43.9470
G01 X35.4136 Y44.0122
G01 X35.4144 Y44.0157
G01 X35.4204 Y44.0848
G01 X35.4237 Y44.1137
G01 X35.4242 Y44.1283
G01 X35.4277 Y44.1683
G01 X35.4256 Y44.1835
G01 X35.4237 Y44.2137
G01 X35.4237 Y48.1475
G01 X35.4244 Y48.1603
G01 X35.4257 Y48.1698
G01 X35.4277 Y48.1791
G01 X35.4431 Y48.2390
G01 X35.4457 Y48.2478
G01 X35.4502 Y48.2593
G01 X35.4543 Y48.2675
G01 X35.4607 Y48.2781
G01 X35.4680 Y48.2880
G01 X35.4763 Y48.2971
G01 X35.5241 Y48.3449
G01 X35.5336 Y48.3534
G01 X35.5465 Y48.3629
G01 X35.7268 Y48.5033
G01 X35.8799 Y48.6695
G01 X36.0036 Y48.8590
G01 X36.0943 Y49.0657
G01 X36.1497 Y49.2848
G01 X36.1637 Y49.4536
G01 X36.1637 Y51.5464
G01 X36.1497 Y51.7152
G01 X36.0943 Y51.9343
G01 X36.0035 Y52.1413
G01 X35.8799 Y52.3305
G01 X35.7268 Y52.4968
G01 X35.5485 Y52.6356
G01 X35.3497 Y52.7431
G01 X35.1359 Y52.8165
G01 X34.9130 Y52.8537
G01 X34.6870 Y52.8537
G01 X34.4641 Y52.8165
G01 X34.2504 Y52.7431
G01 X34.0516 Y52.6356
G01 X33.8733 Y52.4968
G01 X33.7202 Y52.3305
G01 X33.5966 Y52.1413
G01 X33.5058 Y51.9343
G01 X33.4503 Y51.7153
G01 X33.4363 Y51.5464
G01 X33.4363 Y49.4536
G01 X33.4503 Y49.2848
G01 X33.5058 Y49.0657
G01 X33.5966 Y48.8588
G01 X33.7202 Y48.6696
G01 X33.8733 Y48.5033
G01 X34.0536 Y48.3629
G01 X34.0664 Y48.3534
G01 X34.1161 Y48.3075
G01 X34.1268 Y48.2963
G01 X34.1325 Y48.2890
G01 X34.1393 Y48.2786
G01 X34.1450 Y48.2677
G01 X34.1496 Y48.2562
G01 X34.1720 Y48.1803
G01 X34.1740 Y48.1715
G01 X34.1758 Y48.1596
G01 X34.1763 Y48.1475
G01 X34.1763 Y44.5123
G01 X34.1756 Y44.4987
G01 X34.1719 Y44.4662
G01 X34.1694 Y44.4540
G01 X34.1646 Y44.4392
G01 X34.1580 Y44.4251
G01 X34.1230 Y44.3612
G01 X34.1182 Y44.3535
G01 X34.1129 Y44.3462
G01 X34.1029 Y44.3349
G01 X30.5567 Y40.7888
G01 X30.5036 Y40.7385
G01 X30.5013 Y40.7358
G01 X30.4629 Y40.6736
G01 X30.4245 Y40.6151
G01 X30.4232 Y40.6124
G01 X30.4002 Y40.5431
G01 X30.3765 Y40.4778
G01 X30.3757 Y40.4744
G01 X30.3696 Y40.4053
G01 X30.3663 Y40.3763
G01 X30.3658 Y40.3618
G01 X30.3623 Y40.3218
G01 X30.3644 Y40.3066
G01 X30.3663 Y40.2763
G01 X30.3663 Y34.0009
G01 X30.3643 Y33.9278
G01 X30.3646 Y33.9243
G00 Z2.0000
G00 X26.3100 Y34.3332
G01 F60.00
G01 Z-0.1000
G01 F120.00
G01 X26.3947 Y34.3372
G01 X26.4070 Y34.3384
G01 X26.4908 Y34.3510
G01 X26.5791 Y34.3731
G01 X26.6589 Y34.4015
G01 X26.6704 Y34.4063
G01 X26.7469 Y34.4427
G01 X26.8249 Y34.4894
G01 X26.8980 Y34.5436
G01 X26.9609 Y34.6004
G01 X26.9697 Y34.6092
G01 X27.0265 Y34.6721
G01 X27.0770 Y34.7400
G01 X27.0840 Y34.7504
G01 X27.1274 Y34.8231
G01 X27.1638 Y34.8997
G01 X27.1685 Y34.9112
G01 X27.1969 Y34.9910
G01 X27.2177 Y35.0731
G01 X27.2201 Y35.0853
G01 X27.2324 Y35.1692
G01 X27.2367 Y35.2538
G01 X27.2367 Y35.2662
G01 X27.2328 Y35.3447
G01 X27.2316 Y35.3570
G01 X27.2190 Y35.4408
G01 X27.1986 Y35.5231
G01 X27.1950 Y35.5350
G01 X27.1663 Y35.6147
G01 X27.1274 Y35.6969
G01 X27.0840 Y35.7697
G01 X27.0770 Y35.7800
G01 X27.0303 Y35.8431
G01 X27.0244 Y35.8504
G01 X26.9654 Y35.9154
G01 X26.8980 Y35.9765
G01 X26.8249 Y36.0306
G01 X26.7469 Y36.0774
G01 X26.6647 Y36.1163
G01 X26.5791 Y36.1469
G01 X26.4908 Y36.1690
G01 X26.4070 Y36.1816
G01 X26.3947 Y36.1828
G01 X26.3100 Y36.1868
G01 X25.5100 Y36.1868
G01 X25.4254 Y36.1828
G01 X25.4130 Y36.1816
G01 X25.3292 Y36.1690
G01 X25.2470 Y36.1486
G01 X25.2351 Y36.1450
G01 X25.1554 Y36.1163
G01 X25.0731 Y36.0774
G01 X25.0004 Y36.0340
G01 X24.9900 Y36.0270
G01 X24.9270 Y35.9803
G01 X24.9197 Y35.9744
G01 X24.8547 Y35.9154
G01 X24.7936 Y35.8480
G01 X24.7394 Y35.7749
G01 X24.6927 Y35.6969
G01 X24.6538 Y35.6147
G01 X24.6231 Y35.5291
G01 X24.6010 Y35.4408
G01 X24.5877 Y35.3509
G01 X24.5832 Y35.2600
G01 X24.5877 Y35.1692
G01 X24.6010 Y35.0792
G01 X24.6231 Y34.9910
G01 X24.6538 Y34.9054
G01 X24.6927 Y34.8231
G01 X24.7394 Y34.7451
G01 X24.7898 Y34.6770
G01 X24.7956 Y34.6697
G01 X24.8547 Y34.6047
G01 X24.9174 Y34.5477
G01 X24.9270 Y34.5398
G01 X24.9900 Y34.4930
G01 X25.0004 Y34.4861
G01 X25.0731 Y34.4427
G01 X25.1554 Y34.4038
G01 X25.2410 Y34.3731
G01 X25.3262 Y34.3517
G01 X25.3353 Y34.3500
G01 X25.4192 Y34.3377
G01 X25.5069 Y34.3333
G01 X26.3100 Y34.3332
G00 Z2.0000
G00 X34.2789 Y29.3215
G01 F60.00
G01 Z-0.1000
G01 F120.00
G01 X34.2904 Y29.3263
G01 X34.3669 Y29.3627
G01 X34.4397 Y29.4061
G01 X34.4500 Y29.4130
G01 X34.5180 Y29.4636
G01 X34.5809 Y29.5204
G01 X34.5897 Y29.5292
G01 X34.6465 Y29.5921
G01 X34.6970 Y29.6600
G01 X34.7040 Y29.6704
G01 X34.7474 Y29.7431
G01 X34.7838 Y29.8197
G01 X34.7885 Y29.8312
G01 X34.8169 Y29.9110
G01 X34.8377 Y29.9931
G01 X34.8401 Y30.0053
G01 X34.8524 Y30.0892
G01 X34.8567 Y30.1738
G01 X34.8567 Y30.1862
G01 X34.8524 Y30.2709
G01 X34.8401 Y30.3547
G01 X34.8377 Y30.3669
G01 X34.8169 Y30.4491
G01 X34.7885 Y30.5289
G01 X34.7838 Y30.5404
G01 X34.7474 Y30.6169
G01 X34.7040 Y30.6897
G01 X34.6970 Y30.7000
G01 X34.6465 Y30.7680
G01 X34.5897 Y30.8309
G01 X34.5809 Y30.8397
G01 X34.5227 Y30.8924
G01 X34.5156 Y30.8984
G01 X34.4449 Y30.9506
G01 X34.3723 Y30.9943
G01 X34.3614 Y31.0002
G01 X34.2847 Y31.0363
G01 X34.2050 Y31.0650
G01 X34.1931 Y31.0686
G01 X34.1108 Y31.0890
G01 X34.0270 Y31.1016
G01 X34.0147 Y31.1028
G01 X33.9300 Y31.1068
G01 X33.1300 Y31.1068
G01 X33.0423 Y31.1026
G01 X33.0330 Y31.1016
G01 X32.9492 Y31.0890
G01 X32.8610 Y31.0669
G01 X32.7754 Y31.0363
G01 X32.6931 Y30.9974
G01 X32.6151 Y30.9506
G01 X32.5421 Y30.8965
G01 X32.4747 Y30.8354
G01 X32.4177 Y30.7727
G01 X32.4117 Y30.7656
G01 X32.3594 Y30.6949
G01 X32.3127 Y30.6169
G01 X32.2738 Y30.5347
G01 X32.2431 Y30.4491
G01 X32.2210 Y30.3608
G01 X32.2077 Y30.2709
G01 X32.2032 Y30.1800
G01 X32.2077 Y30.0892
G01 X32.2210 Y29.9992
G01 X32.2431 Y29.9110
G01 X32.2738 Y29.8254
G01 X32.3127 Y29.7431
G01 X32.3594 Y29.6651
G01 X32.4136 Y29.5921
G01 X32.4747 Y29.5247
G01 X32.5374 Y29.4677
G01 X32.5445 Y29.4617
G01 X32.6151 Y29.4094
G01 X32.6877 Y29.3657
G01 X32.6987 Y29.3599
G01 X32.7754 Y29.3238
G01 X32.8610 Y29.2931
G01 X32.9431 Y29.2724
G01 X32.9553 Y29.2700
G01 X33.0330 Y29.2584
G01 X33.0423 Y29.2574
G01 X33.1300 Y29.2532
G01 X33.9300 Y29.2532
G01 X34.0147 Y29.2572
G01 X34.0270 Y29.2584
G01 X34.1047 Y29.2700
G01 X34.1169 Y29.2724
G01 X34.1991 Y29.2931
G01 X34.2789 Y29.3215
G00 Z2.0000
G00 X40.7259 Y29.8031
G01 F60.00
G01 Z-0.1000
G01 F120.00
G01 X41.1500 Y29.8031
G01 X41.1808 Y29.8045
G01 X41.1901 Y29.8053
G01 X41.2236 Y29.8103
G01 X41.2534 Y29.8177
G01 X41.2653 Y29.8213
G01 X41.2943 Y29.8318
G01 X41.3221 Y29.8448
G01 X41.3331 Y29.8507
G01 X41.3594 Y29.8666
G01 X41.3867 Y29.8867
G01 X41.3939 Y29.8927
G01 X41.4166 Y29.9135
G01 X43.3131 Y31.8100
G01 X43.3131 Y31.4500
G01 X43.3145 Y31.4193
G01 X43.3153 Y31.4100
G01 X43.3193 Y31.3826
G01 X43.3217 Y31.3704
G01 X43.3293 Y31.3406
G01 X43.3396 Y31.3116
G01 X43.3430 Y31.3029
G01 X43.3576 Y31.2723
G01 X43.3766 Y31.2406
G01 X43.3987 Y31.2109
