(G-CODE GENERATED BY FLATCAM v8.994 - www.flatcam.org - Version Date: 2020/11/7)

(Name: med_assoc_lick_sens_addon-B_Cu.gbr_iso_combined_cnc)
(Type: G-code from Geometry)
(Units: MM)

(Created on Friday, 14 July 2023 at 12:14)

(This preprocessor is the default preprocessor used by FlatCAM.)
(It is made to work with MACH3 compatible motion controllers.)

(TOOL DIAMETER: 0.2804 mm)
(Feedrate_XY: 120.0 mm/min)
(Feedrate_Z: 60.0 mm/min)
(Feedrate rapids 1500.0 mm/min)

(Z_Cut: -0.15 mm)
(Z_Move: 2.0 mm)
(Z Start: None mm)
(Z End: 15.0 mm)
(X,Y End: None mm)
(Steps per circle: 64)
(Preprocessor Geometry: default)

(X range:    2.9103 ...   53.9897  mm)
(Y range:    5.9103 ...   58.2597  mm)

(Spindle Speed: 0.0 RPM)
G21
G90
G94

G01 F120.00

M5
G00 Z15.0000
G00 X0.0000 Y0.0000
T2M6    
(MSG, Change to Tool Dia = 0.2804)
M0
G00 Z15.0000

M03
G01 F120.00
G00 X15.2287 Y8.9678
G01 F60.00
G01 Z-0.1500
G01 F120.00
G01 X15.3723 Y9.1113
G01 X15.4887 Y9.2777
G01 X15.5745 Y9.4617
G01 X15.6271 Y9.6578
G01 X15.6448 Y9.8600
G01 X15.6308 Y10.0217
G01 X15.6310 Y10.0358
G01 X15.6336 Y10.0763
G01 X15.6349 Y10.0864
G01 X15.6369 Y10.0964
G01 X15.6396 Y10.1063
G01 X15.6430 Y10.1159
G01 X15.6471 Y10.1252
G01 X15.6853 Y10.1955
G01 X15.6945 Y10.2094
G01 X15.7008 Y10.2172
G01 X15.7076 Y10.2245
G01 X17.1981 Y11.7150
G01 X17.2066 Y11.7224
G01 X17.2327 Y11.7432
G01 X17.2442 Y11.7507
G01 X17.2564 Y11.7571
G01 X17.2627 Y11.7598
G01 X17.2724 Y11.7634
G01 X17.3460 Y11.7849
G01 X17.3557 Y11.7872
G01 X17.3656 Y11.7887
G01 X17.3823 Y11.7897
G01 X28.4391 Y11.7897
G01 X28.5134 Y11.7878
G01 X28.5841 Y11.8045
G01 X28.6514 Y11.8184
G01 X28.7178 Y11.8515
G01 X28.7801 Y11.8805
G01 X28.8340 Y11.9255
G01 X28.8564 Y11.9433
G01 X28.8672 Y11.9533
G01 X28.8970 Y11.9784
G01 X28.9079 Y11.9924
G01 X28.9266 Y12.0135
G01 X30.7557 Y13.8426
G01 X30.7682 Y13.8537
G01 X30.7819 Y13.8632
G01 X30.8490 Y13.9000
G01 X30.8583 Y13.9047
G01 X30.8680 Y13.9086
G01 X30.8813 Y13.9128
G01 X30.8949 Y13.9156
G01 X30.9088 Y13.9170
G01 X30.9157 Y13.9172
G01 X30.9262 Y13.9168
G01 X31.0025 Y13.9112
G01 X31.0189 Y13.9082
G01 X31.0317 Y13.9045
G01 X31.1150 Y13.8734
G01 X31.1497 Y13.8697
G01 X33.2104 Y13.8697
G01 X33.2450 Y13.8734
G01 X33.3445 Y13.9105
G01 X33.4274 Y13.9726
G01 X33.4895 Y14.0556
G01 X33.5266 Y14.1550
G01 X33.5303 Y14.1897
G01 X33.5303 Y18.2304
G01 X33.5266 Y18.2650
G01 X33.4895 Y18.3645
G01 X33.4274 Y18.4474
G01 X33.3445 Y18.5095
G01 X33.2450 Y18.5466
G01 X33.2104 Y18.5503
G01 X31.1497 Y18.5503
G01 X31.1150 Y18.5466
G01 X31.0156 Y18.5095
G01 X30.9326 Y18.4474
G01 X30.8705 Y18.3645
G01 X30.8334 Y18.2650
G01 X30.8297 Y18.2304
G01 X30.8297 Y15.7523
G01 X30.8289 Y15.7373
G01 X30.8257 Y15.7075
G01 X30.8239 Y15.6973
G01 X30.8215 Y15.6873
G01 X30.8183 Y15.6775
G01 X30.8157 Y15.6711
G01 X30.8114 Y15.6617
G01 X30.7729 Y15.5916
G01 X30.7634 Y15.5779
G01 X30.7523 Y15.5654
G01 X28.2746 Y13.0877
G01 X28.2634 Y13.0777
G01 X28.2401 Y13.0589
G01 X28.2317 Y13.0529
G01 X28.2258 Y13.0493
G01 X28.2168 Y13.0444
G01 X28.2073 Y13.0402
G01 X28.1976 Y13.0367
G01 X28.1209 Y13.0143
G01 X28.1044 Y13.0113
G01 X28.0878 Y13.0103
G01 X17.0309 Y13.0103
G01 X16.9582 Y13.0124
G01 X16.8859 Y12.9955
G01 X16.8187 Y12.9816
G01 X16.7522 Y12.9485
G01 X16.6900 Y12.9195
G01 X16.6361 Y12.8746
G01 X16.6136 Y12.8567
G01 X16.6029 Y12.8467
G01 X16.5731 Y12.8217
G01 X16.5622 Y12.8076
G01 X16.5434 Y12.7865
G01 X14.8445 Y11.0876
G01 X14.8341 Y11.0782
G01 X14.7929 Y11.0479
G01 X14.7783 Y11.0393
G01 X14.7658 Y11.0339
G01 X14.7562 Y11.0305
G01 X14.7463 Y11.0279
G01 X14.6745 Y11.0134
G01 X14.6646 Y11.0118
G01 X14.6513 Y11.0108
G01 X14.6380 Y11.0110
G01 X14.4800 Y11.0248
G01 X14.2778 Y11.0071
G01 X14.0817 Y10.9545
G01 X13.8977 Y10.8687
G01 X13.7313 Y10.7523
G01 X13.5878 Y10.6087
G01 X13.4713 Y10.4424
G01 X13.3855 Y10.2584
G01 X13.3330 Y10.0623
G01 X13.3153 Y9.8600
G01 X13.3330 Y9.6578
G01 X13.3855 Y9.4617
G01 X13.4713 Y9.2777
G01 X13.5878 Y9.1113
G01 X13.7313 Y8.9678
G01 X13.8977 Y8.8513
G01 X14.0817 Y8.7655
G01 X14.2778 Y8.7130
G01 X14.4800 Y8.6953
G01 X14.6823 Y8.7130
G01 X14.8784 Y8.7655
G01 X15.0624 Y8.8513
G01 X15.2287 Y8.9678
G00 Z2.0000
G00 X14.8082 Y10.7402
G01 F60.00
G01 Z-0.1500
G01 F120.00
G01 X14.7595 Y10.7576
G01 X14.7496 Y10.7607
G01 X14.6702 Y10.7807
G01 X14.6601 Y10.7828
G01 X14.5722 Y10.7957
G01 X14.4869 Y10.8001
G01 X14.4766 Y10.8002
G01 X14.3879 Y10.7957
G01 X14.2966 Y10.7822
G01 X14.2071 Y10.7597
G01 X14.1266 Y10.7311
G01 X14.1171 Y10.7273
G01 X14.0368 Y10.6892
G01 X13.9577 Y10.6418
G01 X13.8836 Y10.5868
G01 X13.8152 Y10.5248
G01 X13.7532 Y10.4565
G01 X13.6983 Y10.3824
G01 X13.6508 Y10.3032
G01 X13.6142 Y10.2261
G01 X13.6101 Y10.2166
G01 X13.5803 Y10.1330
G01 X13.5579 Y10.0434
G01 X13.5444 Y9.9522
G01 X13.5398 Y9.8600
G01 X13.5444 Y9.7679
G01 X13.5579 Y9.6766
G01 X13.5803 Y9.5871
G01 X13.6114 Y9.5002
G01 X13.6508 Y9.4168
G01 X13.6983 Y9.3377
G01 X13.7532 Y9.2636
G01 X13.8152 Y9.1952
G01 X13.8836 Y9.1332
G01 X13.9577 Y9.0783
G01 X14.0368 Y9.0308
G01 X14.1139 Y8.9942
G01 X14.1234 Y8.9901
G01 X14.2071 Y8.9603
G01 X14.2899 Y8.9394
G01 X14.3034 Y8.9367
G01 X14.3879 Y8.9244
G01 X14.4731 Y8.9200
G01 X14.4869 Y8.9200
G01 X14.5722 Y8.9244
G01 X14.6634 Y8.9379
G01 X14.7463 Y8.9585
G01 X14.7595 Y8.9625
G01 X14.8398 Y8.9914
G01 X14.9232 Y9.0308
G01 X14.9966 Y9.0746
G01 X15.0080 Y9.0822
G01 X15.0765 Y9.1332
G01 X15.1448 Y9.1952
G01 X15.2068 Y9.2636
G01 X15.2578 Y9.3321
G01 X15.2655 Y9.3435
G01 X15.3092 Y9.4168
G01 X15.3459 Y9.4939
G01 X15.3511 Y9.5066
G01 X15.3797 Y9.5871
G01 X15.4014 Y9.6732
G01 X15.4033 Y9.6834
G01 X15.4149 Y9.7610
G01 X15.4162 Y9.7747
G01 X15.4202 Y9.8600
G01 X15.4160 Y9.9488
G01 X15.4149 Y9.9590
G01 X15.4033 Y10.0367
G01 X15.4014 Y10.0468
G01 X15.3797 Y10.1330
G01 X15.3602 Y10.1882
G01 X17.1817 Y12.0097
G01 X28.4500 Y12.0097
G01 X28.4883 Y12.0116
G01 X28.5262 Y12.0172
G01 X28.5633 Y12.0265
G01 X28.5994 Y12.0394
G01 X28.6340 Y12.0558
G01 X28.6669 Y12.0755
G01 X28.6976 Y12.0983
G01 X28.7260 Y12.1240
G01 X31.0498 Y14.4478
G01 X31.0499 Y14.2266
G01 X31.0505 Y14.2163
G01 X31.0525 Y14.2027
G01 X31.0549 Y14.1926
G01 X31.0580 Y14.1828
G01 X31.0619 Y14.1732
G01 X31.0664 Y14.1639
G01 X31.0716 Y14.1550
G01 X31.0774 Y14.1465
G01 X31.0839 Y14.1385
G01 X31.0885 Y14.1334
G01 X31.0959 Y14.1261
G01 X31.1038 Y14.1195
G01 X31.1093 Y14.1154
G01 X31.1179 Y14.1098
G01 X31.1270 Y14.1048
G01 X31.1364 Y14.1005
G01 X31.1428 Y14.0980
G01 X31.1526 Y14.0949
G01 X31.1627 Y14.0925
G01 X31.1729 Y14.0909
G01 X31.1797 Y14.0902
G01 X31.1900 Y14.0898
G01 X33.1735 Y14.0899
G01 X33.1872 Y14.0909
G01 X33.1974 Y14.0925
G01 X33.2041 Y14.0940
G01 X33.2173 Y14.0980
G01 X33.2237 Y14.1005
G01 X33.2331 Y14.1048
G01 X33.2421 Y14.1098
G01 X33.2479 Y14.1135
G01 X33.2590 Y14.1216
G01 X33.2667 Y14.1285
G01 X33.2716 Y14.1334
G01 X33.2784 Y14.1411
G01 X33.2826 Y14.1465
G01 X33.2885 Y14.1550
G01 X33.2937 Y14.1639
G01 X33.2982 Y14.1732
G01 X33.3031 Y14.1860
G01 X33.3060 Y14.1960
G01 X33.3087 Y14.2095
G01 X33.3098 Y14.2197
G01 X33.3102 Y14.2300
G01 X33.3102 Y18.1900
G01 X33.3095 Y18.2038
G01 X33.3075 Y18.2174
G01 X33.3042 Y18.2307
G01 X33.2996 Y18.2437
G01 X33.2968 Y18.2500
G01 X33.2920 Y18.2591
G01 X33.2866 Y18.2679
G01 X33.2806 Y18.2763
G01 X33.2739 Y18.2842
G01 X33.2667 Y18.2916
G01 X33.2590 Y18.2984
G01 X33.2508 Y18.3047
G01 X33.2421 Y18.3103
G01 X33.2331 Y18.3153
G01 X33.2237 Y18.3196
G01 X33.2140 Y18.3231
G01 X33.2041 Y18.3260
G01 X33.1940 Y18.3282
G01 X33.1838 Y18.3295
G01 X33.1735 Y18.3302
G01 X31.1866 Y18.3302
G01 X31.1729 Y18.3292
G01 X31.1593 Y18.3268
G01 X31.1460 Y18.3231
G01 X31.1332 Y18.3182
G01 X31.1209 Y18.3120
G01 X31.1093 Y18.3047
G01 X31.1011 Y18.2984
G01 X31.0959 Y18.2939
G01 X31.0861 Y18.2842
G01 X31.0795 Y18.2763
G01 X31.0716 Y18.2650
G01 X31.0648 Y18.2531
G01 X31.0592 Y18.2405
G01 X31.0559 Y18.2307
G01 X31.0525 Y18.2174
G01 X31.0505 Y18.2038
G01 X31.0499 Y18.1935
G01 X31.0498 Y15.5518
G01 X28.2883 Y12.7903
G01 X17.0200 Y12.7903
G01 X16.9818 Y12.7885
G01 X16.9507 Y12.7840
G01 X16.9372 Y12.7813
G01 X16.9134 Y12.7754
G01 X16.9034 Y12.7725
G01 X16.8707 Y12.7606
G01 X16.8391 Y12.7458
G01 X16.8300 Y12.7409
G01 X16.8090 Y12.7282
G01 X16.7975 Y12.7206
G01 X16.7724 Y12.7018
G01 X16.7465 Y12.6784
G01 X14.8082 Y10.7402
G00 Z2.0000
G00 X18.7056 Y10.2502
G01 F60.00
G01 Z-0.1500
G01 F120.00
G01 X18.7277 Y10.2971
G01 X18.7325 Y10.3062
G01 X18.7746 Y10.3766
G01 X18.7802 Y10.3852
G01 X18.8332 Y10.4565
G01 X18.8952 Y10.5248
G01 X18.9636 Y10.5868
G01 X19.0348 Y10.6398
G01 X19.0435 Y10.6455
G01 X19.1138 Y10.6875
G01 X19.1230 Y10.6923
G01 X19.1698 Y10.7145
G01 X19.1698 Y10.9562
G01 X19.1618 Y10.9540
G01 X18.9779 Y10.8683
G01 X18.8117 Y10.7519
G01 X18.6682 Y10.6084
G01 X18.5518 Y10.4421
G01 X18.4660 Y10.2582
G01 X18.4639 Y10.2502
G01 X18.7056 Y10.2502
G00 Z2.0000
G00 X18.7056 Y9.4698
G01 F60.00
G01 Z-0.1500
G01 F120.00
G01 X18.4639 Y9.4698
G01 X18.4660 Y9.4618
G01 X18.5518 Y9.2779
G01 X18.6682 Y9.1117
G01 X18.8117 Y8.9682
G01 X18.9779 Y8.8518
G01 X19.1618 Y8.7660
G01 X19.1698 Y8.7639
G01 X19.1698 Y9.0056
G01 X19.1230 Y9.0277
G01 X19.1138 Y9.0325
G01 X19.0435 Y9.0746
G01 X19.0348 Y9.0802
G01 X18.9636 Y9.1332
G01 X18.8952 Y9.1952
G01 X18.8332 Y9.2636
G01 X18.7802 Y9.3348
G01 X18.7746 Y9.3435
G01 X18.7325 Y9.4138
G01 X18.7277 Y9.4230
G01 X18.7056 Y9.4698
G00 Z2.0000
G00 X19.9502 Y9.0056
G01 F60.00
G01 Z-0.1500
G01 F120.00
G01 X19.9502 Y8.7639
G01 X19.9582 Y8.7660
G01 X20.1421 Y8.8518
G01 X20.3084 Y8.9682
G01 X20.4519 Y9.1117
G01 X20.5683 Y9.2779
G01 X20.6540 Y9.4618
G01 X20.6562 Y9.4698
G01 X20.4145 Y9.4698
G01 X20.3923 Y9.4230
G01 X20.3875 Y9.4138
G01 X20.3455 Y9.3435
G01 X20.3398 Y9.3348
G01 X20.2868 Y9.2636
G01 X20.2248 Y9.1952
G01 X20.1565 Y9.1332
G01 X20.0852 Y9.0802
G01 X20.0766 Y9.0746
G01 X20.0062 Y9.0325
G01 X19.9971 Y9.0277
G01 X19.9502 Y9.0056
G00 Z2.0000
G00 X19.9502 Y10.7145
G01 F60.00
G01 Z-0.1500
G01 F120.00
G01 X19.9971 Y10.6923
G01 X20.0062 Y10.6875
G01 X20.0766 Y10.6455
G01 X20.0852 Y10.6398
G01 X20.1565 Y10.5868
G01 X20.2248 Y10.5248
G01 X20.2868 Y10.4565
G01 X20.3398 Y10.3852
G01 X20.3455 Y10.3766
G01 X20.3875 Y10.3062
G01 X20.3923 Y10.2971
G01 X20.4145 Y10.2502
G01 X20.6562 Y10.2502
G01 X20.6540 Y10.2582
G01 X20.5683 Y10.4421
G01 X20.4519 Y10.6084
G01 X20.3084 Y10.7519
G01 X20.1421 Y10.8683
G01 X19.9582 Y10.9540
G01 X19.9502 Y10.9562
G01 X19.9502 Y10.7145
G00 Z2.0000
G00 X26.1112 Y14.3881
G01 F60.00
G01 Z-0.1500
G01 F120.00
G01 X26.2627 Y14.2235
G01 X26.4392 Y14.0861
G01 X26.6360 Y13.9797
G01 X26.7898 Y13.9269
G01 X26.7898 Y14.1605
G01 X26.7539 Y14.1734
G01 X26.7444 Y14.1772
G01 X26.6534 Y14.2202
G01 X26.6442 Y14.2249
G01 X26.5521 Y14.2803
G01 X26.4685 Y14.3421
G01 X26.4604 Y14.3486
G01 X26.3809 Y14.4209
G01 X26.3064 Y14.5030
G01 X26.2403 Y14.5921
G01 X26.1867 Y14.6813
G01 X26.1817 Y14.6903
G01 X26.1359 Y14.7875
G01 X26.0985 Y14.8919
G01 X26.0715 Y14.9995
G01 X26.0556 Y15.1058
G01 X26.0548 Y15.1161
G01 X26.0498 Y15.2200
G01 X26.0498 Y15.8198
G01 X25.8302 Y15.8198
G01 X25.8302 Y15.1642
G01 X25.8441 Y14.9971
G01 X25.8990 Y14.7802
G01 X25.9888 Y14.5754
G01 X26.1112 Y14.3881
G00 Z2.0000
G00 X27.5702 Y14.1605
G01 F60.00
G01 Z-0.1500
G01 F120.00
G01 X27.5702 Y13.9269
G01 X27.7241 Y13.9797
G01 X27.9208 Y14.0862
G01 X28.0974 Y14.2235
G01 X28.2489 Y14.3881
G01 X28.3712 Y14.5754
G01 X28.4611 Y14.7802
G01 X28.5160 Y14.9971
G01 X28.5298 Y15.1642
G01 X28.5298 Y15.8198
G01 X28.3102 Y15.8198
G01 X28.3102 Y15.2200
G01 X28.3053 Y15.1161
G01 X28.3044 Y15.1058
G01 X28.2885 Y14.9995
G01 X28.2616 Y14.8919
G01 X28.2242 Y14.7875
G01 X28.1799 Y14.6934
G01 X28.1751 Y14.6842
G01 X28.1198 Y14.5921
G01 X28.0537 Y14.5030
G01 X27.9792 Y14.4209
G01 X27.8996 Y14.3486
G01 X27.8916 Y14.3421
G01 X27.8079 Y14.2803
G01 X27.7158 Y14.2249
G01 X27.7067 Y14.2202
G01 X27.6157 Y14.1772
G01 X27.6061 Y14.1734
G01 X27.5702 Y14.1605
G00 Z2.0000
G00 X26.2627 Y18.1965
G01 F60.00
G01 Z-0.1500
G01 F120.00
G01 X26.1112 Y18.0319
G01 X25.9888 Y17.8447
G01 X25.8990 Y17.6398
G01 X25.8441 Y17.4230
G01 X25.8302 Y17.2559
G01 X25.8302 Y16.6002
G01 X26.0498 Y16.6002
G01 X26.0498 Y17.2000
G01 X26.0548 Y17.3039
G01 X26.0556 Y17.3142
G01 X26.0715 Y17.4205
G01 X26.0985 Y17.5281
G01 X26.1359 Y17.6325
G01 X26.1817 Y17.7297
G01 X26.1867 Y17.7388
G01 X26.2403 Y17.8279
G01 X26.3064 Y17.9170
G01 X26.3809 Y17.9992
G01 X26.4604 Y18.0715
G01 X26.4685 Y18.0779
G01 X26.5521 Y18.1398
G01 X26.6442 Y18.1951
G01 X26.6534 Y18.1999
G01 X26.7444 Y18.2428
G01 X26.7539 Y18.2467
G01 X26.7898 Y18.2595
G01 X26.7898 Y18.4932
G01 X26.6360 Y18.4404
G01 X26.4392 Y18.3339
G01 X26.2627 Y18.1965
G00 Z2.0000
G00 X27.5702 Y18.4932
G01 F60.00
G01 Z-0.1500
G01 F120.00
G01 X27.5702 Y18.2595
G01 X27.6061 Y18.2467
G01 X27.6157 Y18.2428
G01 X27.7067 Y18.1999
G01 X27.7158 Y18.1951
G01 X27.8079 Y18.1398
G01 X27.8916 Y18.0779
G01 X27.8996 Y18.0715
G01 X27.9792 Y17.9992
G01 X28.0537 Y17.9170
G01 X28.1198 Y17.8279
G01 X28.1734 Y17.7388
G01 X28.1784 Y17.7297
G01 X28.2242 Y17.6325
G01 X28.2616 Y17.5281
G01 X28.2885 Y17.4205
G01 X28.3044 Y17.3142
G01 X28.3053 Y17.3039
G01 X28.3102 Y17.2000
G01 X28.3102 Y16.6002
G01 X28.5298 Y16.6002
G01 X28.5298 Y17.2559
G01 X28.5160 Y17.4230
G01 X28.4611 Y17.6398
G01 X28.3712 Y17.8447
G01 X28.2489 Y18.0319
G01 X28.0973 Y18.1965
G01 X27.9208 Y18.3339
G01 X27.7241 Y18.4404
G01 X27.5702 Y18.4932
G00 Z2.0000
G00 X34.2834 Y29.3089
G01 F60.00
G01 Z-0.1500
G01 F120.00
G01 X34.2961 Y29.3142
G01 X34.3732 Y29.3508
G01 X34.4466 Y29.3946
G01 X34.4580 Y29.4022
G01 X34.5265 Y29.4532
G01 X34.5899 Y29.5105
G01 X34.5996 Y29.5202
G01 X34.6568 Y29.5836
G01 X34.7078 Y29.6521
G01 X34.7155 Y29.6635
G01 X34.7592 Y29.7368
G01 X34.7959 Y29.8139
G01 X34.8011 Y29.8266
G01 X34.8297 Y29.9071
G01 X34.8507 Y29.9899
G01 X34.8533 Y30.0034
G01 X34.8657 Y30.0879
G01 X34.8701 Y30.1731
G01 X34.8701 Y30.1869
G01 X34.8657 Y30.2722
G01 X34.8533 Y30.3567
G01 X34.8507 Y30.3702
G01 X34.8297 Y30.4530
G01 X34.8011 Y30.5334
G01 X34.7959 Y30.5461
G01 X34.7592 Y30.6232
G01 X34.7155 Y30.6966
G01 X34.7078 Y30.7080
G01 X34.6568 Y30.7765
G01 X34.5996 Y30.8399
G01 X34.5899 Y30.8496
G01 X34.5317 Y30.9023
G01 X34.5238 Y30.9090
G01 X34.4524 Y30.9618
G01 X34.3792 Y31.0058
G01 X34.3671 Y31.0123
G01 X34.2898 Y31.0487
G01 X34.2095 Y31.0776
G01 X34.1963 Y31.0816
G01 X34.1134 Y31.1022
G01 X34.0290 Y31.1149
G01 X34.0153 Y31.1162
G01 X33.9300 Y31.1202
G01 X33.1300 Y31.1202
G01 X33.0413 Y31.1160
G01 X33.0310 Y31.1149
G01 X32.9466 Y31.1022
G01 X32.8571 Y31.0797
G01 X32.7702 Y31.0487
G01 X32.6868 Y31.0092
G01 X32.6077 Y30.9618
G01 X32.5336 Y30.9068
G01 X32.4652 Y30.8448
G01 X32.4077 Y30.7817
G01 X32.4011 Y30.7738
G01 X32.3483 Y30.7024
G01 X32.3008 Y30.6232
G01 X32.2614 Y30.5398
G01 X32.2303 Y30.4530
G01 X32.2079 Y30.3634
G01 X32.1944 Y30.2722
G01 X32.1898 Y30.1800
G01 X32.1944 Y30.0879
G01 X32.2079 Y29.9966
G01 X32.2303 Y29.9071
G01 X32.2614 Y29.8202
G01 X32.3008 Y29.7368
G01 X32.3483 Y29.6577
G01 X32.4032 Y29.5836
G01 X32.4652 Y29.5152
G01 X32.5284 Y29.4577
G01 X32.5363 Y29.4511
G01 X32.6077 Y29.3983
G01 X32.6808 Y29.3542
G01 X32.6930 Y29.3477
G01 X32.7702 Y29.3114
G01 X32.8571 Y29.2803
G01 X32.9399 Y29.2594
G01 X32.9534 Y29.2567
G01 X33.0310 Y29.2452
G01 X33.0413 Y29.2441
G01 X33.1300 Y29.2398
G01 X33.9300 Y29.2398
G01 X34.0153 Y29.2438
G01 X34.0290 Y29.2452
G01 X34.1067 Y29.2567
G01 X34.1202 Y29.2594
G01 X34.2030 Y29.2803
G01 X34.2834 Y29.3089
G00 Z2.0000
G00 X32.2756 Y32.3297
G01 F60.00
G01 Z-0.1500
G01 F120.00
G01 X32.3008 Y32.2768
G01 X32.3464 Y32.2006
G01 X32.3522 Y32.1921
G01 X32.4011 Y32.1263
G01 X32.4077 Y32.1184
G01 X32.4652 Y32.0552
G01 X32.5309 Y31.9955
G01 X32.5390 Y31.9890
G01 X32.6077 Y31.9383
G01 X32.6868 Y31.8908
G01 X32.7702 Y31.8514
G01 X32.8571 Y31.8203
G01 X32.9399 Y31.7994
G01 X32.9534 Y31.7967
G01 X33.0379 Y31.7844
G01 X33.1266 Y31.7799
G01 X33.9300 Y31.7798
G01 X34.0153 Y31.7838
G01 X34.0256 Y31.7847
G01 X34.1134 Y31.7979
G01 X34.2030 Y31.8203
G01 X34.2898 Y31.8514
G01 X34.3671 Y31.8877
G01 X34.3792 Y31.8942
G01 X34.4466 Y31.9346
G01 X34.4580 Y31.9422
G01 X34.5265 Y31.9932
G01 X34.5948 Y32.0552
G01 X34.6568 Y32.1236
G01 X34.7078 Y32.1921
G01 X34.7155 Y32.2035
G01 X34.7558 Y32.2708
G01 X34.7623 Y32.2830
G01 X34.7987 Y32.3602
G01 X34.8297 Y32.4471
G01 X34.8522 Y32.5366
G01 X34.8653 Y32.6244
G01 X34.8662 Y32.6347
G01 X34.8701 Y32.7131
G01 X34.8701 Y32.7269
G01 X34.8657 Y32.8122
G01 X34.8522 Y32.9034
G01 X34.8297 Y32.9930
G01 X34.8011 Y33.0734
G01 X34.7959 Y33.0861
G01 X34.7623 Y33.1571
G01 X34.7558 Y33.1692
G01 X34.7118 Y33.2424
G01 X34.6568 Y33.3165
G01 X34.5948 Y33.3848
G01 X34.5317 Y33.4423
G01 X34.5211 Y33.4510
G01 X34.4580 Y33.4978
G01 X34.4466 Y33.5055
G01 X34.3732 Y33.5492
G01 X34.2930 Y33.5873
G01 X34.2834 Y33.5911
G01 X34.2030 Y33.6197
G01 X34.1134 Y33.6422
G01 X34.0222 Y33.6557
G01 X33.9369 Y33.6601
G01 X33.1266 Y33.6602
G01 X33.0379 Y33.6557
G01 X32.9466 Y33.6422
G01 X32.8571 Y33.6197
G01 X32.7702 Y33.5887
G01 X32.6868 Y33.5492
G01 X32.6135 Y33.5055
G01 X32.6048 Y33.4998
G01 X32.5336 Y33.4468
G01 X32.4702 Y33.3896
G01 X32.4628 Y33.3824
G01 X32.4077 Y33.3217
G01 X32.4011 Y33.3138
G01 X32.3502 Y33.2452
G01 X32.3446 Y33.2366
G01 X32.3262 Y33.2059
G01 X31.3803 Y34.1517
G01 X31.3803 Y40.1783
G01 X35.0760 Y43.8740
G01 X35.0973 Y43.8972
G01 X35.1060 Y43.9078
G01 X35.1246 Y43.9332
G01 X35.1409 Y43.9600
G01 X35.1474 Y43.9722
G01 X35.1606 Y44.0007
G01 X35.1714 Y44.0302
G01 X35.1745 Y44.0400
G01 X35.1828 Y44.0739
G01 X35.1876 Y44.1049
G01 X35.1890 Y44.1186
G01 X35.1903 Y44.1500
G01 X35.1903 Y48.4506
G01 X35.2261 Y48.4634
G01 X35.2357 Y48.4672
G01 X35.3297 Y48.5117
G01 X35.3388 Y48.5167
G01 X35.4221 Y48.5666
G01 X35.4308 Y48.5722
G01 X35.5170 Y48.6364
G01 X35.5942 Y48.7061
G01 X35.6039 Y48.7158
G01 X35.6715 Y48.7904
G01 X35.6779 Y48.7985
G01 X35.7398 Y48.8821
G01 X35.7934 Y48.9713
G01 X35.7999 Y48.9834
G01 X35.8442 Y49.0775
G01 X35.8794 Y49.1754
G01 X35.8834 Y49.1886
G01 X35.9070 Y49.2828
G01 X35.9097 Y49.2963
G01 X35.9248 Y49.3992
G01 X35.9302 Y49.5100
G01 X35.9302 Y51.4935
G01 X35.9248 Y51.6008
G01 X35.9085 Y51.7105
G01 X35.8816 Y51.8181
G01 X35.8467 Y51.9161
G01 X35.8414 Y51.9288
G01 X35.7999 Y52.0167
G01 X35.7934 Y52.0288
G01 X35.7398 Y52.1179
G01 X35.6779 Y52.2016
G01 X35.6692 Y52.2122
G01 X35.5992 Y52.2892
G01 X35.5170 Y52.3637
G01 X35.4279 Y52.4298
G01 X35.3328 Y52.4868
G01 X35.2325 Y52.5342
G01 X35.1281 Y52.5716
G01 X35.0205 Y52.5985
G01 X34.9142 Y52.6144
G01 X34.9039 Y52.6153
G01 X34.8000 Y52.6202
G01 X34.6892 Y52.6148
G01 X34.5795 Y52.5985
G01 X34.4719 Y52.5716
G01 X34.3675 Y52.5342
G01 X34.2673 Y52.4868
G01 X34.1721 Y52.4298
G01 X34.0830 Y52.3637
G01 X34.0009 Y52.2892
G01 X33.9264 Y52.2070
G01 X33.8603 Y52.1179
G01 X33.8033 Y52.0228
G01 X33.7559 Y51.9225
G01 X33.7185 Y51.8181
G01 X33.6915 Y51.7105
G01 X33.6761 Y51.6076
G01 X33.6748 Y51.5939
G01 X33.6698 Y51.4900
G01 X33.6698 Y49.5100
G01 X33.6753 Y49.3992
G01 X33.6904 Y49.2963
G01 X33.6923 Y49.2862
G01 X33.7167 Y49.1886
G01 X33.7206 Y49.1754
G01 X33.7559 Y49.0775
G01 X33.8002 Y48.9834
G01 X33.8067 Y48.9713
G01 X33.8603 Y48.8821
G01 X33.9221 Y48.7985
G01 X33.9286 Y48.7904
G01 X33.9961 Y48.7158
G01 X34.0058 Y48.7061
G01 X34.0830 Y48.6364
G01 X34.1693 Y48.5722
G01 X34.1779 Y48.5666
G01 X34.2613 Y48.5167
G01 X34.2703 Y48.5117
G01 X34.3644 Y48.4672
G01 X34.3739 Y48.4634
G01 X34.4097 Y48.4506
G01 X34.4097 Y44.3117
G01 X30.7116 Y40.6136
G01 X30.6883 Y40.5876
G01 X30.6674 Y40.5597
G01 X30.6618 Y40.5511
G01 X30.6492 Y40.5300
G01 X30.6427 Y40.5179
G01 X30.6294 Y40.4894
G01 X30.6165 Y40.4533
G01 X30.6072 Y40.4162
G01 X30.6020 Y40.3817
G01 X30.6011 Y40.3714
G01 X30.5997 Y40.3400
G01 X30.5997 Y33.9900
G01 X30.6016 Y33.9518
G01 X30.6072 Y33.9139
G01 X30.6165 Y33.8767
G01 X30.6269 Y33.8471
G01 X30.6322 Y33.8344
G01 X30.6458 Y33.8060
G01 X30.6618 Y33.7790
G01 X30.6694 Y33.7675
G01 X30.6883 Y33.7424
G01 X30.7116 Y33.7165
G01 X31.9865 Y32.4416
G01 X32.0124 Y32.4183
G01 X32.0432 Y32.3955
G01 X32.0760 Y32.3758
G01 X32.1044 Y32.3622
G01 X32.1138 Y32.3581
G01 X32.1467 Y32.3465
G01 X32.1772 Y32.3387
G01 X32.1873 Y32.3366
G01 X32.2149 Y32.3324
G01 X32.2252 Y32.3313
G01 X32.2566 Y32.3297
G01 X32.2756 Y32.3297
G00 Z2.0000
G00 X30.3778 Y33.9266
G01 F60.00
G01 Z-0.1500
G01 F120.00
G01 X30.3945 Y33.8559
G01 X30.4084 Y33.7887
G01 X30.4415 Y33.7222
G01 X30.4705 Y33.6600
G01 X30.5155 Y33.6061
G01 X30.5333 Y33.5836
G01 X30.5434 Y33.5728
G01 X30.5684 Y33.5431
G01 X30.5824 Y33.5322
G01 X30.6035 Y33.5134
G01 X31.8208 Y32.2962
G01 X31.8707 Y32.2433
G01 X31.9338 Y32.2041
G01 X31.9912 Y32.1664
G01 X32.0516 Y32.1462
G01 X32.0705 Y32.1391
G01 X32.0799 Y32.1347
G01 X32.0889 Y32.1296
G01 X32.0947 Y32.1258
G01 X32.1030 Y32.1196
G01 X32.1601 Y32.0739
G01 X32.1723 Y32.0624
G01 X32.1829 Y32.0496
G01 X32.2378 Y31.9713
G01 X32.3813 Y31.8278
G01 X32.5477 Y31.7113
G01 X32.5977 Y31.6879
G01 X32.6101 Y31.6810
G01 X32.6188 Y31.6750
G01 X32.6271 Y31.6684
G01 X32.6785 Y31.6238
G01 X32.6860 Y31.6168
G01 X32.6930 Y31.6093
G01 X32.6994 Y31.6012
G01 X32.7052 Y31.5927
G01 X32.7104 Y31.5838
G01 X32.7163 Y31.5714
G01 X32.7198 Y31.5617
G01 X32.7421 Y31.4882
G01 X32.7445 Y31.4781
G01 X32.7461 Y31.4677
G01 X32.7469 Y31.4573
G01 X32.7470 Y31.4469
G01 X32.7459 Y31.4330
G01 X32.7435 Y31.4193
G01 X32.7216 Y31.3420
G01 X32.7181 Y31.3322
G01 X32.7139 Y31.3226
G01 X32.7090 Y31.3134
G01 X32.7014 Y31.3017
G01 X32.6927 Y31.2909
G01 X32.6830 Y31.2809
G01 X32.6279 Y31.2324
G01 X32.6175 Y31.2241
G01 X32.6064 Y31.2168
G01 X32.5976 Y31.2120
G01 X32.5477 Y31.1887
G01 X32.3813 Y31.0723
G01 X32.2378 Y30.9287
G01 X32.1213 Y30.7624
G01 X32.0355 Y30.5784
G01 X31.9830 Y30.3823
G01 X31.9653 Y30.1800
G01 X31.9830 Y29.9778
G01 X32.0355 Y29.7817
G01 X32.1213 Y29.5977
G01 X32.2378 Y29.4313
G01 X32.3813 Y29.2878
G01 X32.5477 Y29.1713
G01 X32.7317 Y29.0855
G01 X32.9278 Y29.0330
G01 X33.0794 Y29.0197
G01 X33.9807 Y29.0197
G01 X34.1323 Y29.0330
G01 X34.3284 Y29.0855
G01 X34.5124 Y29.1713
G01 X34.6787 Y29.2878
G01 X34.8223 Y29.4313
G01 X34.9387 Y29.5977
G01 X35.0245 Y29.7817
G01 X35.0771 Y29.9778
G01 X35.0948 Y30.1800
G01 X35.0771 Y30.3823
G01 X35.0245 Y30.5784
G01 X34.9387 Y30.7624
G01 X34.8223 Y30.9287
G01 X34.6787 Y31.0723
G01 X34.5124 Y31.1887
G01 X34.4623 Y31.2121
G01 X34.4530 Y31.2172
G01 X34.4441 Y31.2230
G01 X34.4329 Y31.2317
G01 X34.3816 Y31.2762
G01 X34.3740 Y31.2832
G01 X34.3693 Y31.2882
G01 X34.3627 Y31.2961
G01 X34.3548 Y31.3073
G01 X34.3496 Y31.3162
G01 X34.3466 Y31.3224
G01 X34.3413 Y31.3351
G01 X34.3171 Y31.4152
G01 X34.3156 Y31.4220
G01 X34.3140 Y31.4323
G01 X34.3133 Y31.4392
G01 X34.3130 Y31.4497
G01 X34.3134 Y31.4601
G01 X34.3141 Y31.4670
G01 X34.3166 Y31.4807
G01 X34.3396 Y31.5613
G01 X34.3447 Y31.5743
G01 X34.3511 Y31.5866
G01 X34.3566 Y31.5955
G01 X34.3607 Y31.6011
G01 X34.3697 Y31.6118
G01 X34.3797 Y31.6215
G01 X34.4321 Y31.6676
G01 X34.4452 Y31.6779
G01 X34.4537 Y31.6833
G01 X34.4625 Y31.6880
G01 X34.5124 Y31.7113
G01 X34.6787 Y31.8278
G01 X34.8223 Y31.9713
G01 X34.9387 Y32.1377
G01 X35.0245 Y32.3217
G01 X35.0771 Y32.5178
G01 X35.0948 Y32.7200
G01 X35.0771 Y32.9223
G01 X35.0245 Y33.1184
G01 X34.9387 Y33.3024
G01 X34.8223 Y33.4687
G01 X34.6787 Y33.6123
G01 X34.5124 Y33.7287
G01 X34.4623 Y33.7521
G01 X34.4500 Y33.7590
G01 X34.4412 Y33.7650
G01 X34.4329 Y33.7717
G01 X34.3816 Y33.8162
G01 X34.3740 Y33.8232
G01 X34.3670 Y33.8308
G01 X34.3627 Y33.8361
G01 X34.3567 Y33.8445
G01 X34.3513 Y33.8532
G01 X34.3451 Y33.8655
G01 X34.3402 Y33.8783
G01 X34.3171 Y33.9552
G01 X34.3150 Y33.9654
G01 X34.3133 Y33.9792
G01 X34.3130 Y33.9897
G01 X34.3134 Y34.0001
G01 X34.3146 Y34.0105
G01 X34.3174 Y34.0241
G01 X34.3375 Y34.0947
G01 X34.3420 Y34.1078
G01 X34.3477 Y34.1205
G01 X34.3511 Y34.1266
G01 X34.3566 Y34.1355
G01 X34.3651 Y34.1465
G01 X34.3721 Y34.1543
G01 X34.3771 Y34.1591
G01 X34.4346 Y34.2098
G01 X34.4425 Y34.2160
G01 X34.4508 Y34.2215
G01 X34.4625 Y34.2280
G01 X34.5124 Y34.2513
G01 X34.5856 Y34.3026
G01 X34.5977 Y34.3102
G01 X34.6347 Y34.3295
G01 X34.6473 Y34.3346
G01 X34.6603 Y34.3385
G01 X34.6703 Y34.3406
G01 X34.6804 Y34.3419
G01 X34.7570 Y34.3474
G01 X34.7639 Y34.3475
G01 X34.7744 Y34.3471
G01 X34.7847 Y34.3459
G01 X34.7916 Y34.3447
G01 X34.8017 Y34.3422
G01 X34.8084 Y34.3402
G01 X34.8149 Y34.3378
G01 X34.8245 Y34.3336
G01 X34.8920 Y34.2969
G01 X34.9061 Y34.2881
G01 X34.9166 Y34.2798
G01 X34.9240 Y34.2730
G01 X36.6523 Y32.5446
G01 X36.6600 Y32.5363
G01 X36.6811 Y32.5101
G01 X36.6890 Y32.4988
G01 X36.6956 Y32.4867
G01 X36.6998 Y32.4773
G01 X36.7034 Y32.4676
G01 X36.7249 Y32.3941
G01 X36.7272 Y32.3843
G01 X36.7287 Y32.3744
G01 X36.7297 Y32.3578
G01 X36.7297 Y23.8409
G01 X36.7277 Y23.7682
G01 X36.7445 Y23.6959
G01 X36.7584 Y23.6287
G01 X36.7897 Y23.5659
G01 X36.8214 Y23.4986
G01 X36.8655 Y23.4461
G01 X36.8833 Y23.4236
G01 X36.8933 Y23.4129
G01 X36.9184 Y23.3831
G01 X36.9324 Y23.3722
G01 X36.9535 Y23.3534
G01 X40.4650 Y19.8419
G01 X40.4724 Y19.8334
G01 X40.4890 Y19.8128
G01 X40.4952 Y19.8045
G01 X40.5024 Y19.7928
G01 X40.5085 Y19.7805
G01 X40.5111 Y19.7741
G01 X40.5144 Y19.7643
G01 X40.5340 Y19.6973
G01 X40.5365 Y19.6876
G01 X40.5383 Y19.6777
G01 X40.5394 Y19.6678
G01 X40.5397 Y19.6578
G01 X40.5397 Y18.8488
G01 X40.5386 Y18.8257
G01 X40.5376 Y18.8154
G01 X40.5358 Y18.8052
G01 X40.5333 Y18.7952
G01 X40.5313 Y18.7886
G01 X40.5275 Y18.7789
G01 X40.4986 Y18.7115
G01 X40.4922 Y18.6991
G01 X40.4866 Y18.6903
G01 X40.4781 Y18.6793
G01 X40.4686 Y18.6691
G01 X40.4609 Y18.6621
G01 X40.4526 Y18.6557
G01 X40.3919 Y18.6146
G01 X40.3800 Y18.6074
G01 X40.3674 Y18.6014
G01 X40.3543 Y18.5966
G01 X40.3408 Y18.5932
G01 X40.3270 Y18.5912
G01 X40.3166 Y18.5905
G01 X40.2468 Y18.5889
G01 X40.2368 Y18.5890
G01 X40.2268 Y18.5898
G01 X40.2169 Y18.5914
G01 X40.2071 Y18.5936
G01 X40.0823 Y18.6271
G01 X39.8800 Y18.6448
G01 X39.6778 Y18.6271
G01 X39.4817 Y18.5745
G01 X39.2977 Y18.4887
G01 X39.1313 Y18.3723
G01 X38.9878 Y18.2287
G01 X38.8713 Y18.0624
G01 X38.7855 Y17.8784
G01 X38.7330 Y17.6823
G01 X38.7153 Y17.4800
G01 X38.7330 Y17.2778
G01 X38.7855 Y17.0817
G01 X38.8713 Y16.8977
G01 X38.9878 Y16.7313
G01 X39.1313 Y16.5878
G01 X39.2977 Y16.4713
G01 X39.4817 Y16.3855
G01 X39.6778 Y16.3330
G01 X39.8800 Y16.3153
G01 X40.0823 Y16.3330
G01 X40.2784 Y16.3855
G01 X40.4624 Y16.4713
G01 X40.6287 Y16.5878
G01 X40.7723 Y16.7313
G01 X40.7943 Y16.7625
G01 X40.8055 Y16.7753
G01 X40.8450 Y16.8132
G01 X40.8553 Y16.8218
G01 X40.8664 Y16.8294
G01 X40.8752 Y16.8344
G01 X40.8843 Y16.8387
G01 X40.8969 Y16.8434
G01 X40.9736 Y16.8658
G01 X40.9867 Y16.8683
G01 X41.0000 Y16.8696
G01 X42.3846 Y16.8697
G01 X42.3991 Y16.8692
G01 X42.4379 Y16.8658
G01 X42.4556 Y16.8680
G01 X42.4837 Y16.8697
G01 X43.8334 Y16.8697
G01 X43.8436 Y16.8694
G01 X43.8537 Y16.8682
G01 X43.9074 Y16.8578
G01 X43.9237 Y16.8536
G01 X43.9332 Y16.8501
G01 X43.9454 Y16.8445
G01 X43.9570 Y16.8377
G01 X43.9652 Y16.8319
G01 X44.0225 Y16.7862
G01 X44.0325 Y16.7773
G01 X44.0394 Y16.7701
G01 X44.0458 Y16.7624
G01 X44.0678 Y16.7313
G01 X44.2113 Y16.5878
G01 X44.3777 Y16.4713
G01 X44.5617 Y16.3855
G01 X44.7578 Y16.3330
G01 X44.9600 Y16.3153
G01 X45.1623 Y16.3330
G01 X45.3584 Y16.3855
G01 X45.5424 Y16.4713
G01 X45.7087 Y16.5878
G01 X45.8523 Y16.7313
G01 X45.9687 Y16.8977
G01 X46.0545 Y17.0817
G01 X46.1071 Y17.2778
G01 X46.1248 Y17.4800
G01 X46.1071 Y17.6823
G01 X46.0545 Y17.8784
G01 X45.9687 Y18.0624
G01 X45.8523 Y18.2287
G01 X45.7087 Y18.3723
G01 X45.5424 Y18.4887
G01 X45.3584 Y18.5745
G01 X45.1623 Y18.6271
G01 X44.9600 Y18.6448
G01 X44.7578 Y18.6271
G01 X44.5617 Y18.5745
G01 X44.3777 Y18.4887
G01 X44.2113 Y18.3723
G01 X44.0678 Y18.2287
G01 X44.0457 Y18.1975
G01 X44.0345 Y18.1847
G01 X43.9951 Y18.1468
G01 X43.9848 Y18.1382
G01 X43.9765 Y18.1324
G01 X43.9678 Y18.1273
G01 X43.9588 Y18.1227
G01 X43.9495 Y18.1189
G01 X43.9399 Y18.1157
G01 X43.8729 Y18.0960
G01 X43.8632 Y18.0935
G01 X43.8467 Y18.0910
G01 X43.8334 Y18.0903
G01 X42.7748 Y18.0905
G01 X42.7409 Y18.0940
G01 X42.7307 Y18.0954
G01 X42.7173 Y18.0986
G01 X42.7043 Y18.1030
G01 X42.6979 Y18.1057
G01 X42.6887 Y18.1103
G01 X42.6274 Y18.1438
G01 X42.6188 Y18.1489
G01 X42.6106 Y18.1546
G01 X42.6028 Y18.1609
G01 X42.5954 Y18.1677
G01 X41.8377 Y18.9254
G01 X41.8277 Y18.9366
G01 X41.8069 Y18.9627
G01 X41.8011 Y18.9713
G01 X41.7976 Y18.9772
G01 X41.7915 Y18.9895
G01 X41.7878 Y18.9992
G01 X41.7857 Y19.0057
G01 X41.7651 Y19.0760
G01 X41.7618 Y19.0923
G01 X41.7604 Y19.1089
G01 X41.7603 Y20.0091
G01 X41.7624 Y20.0818
G01 X41.7455 Y20.1541
G01 X41.7316 Y20.2214
G01 X41.7003 Y20.2842
G01 X41.6686 Y20.3514
G01 X41.6246 Y20.4039
G01 X41.6067 Y20.4265
G01 X41.5967 Y20.4372
G01 X41.5717 Y20.4670
G01 X41.5576 Y20.4779
G01 X41.5365 Y20.4966
G01 X38.0277 Y24.0054
G01 X38.0201 Y24.0137
G01 X37.9989 Y24.0400
G01 X37.9911 Y24.0513
G01 X37.9844 Y24.0633
G01 X37.9802 Y24.0727
G01 X37.9767 Y24.0824
G01 X37.9551 Y24.1560
G01 X37.9518 Y24.1723
G01 X37.9507 Y24.1823
G01 X37.9503 Y24.1923
G01 X37.9503 Y32.7091
G01 X37.9522 Y32.7834
G01 X37.9355 Y32.8541
G01 X37.9216 Y32.9214
G01 X37.8885 Y32.9878
G01 X37.8595 Y33.0501
G01 X37.8146 Y33.1039
G01 X37.7967 Y33.1265
G01 X37.7867 Y33.1372
G01 X37.7617 Y33.1670
G01 X37.7476 Y33.1779
G01 X37.7265 Y33.1966
G01 X35.2393 Y35.6839
G01 X35.1893 Y35.7367
G01 X35.1263 Y35.7759
G01 X35.0689 Y35.8136
G01 X35.0085 Y35.8339
G01 X34.9960 Y35.8384
G01 X34.9833 Y35.8438
G01 X34.9741 Y35.8487
G01 X34.9654 Y35.8542
G01 X34.9571 Y35.8604
G01 X34.9025 Y35.9040
G01 X34.8925 Y35.9128
G01 X34.8855 Y35.9201
G01 X34.8771 Y35.9304
G01 X34.8223 Y36.0087
G01 X34.6787 Y36.1523
G01 X34.6615 Y36.1643
G01 X34.6430 Y36.1791
G01 X34.6324 Y36.1886
G01 X34.6251 Y36.1964
G01 X34.6185 Y36.2047
G01 X34.6125 Y36.2135
G01 X34.5750 Y36.2767
G01 X34.5700 Y36.2858
G01 X34.5644 Y36.2986
G01 X34.5601 Y36.3119
G01 X34.5572 Y36.3255
G01 X34.5556 Y36.3393
G01 X34.5554 Y36.3532
G01 X34.5581 Y36.4265
G01 X34.5591 Y36.4369
G01 X34.5609 Y36.4472
G01 X34.5635 Y36.4573
G01 X34.5680 Y36.4705
G01 X34.5723 Y36.4800
G01 X34.5772 Y36.4892
G01 X34.5829 Y36.4980
G01 X34.6227 Y36.5554
G01 X34.6290 Y36.5637
G01 X34.6335 Y36.5690
G01 X34.6408 Y36.5765
G01 X34.6459 Y36.5812
G01 X34.6540 Y36.5878
G01 X34.6597 Y36.5918
G01 X34.6686 Y36.5973
G01 X34.6779 Y36.6021
G01 X34.6842 Y36.6050
G01 X34.7488 Y36.6317
G01 X34.7582 Y36.6352
G01 X34.7678 Y36.6380
G01 X34.7775 Y36.6401
G01 X34.8050 Y36.6434
G01 X34.9045 Y36.6805
G01 X34.9874 Y36.7426
G01 X35.0495 Y36.8256
G01 X35.0866 Y36.9250
G01 X35.0903 Y36.9597
G01 X35.0903 Y38.6404
G01 X35.0866 Y38.6750
G01 X35.0495 Y38.7745
G01 X34.9874 Y38.8574
G01 X34.9045 Y38.9195
G01 X34.8050 Y38.9566
G01 X34.7704 Y38.9603
G01 X32.2897 Y38.9603
G01 X32.2550 Y38.9566
G01 X32.1556 Y38.9195
G01 X32.0722 Y38.8571
G01 X32.0483 Y38.8310
G01 X32.0410 Y38.8237
G01 X32.0305 Y38.8149
G01 X32.0221 Y38.8090
G01 X32.0162 Y38.8054
G01 X32.0040 Y38.7990
G01 X31.9404 Y38.7700
G01 X31.9275 Y38.7649
G01 X31.9141 Y38.7610
G01 X31.9004 Y38.7585
G01 X31.8865 Y38.7574
G01 X31.8726 Y38.7577
G01 X31.8622 Y38.7588
G01 X31.7931 Y38.7687
G01 X31.7862 Y38.7699
G01 X31.7760 Y38.7723
G01 X31.7661 Y38.7754
G01 X31.7596 Y38.7779
G01 X31.7470 Y38.7838
G01 X31.7350 Y38.7910
G01 X31.7239 Y38.7993
G01 X31.6633 Y38.8520
G01 X31.6560 Y38.8595
G01 X31.6515 Y38.8648
G01 X31.6432 Y38.8760
G01 X31.6395 Y38.8819
G01 X31.6345 Y38.8911
G01 X31.6316 Y38.8974
G01 X31.6278 Y38.9071
G01 X31.6060 Y38.9808
G01 X31.6035 Y38.9905
G01 X31.6018 Y39.0003
G01 X31.6007 Y39.0103
G01 X31.6003 Y39.0203
G01 X31.6005 Y39.9853
G01 X31.6040 Y40.0191
G01 X31.6054 Y40.0294
G01 X31.6086 Y40.0428
G01 X31.6130 Y40.0558
G01 X31.6172 Y40.0652
G01 X31.6203 Y40.0713
G01 X31.6538 Y40.1327
G01 X31.6589 Y40.1413
G01 X31.6646 Y40.1495
G01 X31.6709 Y40.1573
G01 X31.6777 Y40.1646
G01 X35.2239 Y43.7108
G01 X35.2767 Y43.7607
G01 X35.3157 Y43.8234
G01 X35.3536 Y43.8811
G01 X35.3773 Y43.9516
G01 X35.4007 Y44.0161
G01 X35.4071 Y44.0860
G01 X35.4103 Y44.1145
G01 X35.4109 Y44.1291
G01 X35.4142 Y44.1679
G01 X35.4120 Y44.1856
G01 X35.4103 Y44.2137
G01 X35.4103 Y48.1475
G01 X35.4110 Y48.1616
G01 X35.4119 Y48.1686
G01 X35.4139 Y48.1790
G01 X35.4301 Y48.2423
G01 X35.4330 Y48.2521
G01 X35.4380 Y48.2648
G01 X35.4442 Y48.2769
G01 X35.4515 Y48.2884
G01 X35.4577 Y48.2965
G01 X35.4668 Y48.3065
G01 X35.5147 Y48.3543
G01 X35.5252 Y48.3638
G01 X35.5387 Y48.3739
G01 X35.7177 Y48.5132
G01 X35.8692 Y48.6778
G01 X35.9917 Y48.8654
G01 X36.0815 Y49.0701
G01 X36.1365 Y49.2870
G01 X36.1503 Y49.4542
G01 X36.1503 Y51.5459
G01 X36.1365 Y51.7130
G01 X36.0815 Y51.9300
G01 X35.9917 Y52.1349
G01 X35.8693 Y52.3222
G01 X35.7177 Y52.4869
G01 X35.5411 Y52.6243
G01 X35.3443 Y52.7308
G01 X35.1326 Y52.8035
G01 X34.9119 Y52.8403
G01 X34.6881 Y52.8403
G01 X34.4674 Y52.8035
G01 X34.2558 Y52.7308
G01 X34.0589 Y52.6243
G01 X33.8824 Y52.4869
G01 X33.7308 Y52.3222
G01 X33.6084 Y52.1349
G01 X33.5185 Y51.9300
G01 X33.4636 Y51.7130
G01 X33.4497 Y51.5459
G01 X33.4497 Y49.4542
G01 X33.4636 Y49.2870
G01 X33.5185 Y49.0701
G01 X33.6084 Y48.8652
G01 X33.7308 Y48.6778
G01 X33.8824 Y48.5132
G01 X34.0614 Y48.3738
G01 X34.0749 Y48.3638
G01 X34.0826 Y48.3571
G01 X34.1252 Y48.3174
G01 X34.1301 Y48.3126
G01 X34.1370 Y48.3050
G01 X34.1453 Y48.2941
G01 X34.1508 Y48.2854
G01 X34.1557 Y48.2764
G01 X34.1611 Y48.2638
G01 X34.1644 Y48.2541
G01 X34.1849 Y48.1838
G01 X34.1872 Y48.1741
G01 X34.1891 Y48.1609
G01 X34.1897 Y48.1475
G01 X34.1897 Y44.5123
G01 X34.1889 Y44.4973
G01 X34.1852 Y44.4641
G01 X34.1824 Y44.4506
G01 X34.1805 Y44.4440
G01 X34.1770 Y44.4343
G01 X34.1744 Y44.4279
G01 X34.1697 Y44.4187
G01 X34.1329 Y44.3516
G01 X34.1234 Y44.3379
G01 X34.1123 Y44.3254
G01 X30.5662 Y40.7793
G01 X30.5133 Y40.7293
G01 X30.4741 Y40.6663
G01 X30.4364 Y40.6089
G01 X30.4128 Y40.5385
G01 X30.3893 Y40.4740
G01 X30.3830 Y40.4041
G01 X30.3797 Y40.3756
G01 X30.3792 Y40.3609
G01 X30.3758 Y40.3222
G01 X30.3780 Y40.3045
G01 X30.3797 Y40.2763
G01 X30.3797 Y34.0009
G01 X30.3778 Y33.9266
G00 Z2.0000
G00 X26.3100 Y34.3198
G01 F60.00
G01 Z-0.1500
G01 F120.00
G01 X26.3953 Y34.3238
G01 X26.4090 Y34.3252
G01 X26.4934 Y34.3379
G01 X26.5830 Y34.3603
G01 X26.6634 Y34.3889
G01 X26.6761 Y34.3942
G01 X26.7532 Y34.4308
G01 X26.8266 Y34.4746
G01 X26.8380 Y34.4822
G01 X26.9065 Y34.5332
G01 X26.9699 Y34.5905
G01 X26.9796 Y34.6002
G01 X27.0368 Y34.6636
G01 X27.0878 Y34.7321
G01 X27.0955 Y34.7435
G01 X27.1358 Y34.8108
G01 X27.1423 Y34.8230
G01 X27.1787 Y34.9002
G01 X27.2076 Y34.9806
G01 X27.2116 Y34.9937
G01 X27.2322 Y35.0766
G01 X27.2457 Y35.1679
G01 X27.2501 Y35.2531
G01 X27.2501 Y35.2669
G01 X27.2457 Y35.3522
G01 X27.2333 Y35.4367
G01 X27.2307 Y35.4502
G01 X27.2097 Y35.5330
G01 X27.1787 Y35.6198
G01 X27.1423 Y35.6971
G01 X27.1358 Y35.7092
G01 X27.0918 Y35.7824
G01 X27.0368 Y35.8565
G01 X26.9748 Y35.9248
G01 X26.9065 Y35.9868
G01 X26.8324 Y36.0418
G01 X26.7532 Y36.0892
G01 X26.6698 Y36.1287
G01 X26.5830 Y36.1597
G01 X26.4934 Y36.1822
G01 X26.4090 Y36.1949
G01 X26.3953 Y36.1962
G01 X26.3100 Y36.2002
G01 X25.5100 Y36.2002
G01 X25.4247 Y36.1962
G01 X25.4110 Y36.1949
G01 X25.3266 Y36.1822
G01 X25.2437 Y36.1616
G01 X25.2306 Y36.1576
G01 X25.1502 Y36.1287
G01 X25.0668 Y36.0892
G01 X24.9935 Y36.0455
G01 X24.9821 Y36.0378
G01 X24.9136 Y35.9868
G01 X24.8452 Y35.9248
G01 X24.7832 Y35.8565
G01 X24.7283 Y35.7824
G01 X24.6808 Y35.7032
G01 X24.6414 Y35.6198
G01 X24.6103 Y35.5330
G01 X24.5879 Y35.4434
G01 X24.5744 Y35.3522
G01 X24.5698 Y35.2600
G01 X24.5744 Y35.1679
G01 X24.5879 Y35.0766
G01 X24.6103 Y34.9871
G01 X24.6414 Y34.9002
G01 X24.6808 Y34.8168
G01 X24.7283 Y34.7377
G01 X24.7832 Y34.6636
G01 X24.8452 Y34.5952
G01 X24.9084 Y34.5377
G01 X24.9190 Y34.5290
G01 X24.9821 Y34.4822
G01 X24.9935 Y34.4746
G01 X25.0668 Y34.4308
G01 X25.1502 Y34.3914
G01 X25.2371 Y34.3603
G01 X25.3232 Y34.3386
G01 X25.3334 Y34.3367
G01 X25.4179 Y34.3244
G01 X25.5066 Y34.3199
G01 X26.3100 Y34.3198
G00 Z2.0000
G00 X34.7339 Y34.7742
G01 F60.00
G01 Z-0.1500
G01 F120.00
G01 X36.9497 Y32.5583
G01 X36.9497 Y23.8300
G01 X36.9516 Y23.7918
G01 X36.9572 Y23.7539
G01 X36.9665 Y23.7167
G01 X36.9781 Y23.6838
G01 X36.9822 Y23.6744
G01 X36.9958 Y23.6460
G01 X37.0155 Y23.6132
G01 X37.0383 Y23.5824
G01 X37.0640 Y23.5540
G01 X40.7597 Y19.8583
G01 X40.7597 Y18.7466
G01 X40.7616 Y18.7118
G01 X40.7672 Y18.6739
G01 X40.7765 Y18.6367
G01 X40.7869 Y18.6071
G01 X40.7908 Y18.5975
G01 X40.8042 Y18.5691
G01 X40.8092 Y18.5600
G01 X40.8236 Y18.5361
G01 X40.8294 Y18.5275
G01 X40.8483 Y18.5024
G01 X40.8716 Y18.4765
G01 X41.4777 Y17.8704
G01 X40.7344 Y17.8703
G01 X40.7123 Y17.9171
G01 X40.7075 Y17.9262
G01 X40.6655 Y17.9966
G01 X40.6598 Y18.0052
G01 X40.6068 Y18.0765
G01 X40.5496 Y18.1399
G01 X40.5424 Y18.1472
G01 X40.4765 Y18.2068
G01 X40.4024 Y18.2618
G01 X40.3232 Y18.3092
G01 X40.2430 Y18.3473
G01 X40.2334 Y18.3511
G01 X40.1530 Y18.3797
G01 X40.0634 Y18.4022
G01 X39.9722 Y18.4157
G01 X39.8869 Y18.4201
G01 X39.8731 Y18.4201
G01 X39.7879 Y18.4157
G01 X39.7034 Y18.4033
G01 X39.6899 Y18.4007
G01 X39.6137 Y18.3816
G01 X39.6006 Y18.3776
G01 X39.5266 Y18.3511
G01 X39.5139 Y18.3459
G01 X39.4368 Y18.3092
G01 X39.3635 Y18.2655
G01 X39.3521 Y18.2578
G01 X39.2836 Y18.2068
G01 X39.2202 Y18.1496
G01 X39.2105 Y18.1399
G01 X39.1532 Y18.0765
G01 X39.0983 Y18.0024
G01 X39.0508 Y17.9232
G01 X39.0114 Y17.8398
G01 X38.9803 Y17.7530
G01 X38.9594 Y17.6702
G01 X38.9567 Y17.6567
G01 X38.9452 Y17.5790
G01 X38.9438 Y17.5653
G01 X38.9398 Y17.4800
G01 X38.9438 Y17.3947
G01 X38.9452 Y17.3810
G01 X38.9579 Y17.2966
G01 X38.9803 Y17.2071
G01 X39.0114 Y17.1202
G01 X39.0477 Y17.0430
G01 X39.0542 Y17.0308
G01 X39.0983 Y16.9577
G01 X39.1490 Y16.8890
G01 X39.1577 Y16.8784
G01 X39.2105 Y16.8202
G01 X39.2202 Y16.8105
G01 X39.2836 Y16.7532
G01 X39.3577 Y16.6983
G01 X39.4308 Y16.6542
G01 X39.4430 Y16.6477
G01 X39.5202 Y16.6114
G01 X39.6006 Y16.5825
G01 X39.6137 Y16.5785
G01 X39.6966 Y16.5579
G01 X39.7810 Y16.5452
G01 X39.7947 Y16.5438
G01 X39.8800 Y16.5398
G01 X39.9653 Y16.5438
G01 X39.9790 Y16.5452
G01 X40.0634 Y16.5579
G01 X40.1530 Y16.5803
G01 X40.2334 Y16.6089
G01 X40.2461 Y16.6142
G01 X40.3171 Y16.6477
G01 X40.3262 Y16.6525
G01 X40.4024 Y16.6983
G01 X40.4711 Y16.7490
G01 X40.4817 Y16.7577
G01 X40.5399 Y16.8105
G01 X40.5472 Y16.8177
G01 X40.6068 Y16.8836
G01 X40.6598 Y16.9548
G01 X40.6655 Y16.9635
G01 X40.7075 Y17.0338
G01 X40.7123 Y17.0430
G01 X40.7344 Y17.0897
G01 X44.1056 Y17.0897
G01 X44.1308 Y17.0368
G01 X44.1764 Y16.9606
G01 X44.1822 Y16.9521
G01 X44.2311 Y16.8863
G01 X44.2377 Y16.8784
G01 X44.2952 Y16.8152
G01 X44.3609 Y16.7555
G01 X44.3690 Y16.7490
G01 X44.4377 Y16.6983
G01 X44.5168 Y16.6508
G01 X44.6002 Y16.6114
G01 X44.6838 Y16.5813
G01 X44.6937 Y16.5785
G01 X44.7766 Y16.5579
G01 X44.8679 Y16.5444
G01 X44.9600 Y16.5398
G01 X45.0522 Y16.5444
G01 X45.1434 Y16.5579
G01 X45.2330 Y16.5803
G01 X45.3198 Y16.6114
G01 X45.3971 Y16.6477
G01 X45.4092 Y16.6542
G01 X45.4766 Y16.6946
G01 X45.4880 Y16.7022
G01 X45.5565 Y16.7532
G01 X45.6199 Y16.8105
G01 X45.6296 Y16.8202
G01 X45.6868 Y16.8836
G01 X45.7418 Y16.9577
G01 X45.7892 Y17.0368
G01 X45.8259 Y17.1139
G01 X45.8311 Y17.1266
G01 X45.8597 Y17.2071
G01 X45.8807 Y17.2899
G01 X45.8833 Y17.3034
G01 X45.8949 Y17.3810
G01 X45.8962 Y17.3947
G01 X45.9002 Y17.4800
G01 X45.8957 Y17.5722
G01 X45.8822 Y17.6634
G01 X45.8616 Y17.7463
G01 X45.8576 Y17.7595
G01 X45.8311 Y17.8334
G01 X45.8259 Y17.8461
G01 X45.7892 Y17.9232
G01 X45.7455 Y17.9966
G01 X45.7378 Y18.0080
G01 X45.6868 Y18.0765
G01 X45.6296 Y18.1399
G01 X45.6224 Y18.1472
G01 X45.5565 Y18.2068
G01 X45.4880 Y18.2578
G01 X45.4766 Y18.2655
G01 X45.4092 Y18.3058
G01 X45.3971 Y18.3123
G01 X45.3198 Y18.3487
G01 X45.2395 Y18.3776
G01 X45.2263 Y18.3816
G01 X45.1434 Y18.4022
G01 X45.0522 Y18.4157
G01 X44.9600 Y18.4202
G01 X44.8679 Y18.4157
G01 X44.7834 Y18.4033
G01 X44.7699 Y18.4007
G01 X44.6871 Y18.3797
G01 X44.6066 Y18.3511
G01 X44.5939 Y18.3459
G01 X44.5168 Y18.3092
G01 X44.4435 Y18.2655
G01 X44.4348 Y18.2598
G01 X44.3636 Y18.2068
G01 X44.3002 Y18.1496
G01 X44.2905 Y18.1399
G01 X44.2355 Y18.0791
G01 X44.2290 Y18.0711
G01 X44.1822 Y18.0080
G01 X44.1764 Y17.9995
G01 X44.1308 Y17.9232
G01 X44.1056 Y17.8703
G01 X42.5817 Y17.8703
G01 X41.5403 Y18.9117
G01 X41.5403 Y20.0200
G01 X41.5388 Y20.0549
G01 X41.5376 Y20.0651
G01 X41.5340 Y20.0894
G01 X41.5313 Y20.1029
G01 X41.5235 Y20.1333
G01 X41.5106 Y20.1694
G01 X41.4974 Y20.1979
G01 X41.4909 Y20.2100
G01 X41.4746 Y20.2369
G01 X41.4539 Y20.2650
G01 X41.4473 Y20.2729
G01 X41.4260 Y20.2960
G01 X37.7303 Y23.9917
G01 X37.7303 Y32.7200
G01 X37.7285 Y32.7583
G01 X37.7240 Y32.7894
G01 X37.7213 Y32.8029
G01 X37.7135 Y32.8333
G01 X37.7031 Y32.8630
G01 X37.6993 Y32.8726
G01 X37.6874 Y32.8979
G01 X37.6809 Y32.9100
G01 X37.6664 Y32.9340
G01 X37.6606 Y32.9425
G01 X37.6418 Y32.9676
G01 X37.6160 Y32.9960
G01 X35.0736 Y35.5384
G01 X35.0476 Y35.5618
G01 X35.0169 Y35.5846
G01 X34.9840 Y35.6043
G01 X34.9557 Y35.6178
G01 X34.9462 Y35.6219
G01 X34.9133 Y35.6335
G01 X34.8829 Y35.6413
G01 X34.8728 Y35.6435
G01 X34.8451 Y35.6476
G01 X34.8349 Y35.6488
G01 X34.8035 Y35.6503
G01 X34.7844 Y35.6503
G01 X34.7623 Y35.6971
G01 X34.7575 Y35.7062
G01 X34.7155 Y35.7766
G01 X34.7098 Y35.7852
G01 X34.6568 Y35.8565
G01 X34.5972 Y35.9224
G01 X34.5899 Y35.9296
G01 X34.5265 Y35.9868
G01 X34.4580 Y36.0378
G01 X34.4466 Y36.0455
G01 X34.3792 Y36.0858
G01 X34.3671 Y36.0923
G01 X34.2961 Y36.1259
G01 X34.2834 Y36.1311
G01 X34.2030 Y36.1597
G01 X34.1202 Y36.1807
G01 X34.1067 Y36.1833
G01 X34.0222 Y36.1957
G01 X33.9369 Y36.2001
G01 X33.1266 Y36.2002
G01 X33.0447 Y36.1962
G01 X33.0310 Y36.1949
G01 X32.9466 Y36.1822
G01 X32.8637 Y36.1616
G01 X32.8506 Y36.1576
G01 X32.7702 Y36.1287
G01 X32.6930 Y36.0923
G01 X32.6808 Y36.0858
G01 X32.6077 Y36.0418
G01 X32.5390 Y35.9910
G01 X32.5284 Y35.9823
G01 X32.4652 Y35.9248
G01 X32.4032 Y35.8565
G01 X32.3522 Y35.7880
G01 X32.3446 Y35.7766
G01 X32.3008 Y35.7032
G01 X32.2642 Y35.6261
G01 X32.2589 Y35.6134
G01 X32.2303 Y35.5330
G01 X32.2079 Y35.4434
G01 X32.1944 Y35.3522
G01 X32.1898 Y35.2600
G01 X32.1944 Y35.1679
G01 X32.2079 Y35.0766
G01 X32.2303 Y34.9871
G01 X32.2614 Y34.9002
G01 X32.3008 Y34.8168
G01 X32.3483 Y34.7377
G01 X32.4032 Y34.6636
G01 X32.4652 Y34.5952
G01 X32.5336 Y34.5332
G01 X32.6077 Y34.4783
G01 X32.6868 Y34.4308
G01 X32.7702 Y34.3914
G01 X32.8571 Y34.3603
G01 X32.9399 Y34.3394
G01 X32.9534 Y34.3367
G01 X33.0379 Y34.3244
G01 X33.1266 Y34.3199
G01 X33.9335 Y34.3199
G01 X34.0222 Y34.3244
G01 X34.1067 Y34.3367
G01 X34.1168 Y34.3386
G01 X34.2030 Y34.3603
G01 X34.2898 Y34.3914
G01 X34.3732 Y34.4308
G01 X34.4466 Y34.4746
G01 X34.4552 Y34.4802
G01 X34.5265 Y34.5332
G01 X34.5899 Y34.5905
G01 X34.5972 Y34.5977
G01 X34.6523 Y34.6584
G01 X34.6590 Y34.6663
G01 X34.7098 Y34.7348
G01 X34.7155 Y34.7435
G01 X34.7339 Y34.7742
G00 Z2.0000
G00 X34.7300 Y36.8598
G01 F60.00
G01 Z-0.1500
G01 F120.00
G01 X34.7438 Y36.8605
G01 X34.7574 Y36.8625
G01 X34.7707 Y36.8659
G01 X34.7837 Y36.8705
G01 X34.7961 Y36.8764
G01 X34.8079 Y36.8835
G01 X34.8163 Y36.8895
G01 X34.8267 Y36.8985
G01 X34.8362 Y36.9085
G01 X34.8447 Y36.9193
G01 X34.8520 Y36.9309
G01 X34.8568 Y36.9401
G01 X34.8620 Y36.9528
G01 X34.8660 Y36.9660
G01 X34.8687 Y36.9795
G01 X34.8701 Y36.9931
G01 X34.8702 Y38.6035
G01 X34.8695 Y38.6138
G01 X34.8687 Y38.6206
G01 X34.8660 Y38.6341
G01 X34.8631 Y38.6440
G01 X34.8608 Y38.6505
G01 X34.8568 Y38.6600
G01 X34.8537 Y38.6661
G01 X34.8466 Y38.6779
G01 X34.8426 Y38.6835
G01 X34.8362 Y38.6916
G01 X34.8267 Y38.7016
G01 X34.8216 Y38.7062
G01 X34.8135 Y38.7126
G01 X34.8050 Y38.7185
G01 X34.7961 Y38.7237
G01 X34.7837 Y38.7296
G01 X34.7740 Y38.7331
G01 X34.7641 Y38.7360
G01 X34.7506 Y38.7387
G01 X34.7403 Y38.7398
G01 X34.7300 Y38.7402
G01 X32.3300 Y38.7402
G01 X32.3231 Y38.7401
G01 X32.3129 Y38.7392
G01 X32.2993 Y38.7368
G01 X32.2893 Y38.7342
G01 X32.2828 Y38.7320
G01 X32.2732 Y38.7282
G01 X32.2670 Y38.7253
G01 X32.2609 Y38.7220
G01 X32.2521 Y38.7166
G01 X32.2438 Y38.7106
G01 X32.2385 Y38.7062
G01 X32.2285 Y38.6967
G01 X32.2216 Y38.6890
G01 X32.2174 Y38.6835
G01 X32.2116 Y38.6750
G01 X32.2064 Y38.6661
G01 X32.2005 Y38.6537
G01 X32.1969 Y38.6440
G01 X32.1940 Y38.6341
G01 X32.1919 Y38.6240
G01 X32.1905 Y38.6138
G01 X32.1899 Y38.6035
G01 X32.1899 Y36.9966
G01 X32.1909 Y36.9829
G01 X32.1919 Y36.9761
G01 X32.1940 Y36.9660
G01 X32.1969 Y36.9560
G01 X32.1992 Y36.9496
G01 X32.2048 Y36.9370
G01 X32.2080 Y36.9309
G01 X32.2135 Y36.9221
G01 X32.2195 Y36.9138
G01 X32.2239 Y36.9085
G01 X32.2334 Y36.8985
G01 X32.2385 Y36.8939
G01 X32.2465 Y36.8874
G01 X32.2579 Y36.8798
G01 X32.2670 Y36.8748
G01 X32.2764 Y36.8705
G01 X32.2860 Y36.8669
G01 X32.2960 Y36.8640
G01 X32.3061 Y36.8619
G01 X32.3197 Y36.8602
G01 X32.3300 Y36.8598
G01 X34.7300 Y36.8598
G00 Z2.0000
G00 X40.1924 Y36.9357
G01 F60.00
G01 Z-0.1500
G01 F120.00
G01 X40.1865 Y36.9217
G01 X40.1546 Y36.8320
G01 X40.1298 Y36.7330
G01 X40.1148 Y36.6320
G01 X40.1098 Y36.5300
G01 X40.1148 Y36.4281
G01 X40.1298 Y36.3271
G01 X40.1546 Y36.2281
G01 X40.1890 Y36.1320
G01 X40.2327 Y36.0397
G01 X40.2851 Y35.9521
G01 X40.3459 Y35.8701
G01 X40.4145 Y35.7945
G01 X40.4901 Y35.7259
G01 X40.5721 Y35.6651
G01 X40.6597 Y35.6127
G01 X40.7520 Y35.5690
G01 X40.8481 Y35.5346
G01 X40.9471 Y35.5098
G01 X41.0481 Y35.4948
G01 X41.1500 Y35.4898
G01 X41.2520 Y35.4948
G01 X41.3530 Y35.5098
G01 X41.4520 Y35.5346
G01 X41.5481 Y35.5690
G01 X41.6404 Y35.6127
G01 X41.7279 Y35.6651
G01 X41.8099 Y35.7259
G01 X41.8856 Y35.7945
G01 X41.9541 Y35.8701
G01 X42.0149 Y35.9521
G01 X42.0674 Y36.0397
G01 X42.1110 Y36.1320
G01 X42.1454 Y36.2281
G01 X42.1687 Y36.3204
G01 X42.1714 Y36.3339
G01 X42.1852 Y36.4281
G01 X42.1901 Y36.5231
G01 X42.1901 Y36.5369
G01 X42.1852 Y36.6320
G01 X42.1702 Y36.7330
G01 X42.1454 Y36.8320
G01 X42.1135 Y36.9217
G01 X42.1083 Y36.9344
G01 X42.0674 Y37.0204
G01 X42.0149 Y37.1079
G01 X41.9583 Y37.1845
G01 X41.9496 Y37.1951
G01 X41.8856 Y37.2656
G01 X41.8099 Y37.3341
G01 X41.7336 Y37.3910
G01 X41.7221 Y37.3986
G01 X41.6404 Y37.4474
G01 X41.5544 Y37.4883
G01 X41.5417 Y37.4935
G01 X41.4520 Y37.5254
G01 X41.3530 Y37.5502
G01 X41.2588 Y37.5644
G01 X41.2451 Y37.5657
G01 X41.1500 Y37.5702
G01 X41.0481 Y37.5652
G01 X40.9471 Y37.5502
G01 X40.8547 Y37.5273
G01 X40.8415 Y37.5233
G01 X40.7584 Y37.4935
G01 X40.7444 Y37.4877
G01 X40.1903 Y38.0417
G01 X40.1903 Y48.3798
G01 X40.7900 Y48.3798
G01 X40.8003 Y48.3802
G01 X40.8140 Y48.3819
G01 X40.8241 Y48.3840
G01 X40.8373 Y48.3880
G01 X40.8468 Y48.3919
G01 X40.8561 Y48.3964
G01 X40.8650 Y48.4016
G01 X40.8735 Y48.4074
G01 X40.8816 Y48.4139
G01 X40.8892 Y48.4209
G01 X40.8962 Y48.4285
G01 X40.9026 Y48.4365
G01 X40.9103 Y48.4479
G01 X40.9153 Y48.4570
G01 X40.9196 Y48.4664
G01 X40.9242 Y48.4793
G01 X40.9268 Y48.4893
G01 X40.9287 Y48.4995
G01 X40.9298 Y48.5097
G01 X40.9302 Y48.5200
G01 X40.9302 Y52.4835
G01 X40.9298 Y52.4903
G01 X40.9287 Y52.5006
G01 X40.9268 Y52.5107
G01 X40.9251 Y52.5174
G01 X40.9231 Y52.5240
G01 X40.9196 Y52.5337
G01 X40.9168 Y52.5400
G01 X40.9120 Y52.5491
G01 X40.9066 Y52.5579
G01 X40.9006 Y52.5663
G01 X40.8939 Y52.5742
G01 X40.8892 Y52.5792
G01 X40.8842 Y52.5839
G01 X40.8763 Y52.5906
G01 X40.8708 Y52.5947
G01 X40.8621 Y52.6003
G01 X40.8531 Y52.6053
G01 X40.8468 Y52.6082
G01 X40.8373 Y52.6120
G01 X40.8274 Y52.6151
G01 X40.8207 Y52.6168
G01 X40.8106 Y52.6187
G01 X40.8003 Y52.6198
G01 X40.7900 Y52.6202
G01 X38.8100 Y52.6202
G01 X38.7963 Y52.6195
G01 X38.7827 Y52.6175
G01 X38.7760 Y52.6160
G01 X38.7660 Y52.6131
G01 X38.7564 Y52.6096
G01 X38.7470 Y52.6053
G01 X38.7379 Y52.6003
G01 X38.7293 Y52.5947
G01 X38.7211 Y52.5884
G01 X38.7134 Y52.5816
G01 X38.7061 Y52.5742
G01 X38.6995 Y52.5663
G01 X38.6935 Y52.5579
G01 X38.6880 Y52.5491
G01 X38.6848 Y52.5431
G01 X38.6805 Y52.5337
G01 X38.6769 Y52.5240
G01 X38.6740 Y52.5141
G01 X38.6713 Y52.5006
G01 X38.6702 Y52.4903
G01 X38.6699 Y52.4835
G01 X38.6698 Y52.1822
G01 X36.2636 Y54.5884
G01 X36.2376 Y54.6118
G01 X36.2069 Y54.6346
G01 X36.1740 Y54.6543
G01 X36.1457 Y54.6678
G01 X36.1330 Y54.6731
G01 X36.1099 Y54.6814
G01 X36.1000 Y54.6845
G01 X36.0662 Y54.6928
G01 X36.0317 Y54.6981
G01 X36.0214 Y54.6990
G01 X35.9900 Y54.7003
G01 X24.6400 Y54.7003
G01 X24.6018 Y54.6985
G01 X24.5639 Y54.6928
G01 X24.5334 Y54.6854
G01 X24.5202 Y54.6814
G01 X24.4938 Y54.6719
G01 X24.4844 Y54.6678
G01 X24.4560 Y54.6543
G01 X24.4232 Y54.6346
G01 X24.3924 Y54.6118
G01 X24.3665 Y54.5884
G01 X20.1007 Y50.3227
G01 X18.2316 Y50.3227
G01 X18.2247 Y50.3223
G01 X18.2145 Y50.3212
G01 X18.2043 Y50.3193
G01 X18.1976 Y50.3176
G01 X18.1910 Y50.3156
G01 X18.1814 Y50.3121
G01 X18.1720 Y50.3078
G01 X18.1629 Y50.3028
G01 X18.1571 Y50.2991
G01 X18.1488 Y50.2931
G01 X18.1409 Y50.2864
G01 X18.1359 Y50.2817
G01 X18.1311 Y50.2767
G01 X18.1245 Y50.2688
G01 X18.1185 Y50.2604
G01 X18.1148 Y50.2546
G01 X18.1098 Y50.2456
G01 X18.1055 Y50.2362
G01 X18.1019 Y50.2265
G01 X18.0999 Y50.2199
G01 X18.0975 Y50.2099
G01 X18.0959 Y50.1997
G01 X18.0950 Y50.1894
G01 X18.0948 Y50.1825
G01 X18.0948 Y48.2775
G01 X18.0955 Y48.2638
G01 X18.0975 Y48.2502
G01 X18.1009 Y48.2368
G01 X18.1055 Y48.2239
G01 X18.1114 Y48.2114
G01 X18.1185 Y48.1996
G01 X18.1266 Y48.1886
G01 X18.1359 Y48.1784
G01 X18.1461 Y48.1691
G01 X18.1571 Y48.1610
G01 X18.1689 Y48.1539
G01 X18.1814 Y48.1480
G01 X18.1943 Y48.1434
G01 X18.2077 Y48.1400
G01 X18.2179 Y48.1384
G01 X18.2316 Y48.1374
G01 X20.2350 Y48.1373
G01 X20.2488 Y48.1380
G01 X20.2624 Y48.1400
G01 X20.2724 Y48.1424
G01 X20.2855 Y48.1467
G01 X20.2950 Y48.1508
G01 X20.3041 Y48.1555
G01 X20.3129 Y48.1610
G01 X20.3213 Y48.1670
G01 X20.3292 Y48.1736
G01 X20.3389 Y48.1834
G01 X20.3476 Y48.1940
G01 X20.3535 Y48.2025
G01 X20.3603 Y48.2145
G01 X20.3646 Y48.2239
G01 X20.3692 Y48.2368
G01 X20.3718 Y48.2468
G01 X20.3737 Y48.2570
G01 X20.3748 Y48.2672
G01 X20.3752 Y48.2775
G01 X20.3752 Y49.4932
G01 X24.8017 Y53.9197
G01 X35.8283 Y53.9197
G01 X38.6698 Y51.0782
G01 X38.6698 Y48.5200
G01 X38.6702 Y48.5097
G01 X38.6709 Y48.5029
G01 X38.6725 Y48.4927
G01 X38.6749 Y48.4826
G01 X38.6780 Y48.4728
G01 X38.6819 Y48.4632
G01 X38.6864 Y48.4539
G01 X38.6916 Y48.4450
G01 X38.6974 Y48.4365
G01 X38.7039 Y48.4285
G01 X38.7109 Y48.4209
G01 X38.7185 Y48.4139
G01 X38.7265 Y48.4074
G01 X38.7350 Y48.4016
G01 X38.7439 Y48.3964
G01 X38.7532 Y48.3919
G01 X38.7596 Y48.3892
G01 X38.7693 Y48.3859
G01 X38.7793 Y48.3832
G01 X38.7895 Y48.3813
G01 X38.7997 Y48.3802
G01 X38.8100 Y48.3798
G01 X39.4097 Y48.3798
G01 X39.4097 Y37.8800
G01 X39.4113 Y37.8452
G01 X39.4124 Y37.8349
G01 X39.4160 Y37.8107
G01 X39.4187 Y37.7972
G01 X39.4265 Y37.7667
G01 X39.4394 Y37.7307
G01 X39.4558 Y37.6960
G01 X39.4718 Y37.6690
G01 X39.4794 Y37.6575
G01 X39.4941 Y37.6378
G01 X39.5005 Y37.6298
G01 X39.5240 Y37.6040
G01 X40.1924 Y36.9357
G00 Z2.0000
G00 X40.7344 Y29.7897
G01 F60.00
G01 Z-0.1500
G01 F120.00
G01 X41.1500 Y29.7897
G01 X41.1814 Y29.7911
G01 X41.1917 Y29.7920
G01 X41.2262 Y29.7972
G01 X41.2567 Y29.8047
G01 X41.2699 Y29.8087
G01 X41.2994 Y29.8194
G01 X41.3279 Y29.8327
G01 X41.3400 Y29.8392
G01 X41.3669 Y29.8555
G01 X41.3950 Y29.8761
G01 X41.4029 Y29.8828
G01 X41.4260 Y29.9040
G01 X43.2997 Y31.7777
G01 X43.2997 Y31.4500
G01 X43.3011 Y31.4186
G01 X43.3020 Y31.4083
G01 X43.3060 Y31.3807
G01 X43.3079 Y31.3705
G01 X43.3155 Y31.3400
G01 X43.3187 Y31.3302
G01 X43.3281 Y31.3038
G01 X43.3322 Y31.2944
G01 X43.3458 Y31.2660
G01 X43.3618 Y31.2390
G01 X43.3694 Y31.2275
G01 X43.3883 Y31.2024
G01 X43.4140 Y31.1740
G01 X44.0799 Y30.5082
G01 X44.0625 Y30.4595
G01 X44.0594 Y30.4496
G01 X44.0394 Y30.3702
G01 X44.0373 Y30.3601
G01 X44.0244 Y30.2722
G01 X44.0199 Y30.1835
G01 X44.0200 Y30.1731
G01 X44.0238 Y30.0947
G01 X44.0252 Y30.0810
G01 X44.0379 Y29.9966
G01 X44.0594 Y29.9104
G01 X44.0625 Y29.9006
G01 X44.0889 Y29.8266
G01 X44.0942 Y29.8139
G01 X44.1308 Y29.7368
G01 X44.1783 Y29.6577
G01 X44.2290 Y29.5890
G01 X44.2377 Y29.5784
G01 X44.2952 Y29.5152
G01 X44.3636 Y29.4532
G01 X44.4377 Y29.3983
G01 X44.5108 Y29.3542
G01 X44.5230 Y29.3477
G01 X44.6002 Y29.3114
G01 X44.6806 Y29.2825
G01 X44.6937 Y29.2785
G01 X44.7699 Y29.2594
G01 X44.7834 Y29.2567
G01 X44.8679 Y29.2444
G01 X44.9600 Y29.2398
G01 X45.0522 Y29.2444
G01 X45.1434 Y29.2579
G01 X45.2330 Y29.2803
G01 X45.3134 Y29.3089
G01 X45.3261 Y29.3142
G01 X45.4032 Y29.3508
G01 X45.4766 Y29.3946
G01 X45.4880 Y29.4022
G01 X45.5511 Y29.4490
G01 X45.5617 Y29.4577
G01 X45.6248 Y29.5152
G01 X45.6868 Y29.5836
G01 X45.7418 Y29.6577
G01 X45.7858 Y29.7308
G01 X45.7908 Y29.7399
G01 X45.8287 Y29.8202
G01 X45.8576 Y29.9006
G01 X45.8616 Y29.9137
G01 X45.8822 Y29.9966
G01 X45.8957 Y30.0879
G01 X45.9001 Y30.1731
G01 X45.9001 Y30.1869
G01 X45.8962 Y30.2653
G01 X45.8949 Y30.2790
G01 X45.8822 Y30.3634
G01 X45.8597 Y30.4530
G01 X45.8287 Y30.5398
G01 X45.7923 Y30.6171
G01 X45.7858 Y30.6292
G01 X45.7455 Y30.6966
G01 X45.7378 Y30.7080
G01 X45.6868 Y30.7765
G01 X45.6296 Y30.8399
G01 X45.6199 Y30.8496
G01 X45.5617 Y30.9023
G01 X45.5511 Y30.9110
G01 X45.4824 Y30.9618
G01 X45.4032 Y31.0092
G01 X45.3261 Y31.0459
G01 X45.3134 Y31.0511
G01 X45.2330 Y31.0797
G01 X45.1468 Y31.1014
G01 X45.1367 Y31.1033
G01 X45.0590 Y31.1149
G01 X45.0453 Y31.1162
G01 X44.9600 Y31.1202
G01 X44.8713 Y31.1160
G01 X44.8610 Y31.1149
G01 X44.7834 Y31.1033
G01 X44.7732 Y31.1014
G01 X44.6871 Y31.0797
G01 X44.6319 Y31.0602
G01 X44.0803 Y31.6117
G01 X44.0803 Y35.4898
G01 X44.5900 Y35.4898
G01 X44.6003 Y35.4902
G01 X44.6106 Y35.4913
G01 X44.6207 Y35.4932
G01 X44.6307 Y35.4959
G01 X44.6405 Y35.4992
G01 X44.6500 Y35.5033
G01 X44.6591 Y35.5080
G01 X44.6679 Y35.5135
G01 X44.6763 Y35.5195
G01 X44.6842 Y35.5261
G01 X44.6892 Y35.5309
G01 X44.6962 Y35.5385
G01 X44.7026 Y35.5465
G01 X44.7085 Y35.5550
G01 X44.7137 Y35.5639
G01 X44.7182 Y35.5732
G01 X44.7220 Y35.5828
G01 X44.7251 Y35.5926
G01 X44.7268 Y35.5993
G01 X44.7287 Y35.6095
G01 X44.7298 Y35.6197
G01 X44.7302 Y35.6300
G01 X44.7302 Y37.4335
G01 X44.7298 Y37.4403
G01 X44.7287 Y37.4506
G01 X44.7268 Y37.4607
G01 X44.7242 Y37.4707
G01 X44.7208 Y37.4805
G01 X44.7168 Y37.4900
G01 X44.7120 Y37.4991
G01 X44.7085 Y37.5050
G01 X44.7026 Y37.5135
G01 X44.6962 Y37.5216
G01 X44.6916 Y37.5267
G01 X44.6842 Y37.5339
G01 X44.6790 Y37.5384
G01 X44.6708 Y37.5447
G01 X44.6621 Y37.5503
G01 X44.6531 Y37.5553
G01 X44.6437 Y37.5596
G01 X44.6373 Y37.5620
G01 X44.6307 Y37.5642
G01 X44.6207 Y37.5668
G01 X44.6072 Y37.5692
G01 X44.6003 Y37.5698
G01 X44.5900 Y37.5702
G01 X42.7831 Y37.5701
G01 X42.7729 Y37.5692
G01 X42.7627 Y37.5675
G01 X42.7526 Y37.5651
G01 X42.7428 Y37.5620
G01 X42.7332 Y37.5582
G01 X42.7239 Y37.5537
G01 X42.7121 Y37.5466
G01 X42.7038 Y37.5406
G01 X42.6959 Y37.5339
G01 X42.6885 Y37.5267
G01 X42.6795 Y37.5163
G01 X42.6735 Y37.5079
G01 X42.6680 Y37.4991
G01 X42.6633 Y37.4900
G01 X42.6580 Y37.4773
G01 X42.6549 Y37.4674
G01 X42.6525 Y37.4574
G01 X42.6509 Y37.4472
G01 X42.6502 Y37.4403
G01 X42.6498 Y37.4300
G01 X42.6498 Y35.6300
G01 X42.6502 Y35.6197
G01 X42.6519 Y35.6061
G01 X42.6540 Y35.5960
G01 X42.6569 Y35.5860
G01 X42.6605 Y35.5764
G01 X42.6648 Y35.5670
G01 X42.6680 Y35.5609
G01 X42.6735 Y35.5521
G01 X42.6795 Y35.5438
G01 X42.6839 Y35.5385
G01 X42.6909 Y35.5309
G01 X42.6985 Y35.5239
G01 X42.7065 Y35.5174
G01 X42.7150 Y35.5116
G01 X42.7239 Y35.5064
G01 X42.7332 Y35.5019
G01 X42.7396 Y35.4992
G01 X42.7493 Y35.4959
G01 X42.7593 Y35.4932
G01 X42.7695 Y35.4913
G01 X42.7797 Y35.4902
G01 X42.7900 Y35.4898
G01 X43.2997 Y35.4898
G01 X43.2997 Y32.8817
G01 X40.9883 Y30.5703
G01 X40.7344 Y30.5703
G01 X40.7092 Y30.6232
G01 X40.6636 Y30.6995
G01 X40.6578 Y30.7080
G01 X40.6110 Y30.7711
G01 X40.6046 Y30.7791
G01 X40.5448 Y30.8448
G01 X40.4817 Y30.9023
G01 X40.4711 Y30.9110
G01 X40.4080 Y30.9578
G01 X40.3995 Y30.9636
G01 X40.3232 Y31.0092
G01 X40.2461 Y31.0459
G01 X40.2334 Y31.0511
G01 X40.1530 Y31.0797
G01 X40.0634 Y31.1022
G01 X39.9790 Y31.1149
G01 X39.9653 Y31.1162
G01 X39.8869 Y31.1201
G01 X39.8766 Y31.1202
G01 X39.7879 Y31.1157
G01 X39.7034 Y31.1033
G01 X39.6899 Y31.1007
G01 X39.6071 Y31.0797
G01 X39.5266 Y31.0511
G01 X39.5139 Y31.0459
G01 X39.4368 Y31.0092
G01 X39.3577 Y30.9618
G01 X39.2836 Y30.9068
G01 X39.2202 Y30.8496
G01 X39.2105 Y30.8399
G01 X39.1532 Y30.7765
G01 X39.1022 Y30.7080
G01 X39.0946 Y30.6966
G01 X39.0508 Y30.6232
G01 X39.0127 Y30.5430
G01 X39.0089 Y30.5334
G01 X38.9803 Y30.4530
G01 X38.9579 Y30.3634
G01 X38.9444 Y30.2722
G01 X38.9398 Y30.1800
G01 X38.9444 Y30.0879
G01 X38.9579 Y29.9966
G01 X38.9803 Y29.9071
G01 X39.0114 Y29.8202
G01 X39.0508 Y29.7368
G01 X39.0983 Y29.6577
G01 X39.1532 Y29.5836
G01 X39.2152 Y29.5152
G01 X39.2836 Y29.4532
G01 X39.3577 Y29.3983
G01 X39.4368 Y29.3508
G01 X39.5171 Y29.3127
G01 X39.5266 Y29.3089
G01 X39.6071 Y29.2803
G01 X39.6966 Y29.2579
G01 X39.7879 Y29.2444
G01 X39.8800 Y29.2398
G01 X39.9722 Y29.2444
G01 X40.0634 Y29.2579
G01 X40.1530 Y29.2803
G01 X40.2366 Y29.3101
G01 X40.2461 Y29.3142
G01 X40.3232 Y29.3508
G01 X40.4024 Y29.3983
G01 X40.4765 Y29.4532
G01 X40.5424 Y29.5128
G01 X40.5496 Y29.5202
G01 X40.6068 Y29.5836
G01 X40.6598 Y29.6548
G01 X40.6655 Y29.6635
G01 X40.7075 Y29.7338
G01 X40.7123 Y29.7430
G01 X40.7344 Y29.7897
G00 Z2.0000
G00 X30.1902 Y48.4505
G01 F60.00
G01 Z-0.1500
G01 F120.00
G01 X30.1902 Y48.2169
G01 X30.3441 Y48.2697
G01 X30.5408 Y48.3762
G01 X30.7174 Y48.5135
G01 X30.8689 Y48.6781
G01 X30.9912 Y48.8654
G01 X31.0811 Y49.0702
G01 X31.1360 Y49.2871
G01 X31.1498 Y49.4542
G01 X31.1498 Y50.1098
G01 X30.9302 Y50.1098
G01 X30.9302 Y49.5100
G01 X30.9253 Y49.4061
G01 X30.9244 Y49.3958
G01 X30.9085 Y49.2895
G01 X30.8816 Y49.1819
G01 X30.8442 Y49.0775
G01 X30.7999 Y48.9834
G01 X30.7951 Y48.9742
G01 X30.7398 Y48.8821
G01 X30.6737 Y48.7930
G01 X30.5992 Y48.7109
G01 X30.5196 Y48.6386
G01 X30.5116 Y48.6321
G01 X30.4279 Y48.5703
G01 X30.3358 Y48.5149
G01 X30.3267 Y48.5102
G01 X30.2357 Y48.4672
G01 X30.2261 Y48.4634
G01 X30.1902 Y48.4505
G00 Z2.0000
G00 X29.4098 Y48.4505
G01 F60.00
G01 Z-0.1500
G01 F120.00
G01 X29.3739 Y48.4634
G01 X29.3644 Y48.4672
G01 X29.2734 Y48.5102
G01 X29.2642 Y48.5149
G01 X29.1721 Y48.5703
G01 X29.0885 Y48.6321
G01 X29.0804 Y48.6386
G01 X29.0009 Y48.7109
G01 X28.9264 Y48.7930
G01 X28.8603 Y48.8821
G01 X28.8049 Y48.9742
G01 X28.8002 Y48.9834
G01 X28.7559 Y49.0775
G01 X28.7185 Y49.1819
G01 X28.6915 Y49.2895
G01 X28.6756 Y49.3958
G01 X28.6748 Y49.4061
G01 X28.6698 Y49.5100
G01 X28.6698 Y50.1098
G01 X28.4502 Y50.1098
G01 X28.4502 Y49.4542
G01 X28.4641 Y49.2871
G01 X28.5190 Y49.0702
G01 X28.6088 Y48.8654
G01 X28.7312 Y48.6781
G01 X28.8827 Y48.5135
G01 X29.0592 Y48.3761
G01 X29.2560 Y48.2697
G01 X29.4098 Y48.2169
G01 X29.4098 Y48.4505
G00 Z2.0000
G00 X28.6698 Y50.8902
G01 F60.00
G01 Z-0.1500
G01 F120.00
G01 X28.6698 Y51.4900
G01 X28.6750 Y51.5974
G01 X28.6761 Y51.6076
G01 X28.6904 Y51.7037
G01 X28.6930 Y51.7172
G01 X28.7185 Y51.8181
G01 X28.7546 Y51.9193
G01 X28.7586 Y51.9288
G01 X28.8033 Y52.0228
G01 X28.8603 Y52.1179
G01 X28.9264 Y52.2070
G01 X28.9961 Y52.2842
G01 X29.0033 Y52.2916
G01 X29.0830 Y52.3637
G01 X29.1665 Y52.4258
G01 X29.1750 Y52.4316
G01 X29.2613 Y52.4834
G01 X29.2703 Y52.4884
G01 X29.3644 Y52.5328
G01 X29.3739 Y52.5367
G01 X29.4098 Y52.5495
G01 X29.4098 Y52.7832
G01 X29.2560 Y52.7304
G01 X29.0592 Y52.6239
G01 X28.8827 Y52.4865
G01 X28.7312 Y52.3219
G01 X28.6088 Y52.1347
G01 X28.5190 Y51.9298
G01 X28.4641 Y51.7130
G01 X28.4502 Y51.5459
G01 X28.4502 Y50.8902
G01 X28.6698 Y50.8902
G00 Z2.0000
G00 X30.1902 Y52.5495
G01 F60.00
G01 Z-0.1500
G01 F120.00
G01 X30.2261 Y52.5367
G01 X30.2357 Y52.5328
G01 X30.3267 Y52.4899
G01 X30.3358 Y52.4851
G01 X30.4279 Y52.4298
G01 X30.5116 Y52.3679
G01 X30.5196 Y52.3615
G01 X30.5992 Y52.2892
G01 X30.6737 Y52.2070
G01 X30.7398 Y52.1179
G01 X30.7951 Y52.0258
G01 X30.7999 Y52.0167
G01 X30.8442 Y51.9225
G01 X30.8816 Y51.8181
G01 X30.9085 Y51.7105
G01 X30.9244 Y51.6042
G01 X30.9253 Y51.5939
G01 X30.9302 Y51.4900
G01 X30.9302 Y50.8902
G01 X31.1498 Y50.8902
G01 X31.1498 Y51.5459
G01 X31.1360 Y51.7130
G01 X31.0811 Y51.9298
G01 X30.9912 Y52.1347
G01 X30.8689 Y52.3219
G01 X30.7173 Y52.4865
G01 X30.5408 Y52.6239
G01 X30.3441 Y52.7304
G01 X30.1902 Y52.7832
G01 X30.1902 Y52.5495
G00 Z2.0000
G00 X17.9155 Y50.3570
G01 F60.00
G01 Z-0.1500
G01 F120.00
G01 X17.8784 Y50.2575
G01 X17.8747 Y50.2229
G01 X17.8747 Y48.2372
G01 X17.8784 Y48.2025
G01 X17.9155 Y48.1031
G01 X17.9776 Y48.0201
G01 X18.0606 Y47.9580
G01 X18.0798 Y47.9506
G01 X18.1045 Y47.9391
G01 X18.1164 Y47.9324
G01 X18.1277 Y47.9246
G01 X18.1355 Y47.9180
G01 X18.1405 Y47.9133
G01 X18.1914 Y47.8606
G01 X18.1984 Y47.8528
G01 X18.2047 Y47.8445
G01 X18.2122 Y47.8328
G01 X18.2185 Y47.8203
G01 X18.2235 Y47.8074
G01 X18.2264 Y47.7973
G01 X18.2422 Y47.7186
G01 X18.2435 Y47.7082
G01 X18.2442 Y47.6943
G01 X18.2438 Y47.6839
G01 X18.2426 Y47.6735
G01 X18.2406 Y47.6632
G01 X18.2379 Y47.6532
G01 X18.2344 Y47.6433
G01 X18.2088 Y47.5783
G01 X18.2033 Y47.5662
G01 X18.1984 Y47.5574
G01 X18.1910 Y47.5463
G01 X18.0851 Y47.4102
G01 X17.9816 Y47.2190
G01 X17.9340 Y47.0802
G01 X18.1678 Y47.0802
G01 X18.1755 Y47.1018
G01 X18.1794 Y47.1113
G01 X18.2208 Y47.1990
G01 X18.2255 Y47.2081
G01 X18.2790 Y47.2971
G01 X18.3386 Y47.3778
G01 X18.3451 Y47.3859
G01 X18.4149 Y47.4627
G01 X18.4943 Y47.5347
G01 X18.5805 Y47.5986
G01 X18.6694 Y47.6520
G01 X18.6786 Y47.6568
G01 X18.7694 Y47.6995
G01 X18.8638 Y47.7335
G01 X18.8770 Y47.7375
G01 X18.9743 Y47.7617
G01 X19.0736 Y47.7766
G01 X19.0873 Y47.7780
G01 X19.1875 Y47.7827
G01 X19.2860 Y47.7827
G01 X19.3862 Y47.7778
G01 X19.3965 Y47.7766
G01 X19.4957 Y47.7617
G01 X19.5997 Y47.7357
G01 X19.6943 Y47.7020
G01 X19.7070 Y47.6968
G01 X19.7976 Y47.6537
G01 X19.8896 Y47.5986
G01 X19.9757 Y47.5347
G01 X20.0552 Y47.4627
G01 X20.1250 Y47.3859
G01 X20.1314 Y47.3778
G01 X20.1911 Y47.2971
G01 X20.2445 Y47.2081
G01 X20.2493 Y47.1990
G01 X20.2907 Y47.1113
G01 X20.2945 Y47.1018
G01 X20.3022 Y47.0802
G01 X20.5360 Y47.0802
G01 X20.4884 Y47.2190
G01 X20.3849 Y47.4102
G01 X20.2788 Y47.5467
G01 X20.2616 Y47.5725
G01 X20.2550 Y47.5845
G01 X20.2495 Y47.5970
G01 X20.2453 Y47.6101
G01 X20.2289 Y47.6850
G01 X20.2270 Y47.6953
G01 X20.2260 Y47.7057
G01 X20.2257 Y47.7161
G01 X20.2259 Y47.7231
G01 X20.2269 Y47.7334
G01 X20.2287 Y47.7437
G01 X20.2312 Y47.7539
G01 X20.2345 Y47.7638
G01 X20.2615 Y47.8357
G01 X20.2660 Y47.8451
G01 X20.2694 Y47.8512
G01 X20.2750 Y47.8600
G01 X20.2791 Y47.8657
G01 X20.2881 Y47.8763
G01 X20.2956 Y47.8836
G01 X20.3008 Y47.8882
G01 X20.3649 Y47.9363
G01 X20.3733 Y47.9418
G01 X20.3850 Y47.9482
G01 X20.3941 Y47.9523
G01 X20.4095 Y47.9580
G01 X20.4924 Y48.0201
G01 X20.5545 Y48.1031
G01 X20.5916 Y48.2025
G01 X20.5953 Y48.2372
G01 X20.5955 Y49.3003
G01 X20.5999 Y49.3410
G01 X20.6027 Y49.3544
G01 X20.6068 Y49.3676
G01 X20.6107 Y49.3771
G01 X20.6153 Y49.3863
G01 X20.6488 Y49.4477
G01 X20.6539 Y49.4563
G01 X20.6616 Y49.4671
G01 X20.6727 Y49.4796
G01 X24.8154 Y53.6223
G01 X24.8266 Y53.6324
G01 X24.8527 Y53.6532
G01 X24.8642 Y53.6607
G01 X24.8733 Y53.6656
G01 X24.8795 Y53.6685
G01 X24.8859 Y53.6711
G01 X24.8957 Y53.6744
G01 X24.9692 Y53.6958
G01 X24.9856 Y53.6987
G01 X25.0023 Y53.6997
G01 X35.6278 Y53.6997
G01 X35.6428 Y53.6989
G01 X35.6760 Y53.6952
G01 X35.6894 Y53.6924
G01 X35.7026 Y53.6883
G01 X35.7121 Y53.6844
G01 X35.7213 Y53.6797
G01 X35.7856 Y53.6446
G01 X35.7995 Y53.6354
G01 X35.8073 Y53.6292
G01 X35.8146 Y53.6223
G01 X38.3723 Y51.0646
G01 X38.3800 Y51.0563
G01 X38.3990 Y51.0328
G01 X38.4052 Y51.0245
G01 X38.4107 Y51.0158
G01 X38.4171 Y51.0036
G01 X38.4223 Y50.9909
G01 X38.4440 Y50.9173
G01 X38.4478 Y50.9010
G01 X38.4491 Y50.8911
G01 X38.4497 Y50.8811
G01 X38.4497 Y48.4797
G01 X38.4534 Y48.4450
G01 X38.4905 Y48.3456
G01 X38.5526 Y48.2626
G01 X38.6356 Y48.2005
G01 X38.7350 Y48.1634
G01 X38.7697 Y48.1597
G01 X38.9255 Y48.1597
G01 X38.9389 Y48.1591
G01 X38.9521 Y48.1572
G01 X39.0103 Y48.1445
G01 X39.0204 Y48.1417
G01 X39.0270 Y48.1393
G01 X39.0398 Y48.1337
G01 X39.0460 Y48.1304
G01 X39.0549 Y48.1249
G01 X39.0607 Y48.1209
G01 X39.0688 Y48.1143
G01 X39.1268 Y48.0638
G01 X39.1364 Y48.0537
G01 X39.1449 Y48.0427
G01 X39.1505 Y48.0339
G01 X39.1555 Y48.0247
G01 X39.1584 Y48.0184
G01 X39.1622 Y48.0087
G01 X39.1840 Y47.9350
G01 X39.1865 Y47.9253
G01 X39.1891 Y47.9089
G01 X39.1897 Y47.8955
G01 X39.1897 Y37.8909
G01 X39.1877 Y37.8182
G01 X39.2037 Y37.7499
G01 X39.2190 Y37.6771
G01 X39.2515 Y37.6122
G01 X39.2805 Y37.5500
G01 X39.3255 Y37.4961
G01 X39.3433 Y37.4736
G01 X39.3533 Y37.4629
G01 X39.3784 Y37.4331
G01 X39.3924 Y37.4222
G01 X39.4135 Y37.4034
G01 X39.8346 Y36.9823
G01 X39.8440 Y36.9714
G01 X39.8502 Y36.9626
G01 X39.8856 Y36.9053
G01 X39.8916 Y36.8929
G01 X39.8954 Y36.8832
G01 X39.8984 Y36.8733
G01 X39.9013 Y36.8598
G01 X39.9025 Y36.8496
G01 X39.9030 Y36.8427
G01 X39.9056 Y36.7729
G01 X39.9052 Y36.7562
G01 X39.9040 Y36.7463
G01 X39.9027 Y36.7390
G01 X39.8854 Y36.5300
G01 X39.9027 Y36.3219
G01 X39.9539 Y36.1194
G01 X40.0378 Y35.9281
G01 X40.1521 Y35.7533
G01 X40.2935 Y35.5996
G01 X40.4583 Y35.4713
G01 X40.6420 Y35.3719
G01 X40.8396 Y35.3041
G01 X41.0456 Y35.2697
G01 X41.2545 Y35.2697
G01 X41.4605 Y35.3041
G01 X41.6580 Y35.3719
G01 X41.8417 Y35.4713
G01 X42.0074 Y35.6006
G01 X42.0139 Y35.6071
G01 X42.0213 Y35.6136
G01 X42.0556 Y35.6405
G01 X42.0671 Y35.6486
G01 X42.0761 Y35.6538
G01 X42.0856 Y35.6584
G01 X42.0921 Y35.6611
G01 X42.1054 Y35.6654
G01 X42.1838 Y35.6826
G01 X42.1942 Y35.6842
G01 X42.2081 Y35.6851
G01 X42.2220 Y35.6846
G01 X42.2323 Y35.6833
G01 X42.2460 Y35.6805
G01 X42.2560 Y35.6774
G01 X42.3312 Y35.6492
G01 X42.3437 Y35.6431
G01 X42.3555 Y35.6358
G01 X42.3665 Y35.6273
G01 X42.3742 Y35.6202
G01 X42.3814 Y35.6126
G01 X42.3879 Y35.6045
G01 X42.4298 Y35.5485
G01 X42.4355 Y35.5403
G01 X42.4422 Y35.5288
G01 X42.4477 Y35.5166
G01 X42.4705 Y35.4556
G01 X42.5326 Y35.3726
G01 X42.6156 Y35.3105
G01 X42.7150 Y35.2734
G01 X42.7497 Y35.2697
G01 X42.8189 Y35.2697
G01 X42.8289 Y35.2691
G01 X42.8421 Y35.2672
G01 X42.9003 Y35.2545
G01 X42.9137 Y35.2505
G01 X42.9235 Y35.2467
G01 X42.9329 Y35.2421
G01 X42.9420 Y35.2368
G01 X42.9534 Y35.2287
G01 X43.0168 Y35.1738
G01 X43.0241 Y35.1663
G01 X43.0308 Y35.1583
G01 X43.0349 Y35.1527
G01 X43.0405 Y35.1439
G01 X43.0470 Y35.1316
G01 X43.0510 Y35.1220
G01 X43.0533 Y35.1154
G01 X43.0749 Y35.0418
G01 X43.0772 Y35.0321
G01 X43.0787 Y35.0222
G01 X43.0797 Y35.0055
G01 X43.0797 Y33.0785
G01 X43.0789 Y33.0673
G01 X43.0761 Y33.0409
G01 X43.0746 Y33.0307
G01 X43.0715 Y33.0173
G01 X43.0670 Y33.0043
G01 X43.0629 Y32.9948
G01 X43.0597 Y32.9887
G01 X43.0246 Y32.9245
G01 X43.0193 Y32.9160
G01 X43.0113 Y32.9053
G01 X43.0023 Y32.8954
G01 X41.0908 Y30.9838
G01 X41.0809 Y30.9749
G01 X41.0702 Y30.9669
G01 X41.0201 Y30.9347
G01 X41.0078 Y30.9280
G01 X40.9981 Y30.9238
G01 X40.9882 Y30.9204
G01 X40.9780 Y30.9177
G01 X40.9677 Y30.9158
G01 X40.9573 Y30.9146
G01 X40.8806 Y30.9093
G01 X40.8737 Y30.9094
G01 X40.8632 Y30.9100
G01 X40.8529 Y30.9115
G01 X40.8461 Y30.9129
G01 X40.8327 Y30.9167
G01 X40.8229 Y30.9204
G01 X40.8166 Y30.9233
G01 X40.7462 Y30.9616
G01 X40.7322 Y30.9707
G01 X40.7244 Y30.9770
G01 X40.7171 Y30.9838
G01 X40.6287 Y31.0723
G01 X40.4624 Y31.1887
G01 X40.2784 Y31.2745
G01 X40.0823 Y31.3271
G01 X39.8800 Y31.3448
G01 X39.6778 Y31.3271
G01 X39.4817 Y31.2745
G01 X39.2977 Y31.1887
G01 X39.1313 Y31.0723
G01 X38.9878 Y30.9287
G01 X38.8713 Y30.7624
G01 X38.7855 Y30.5784
G01 X38.7330 Y30.3823
G01 X38.7153 Y30.1800
G01 X38.7330 Y29.9778
G01 X38.7855 Y29.7817
G01 X38.8713 Y29.5977
G01 X38.9878 Y29.4313
G01 X39.1313 Y29.2878
G01 X39.2977 Y29.1713
G01 X39.4817 Y29.0855
G01 X39.6778 Y29.0330
G01 X39.8800 Y29.0153
G01 X40.0823 Y29.0330
G01 X40.2784 Y29.0855
G01 X40.4624 Y29.1713
G01 X40.6287 Y29.2878
G01 X40.7723 Y29.4313
G01 X40.7943 Y29.4625
G01 X40.8055 Y29.4753
G01 X40.8425 Y29.5109
G01 X40.8500 Y29.5176
G01 X40.8636 Y29.5276
G01 X40.8782 Y29.5359
G01 X40.8874 Y29.5400
G01 X40.8969 Y29.5434
G01 X40.9672 Y29.5640
G01 X40.9802 Y29.5672
G01 X40.9934 Y29.5691
G01 X41.0067 Y29.5697
G01 X41.1391 Y29.5697
G01 X41.2134 Y29.5678
G01 X41.2837 Y29.5844
G01 X41.3514 Y29.5984
G01 X41.4142 Y29.6298
G01 X41.4814 Y29.6614
G01 X41.5340 Y29.7055
G01 X41.5564 Y29.7233
G01 X41.5672 Y29.7333
G01 X41.5970 Y29.7584
G01 X41.6079 Y29.7724
G01 X41.6266 Y29.7935
G01 X42.8721 Y31.0387
G01 X42.8822 Y31.0471
G01 X42.8930 Y31.0545
G01 X42.9505 Y31.0880
G01 X42.9597 Y31.0929
G01 X42.9660 Y31.0958
G01 X42.9724 Y31.0984
G01 X42.9823 Y31.1016
G01 X42.9923 Y31.1041
G01 X42.9992 Y31.1054
G01 X43.0060 Y31.1063
G01 X43.0164 Y31.1070
G01 X43.0967 Y31.1059
G01 X43.1105 Y31.1046
G01 X43.1208 Y31.1028
G01 X43.1276 Y31.1011
G01 X43.1408 Y31.0968
G01 X43.1535 Y31.0912
G01 X43.1597 Y31.0880
G01 X43.1686 Y31.0825
G01 X43.2268 Y31.0438
G01 X43.2349 Y31.0380
G01 X43.2426 Y31.0316
G01 X43.2521 Y31.0222
G01 X43.2684 Y31.0031
G01 X43.2824 Y30.9922
G01 X43.3035 Y30.9734
G01 X43.7324 Y30.5445
G01 X43.7396 Y30.5368
G01 X43.7441 Y30.5313
G01 X43.7722 Y30.4929
G01 X43.7775 Y30.4843
G01 X43.7822 Y30.4752
G01 X43.7862 Y30.4658
G01 X43.7905 Y30.4529
G01 X43.7928 Y30.4430
G01 X43.8066 Y30.3745
G01 X43.8089 Y30.3580
G01 X43.8093 Y30.3447
G01 X43.8088 Y30.3347
G01 X43.7953 Y30.1800
G01 X43.8130 Y29.9778
G01 X43.8655 Y29.7817
G01 X43.9513 Y29.5977
G01 X44.0678 Y29.4313
G01 X44.2113 Y29.2878
G01 X44.3777 Y29.1713
G01 X44.5617 Y29.0855
G01 X44.7578 Y29.0330
G01 X44.9600 Y29.0153
G01 X45.1623 Y29.0330
G01 X45.3584 Y29.0855
G01 X45.5424 Y29.1713
G01 X45.7087 Y29.2878
G01 X45.8523 Y29.4313
G01 X45.9687 Y29.5977
G01 X46.0545 Y29.7817
G01 X46.1071 Y29.9778
G01 X46.1248 Y30.1800
G01 X46.1071 Y30.3823
G01 X46.0545 Y30.5784
G01 X45.9687 Y30.7624
G01 X45.8523 Y30.9287
G01 X45.7087 Y31.0723
G01 X45.5424 Y31.1887
G01 X45.3584 Y31.2745
G01 X45.1623 Y31.3271
G01 X44.9600 Y31.3448
G01 X44.7984 Y31.3308
G01 X44.7843 Y31.3310
G01 X44.7437 Y31.3336
G01 X44.7336 Y31.3349
G01 X44.7236 Y31.3369
G01 X44.7138 Y31.3396
G01 X44.6979 Y31.3457
G01 X44.6888 Y31.3502
G01 X44.6217 Y31.3870
G01 X44.6080 Y31.3965
G01 X44.5955 Y31.4076
G01 X44.3777 Y31.6254
G01 X44.3701 Y31.6337
G01 X44.3489 Y31.6600
G01 X44.3429 Y31.6684
G01 X44.3376 Y31.6772
G01 X44.3329 Y31.6864
G01 X44.3278 Y31.6992
G01 X44.3051 Y31.7760
G01 X44.3029 Y31.7857
G01 X44.3013 Y31.7956
G01 X44.3003 Y31.8123
G01 X44.3003 Y32.6846
G01 X44.3009 Y32.6991
G01 X44.3042 Y32.7379
G01 X44.3020 Y32.7556
G01 X44.3003 Y32.7837
G01 X44.3003 Y35.0055
G01 X44.3010 Y35.0189
G01 X44.3035 Y35.0353
G01 X44.3164 Y35.0936
G01 X44.3207 Y35.1070
G01 X44.3248 Y35.1166
G01 X44.3280 Y35.1229
G01 X44.3333 Y35.1320
G01 X44.3371 Y35.1378
G01 X44.3458 Y35.1489
G01 X44.3938 Y35.2043
G01 X44.4012 Y35.2117
G01 X44.4090 Y35.2186
G01 X44.4174 Y35.2249
G01 X44.4292 Y35.2323
G01 X44.4385 Y35.2370
G01 X44.4481 Y35.2410
G01 X44.4580 Y35.2444
G01 X44.5282 Y35.2649
G01 X44.5413 Y35.2678
G01 X44.5545 Y35.2694
G01 X44.5645 Y35.2697
G01 X44.6304 Y35.2697
G01 X44.6650 Y35.2734
G01 X44.7645 Y35.3105
G01 X44.8474 Y35.3726
G01 X44.9095 Y35.4556
G01 X44.9466 Y35.5550
G01 X44.9503 Y35.5897
G01 X44.9503 Y37.4704
G01 X44.9466 Y37.5050
G01 X44.9095 Y37.6045
G01 X44.8474 Y37.6874
G01 X44.7645 Y37.7495
G01 X44.6650 Y37.7866
G01 X44.6304 Y37.7903
G01 X42.7497 Y37.7903
G01 X42.7150 Y37.7866
G01 X42.6156 Y37.7495
G01 X42.5326 Y37.6874
G01 X42.4705 Y37.6045
G01 X42.4489 Y37.5465
G01 X42.4438 Y37.5345
G01 X42.4392 Y37.5258
G01 X42.4191 Y37.4908
G01 X42.4155 Y37.4848
G01 X42.4095 Y37.4762
G01 X42.4052 Y37.4707
G01 X42.3982 Y37.4629
G01 X42.3932 Y37.4580
G01 X42.3852 Y37.4511
G01 X42.3768 Y37.4449
G01 X42.3192 Y37.4054
G01 X42.3104 Y37.3998
G01 X42.3043 Y37.3964
G01 X42.2916 Y37.3907
G01 X42.2784 Y37.3862
G01 X42.2717 Y37.3844
G01 X42.2614 Y37.3824
G01 X42.2545 Y37.3815
G01 X42.2441 Y37.3808
G01 X42.1743 Y37.3787
G01 X42.1603 Y37.3790
G01 X42.1500 Y37.3801
G01 X42.1397 Y37.3820
G01 X42.1263 Y37.3857
G01 X42.1165 Y37.3893
G01 X42.1070 Y37.3937
G01 X42.0978 Y37.3987
G01 X42.0323 Y37.4383
G01 X42.0190 Y37.4483
G01 X42.0116 Y37.4551
G01 X42.0065 Y37.4604
G01 X41.8417 Y37.5887
G01 X41.6580 Y37.6881
G01 X41.4605 Y37.7559
G01 X41.2545 Y37.7903
G01 X41.0456 Y37.7903
G01 X40.9288 Y37.7708
G01 X40.9189 Y37.7696
G01 X40.9090 Y37.7690
G01 X40.8556 Y37.7701
G01 X40.8416 Y37.7712
G01 X40.8278 Y37.7736
G01 X40.8176 Y37.7763
G01 X40.8077 Y37.7798
G01 X40.7980 Y37.7840
G01 X40.7276 Y37.8223
G01 X40.7163 Y37.8296
G01 X40.7059 Y37.8378
G01 X40.6985 Y37.8446
G01 X40.4825 Y38.0609
G01 X40.4569 Y38.0927
G01 X40.4493 Y38.1042
G01 X40.4429 Y38.1164
G01 X40.4390 Y38.1259
G01 X40.4357 Y38.1357
G01 X40.4160 Y38.2028
G01 X40.4135 Y38.2125
G01 X40.4110 Y38.2289
G01 X40.4103 Y38.2423
G01 X40.4105 Y47.9022
G01 X40.4113 Y47.9122
G01 X40.4129 Y47.9221
G01 X40.4255 Y47.9803
G01 X40.4274 Y47.9870
G01 X40.4307 Y47.9970
G01 X40.4334 Y48.0035
G01 X40.4380 Y48.0129
G01 X40.4452 Y48.0249
G01 X40.4492 Y48.0307
G01 X40.4558 Y48.0388
G01 X40.5038 Y48.0943
G01 X40.5137 Y48.1041
G01 X40.5245 Y48.1129
G01 X40.5332 Y48.1187
G01 X40.5422 Y48.1239
G01 X40.5516 Y48.1284
G01 X40.5614 Y48.1322
G01 X40.6350 Y48.1540
G01 X40.6480 Y48.1572
G01 X40.6612 Y48.1591
G01 X40.6712 Y48.1597
G01 X40.8304 Y48.1597
G01 X40.8650 Y48.1634
G01 X40.9645 Y48.2005
G01 X41.0474 Y48.2626
G01 X41.1095 Y48.3456
G01 X41.1466 Y48.4450
G01 X41.1503 Y48.4797
G01 X41.1503 Y52.5204
G01 X41.1466 Y52.5550
G01 X41.1095 Y52.6545
G01 X41.0474 Y52.7374
G01 X40.9645 Y52.7995
G01 X40.8650 Y52.8366
G01 X40.8304 Y52.8403
G01 X38.7697 Y52.8403
G01 X38.7350 Y52.8366
G01 X38.6241 Y52.7952
G01 X38.5979 Y52.7836
G01 X38.5852 Y52.7796
G01 X38.5722 Y52.7768
G01 X38.5589 Y52.7752
G01 X38.4892 Y52.7702
G01 X38.4753 Y52.7699
G01 X38.4614 Y52.7710
G01 X38.4477 Y52.7734
G01 X38.4343 Y52.7772
G01 X38.4214 Y52.7823
G01 X38.4120 Y52.7870
G01 X38.3449 Y52.8238
G01 X38.3312 Y52.8333
G01 X38.3188 Y52.8444
G01 X36.4293 Y54.7339
G01 X36.3793 Y54.7867
G01 X36.3163 Y54.8259
G01 X36.2589 Y54.8636
G01 X36.1924 Y54.8859
G01 X36.1224 Y54.9111
G01 X36.0541 Y54.9171
G01 X36.0256 Y54.9203
G01 X36.0109 Y54.9209
G01 X35.9722 Y54.9242
G01 X35.9545 Y54.9220
G01 X35.9263 Y54.9203
G01 X24.6509 Y54.9203
G01 X24.5782 Y54.9224
G01 X24.5059 Y54.9055
G01 X24.4387 Y54.8916
G01 X24.3722 Y54.8585
G01 X24.3100 Y54.8295
G01 X24.2561 Y54.7846
G01 X24.2336 Y54.7667
G01 X24.2229 Y54.7567
G01 X24.1931 Y54.7317
G01 X24.1822 Y54.7176
G01 X24.1634 Y54.6965
G01 X20.0871 Y50.6202
G01 X20.0759 Y50.6102
G01 X20.0553 Y50.5935
G01 X20.0470 Y50.5874
G01 X20.0383 Y50.5818
G01 X20.0292 Y50.5769
G01 X20.0198 Y50.5727
G01 X20.0101 Y50.5692
G01 X19.9333 Y50.5468
G01 X19.9169 Y50.5438
G01 X19.9036 Y50.5429
G01 X18.1947 Y50.5428
G01 X18.1600 Y50.5391
G01 X18.0606 Y50.5020
G01 X17.9776 Y50.4399
G01 X17.9155 Y50.3570
G00 Z2.0000
G00 X14.8082 Y39.9502
G01 F60.00
G01 Z-0.1500
G01 F120.00
G01 X14.7595 Y39.9676
G01 X14.7496 Y39.9707
G01 X14.6702 Y39.9907
G01 X14.6601 Y39.9928
G01 X14.5722 Y40.0057
G01 X14.4869 Y40.0101
G01 X14.4766 Y40.0102
G01 X14.3879 Y40.0057
G01 X14.2966 Y39.9922
G01 X14.2071 Y39.9697
G01 X14.1266 Y39.9411
G01 X14.1171 Y39.9373
G01 X14.0368 Y39.8992
G01 X13.9577 Y39.8518
G01 X13.8836 Y39.7968
G01 X13.8152 Y39.7348
G01 X13.7532 Y39.6665
G01 X13.6983 Y39.5924
G01 X13.6508 Y39.5132
G01 X13.6142 Y39.4361
G01 X13.6101 Y39.4266
G01 X13.5803 Y39.3430
G01 X13.5579 Y39.2534
G01 X13.5444 Y39.1622
G01 X13.5398 Y39.0700
G01 X13.5444 Y38.9779
G01 X13.5579 Y38.8866
G01 X13.5803 Y38.7971
G01 X13.6114 Y38.7102
G01 X13.6508 Y38.6268
G01 X13.6983 Y38.5477
G01 X13.7532 Y38.4736
G01 X13.8152 Y38.4052
G01 X13.8836 Y38.3432
G01 X13.9577 Y38.2883
G01 X14.0368 Y38.2408
G01 X14.1139 Y38.2042
G01 X14.1234 Y38.2001
G01 X14.2071 Y38.1703
G01 X14.2899 Y38.1494
G01 X14.3034 Y38.1467
G01 X14.3879 Y38.1344
G01 X14.4800 Y38.1298
G01 X14.5653 Y38.1338
G01 X14.5790 Y38.1352
G01 X14.6634 Y38.1479
G01 X14.7463 Y38.1685
G01 X14.7595 Y38.1725
G01 X14.8398 Y38.2014
G01 X14.9232 Y38.2408
G01 X15.0024 Y38.2883
G01 X15.0711 Y38.3390
G01 X15.0817 Y38.3477
G01 X15.1448 Y38.4052
G01 X15.2068 Y38.4736
G01 X15.2578 Y38.5421
G01 X15.2655 Y38.5535
G01 X15.3092 Y38.6268
G01 X15.3459 Y38.7039
G01 X15.3511 Y38.7166
G01 X15.3797 Y38.7971
G01 X15.4014 Y38.8832
G01 X15.4033 Y38.8934
G01 X15.4149 Y38.9710
G01 X15.4162 Y38.9847
G01 X15.4202 Y39.0700
G01 X15.4160 Y39.1588
G01 X15.4149 Y39.1690
G01 X15.4033 Y39.2467
G01 X15.4014 Y39.2568
G01 X15.3797 Y39.3430
G01 X15.3602 Y39.3982
G01 X18.8439 Y42.8819
G01 X18.8447 Y39.6794
G01 X18.8311 Y39.6638
G01 X18.7783 Y39.5924
G01 X18.7342 Y39.5192
G01 X18.7277 Y39.5071
G01 X18.6914 Y39.4298
G01 X18.6625 Y39.3495
G01 X18.6585 Y39.3363
G01 X18.6379 Y39.2534
G01 X18.6244 Y39.1622
G01 X18.6200 Y39.0769
G01 X18.6200 Y39.0631
G01 X18.6244 Y38.9779
G01 X18.6367 Y38.8934
G01 X18.6394 Y38.8799
G01 X18.6603 Y38.7971
G01 X18.6914 Y38.7102
G01 X18.7277 Y38.6330
G01 X18.7342 Y38.6208
G01 X18.7783 Y38.5477
G01 X18.8290 Y38.4790
G01 X18.8377 Y38.4684
G01 X18.8952 Y38.4052
G01 X18.9584 Y38.3477
G01 X18.9690 Y38.3390
G01 X19.0377 Y38.2883
G01 X19.1108 Y38.2442
G01 X19.1230 Y38.2377
G01 X19.2002 Y38.2014
G01 X19.2806 Y38.1725
G01 X19.2937 Y38.1685
G01 X19.3766 Y38.1479
G01 X19.4610 Y38.1352
G01 X19.4747 Y38.1338
G01 X19.5600 Y38.1298
G01 X19.6453 Y38.1338
G01 X19.6590 Y38.1352
G01 X19.7434 Y38.1479
G01 X19.8263 Y38.1685
G01 X19.8395 Y38.1725
G01 X19.9198 Y38.2014
G01 X19.9971 Y38.2377
G01 X20.0092 Y38.2442
G01 X20.0824 Y38.2883
G01 X20.1511 Y38.3390
G01 X20.1617 Y38.3477
G01 X20.2224 Y38.4028
G01 X20.2296 Y38.4102
G01 X20.2823 Y38.4684
G01 X20.2910 Y38.4790
G01 X20.3418 Y38.5477
G01 X20.3892 Y38.6268
G01 X20.4287 Y38.7102
G01 X20.4576 Y38.7906
G01 X20.4616 Y38.8037
G01 X20.4822 Y38.8866
G01 X20.4957 Y38.9779
G01 X20.5001 Y39.0631
G01 X20.5001 Y39.0769
G01 X20.4957 Y39.1622
G01 X20.4833 Y39.2467
G01 X20.4807 Y39.2602
G01 X20.4597 Y39.3430
G01 X20.4299 Y39.4266
G01 X20.4259 Y39.4361
G01 X20.3923 Y39.5071
G01 X20.3858 Y39.5192
G01 X20.3418 Y39.5924
G01 X20.2868 Y39.6665
G01 X20.2296 Y39.7299
G01 X20.2199 Y39.7396
G01 X20.1565 Y39.7968
G01 X20.0852 Y39.8498
G01 X20.0766 Y39.8555
G01 X20.0092 Y39.8958
G01 X19.9971 Y39.9023
G01 X19.9198 Y39.9387
G01 X19.8362 Y39.9687
G01 X19.8263 Y39.9716
G01 X19.7502 Y39.9907
G01 X19.7401 Y39.9928
G01 X19.6556 Y40.0053
G01 X19.6488 Y40.0060
G01 X19.6253 Y40.0072
G01 X19.6253 Y43.1134
G01 X19.7007 Y43.1405
G01 X19.7915 Y43.1833
G01 X19.8036 Y43.1897
G01 X19.8896 Y43.2415
G01 X19.9757 Y43.3054
G01 X20.0502 Y43.3726
G01 X20.0599 Y43.3824
G01 X20.1272 Y43.4568
G01 X20.1871 Y43.5373
G01 X20.1948 Y43.5488
G01 X20.2462 Y43.6349
G01 X20.2920 Y43.7319
G01 X20.3282 Y43.8328
G01 X20.3527 Y43.9301
G01 X20.3554 Y43.9436
G01 X20.3700 Y44.0429
G01 X20.3752 Y44.1500
G01 X20.3700 Y44.2571
G01 X20.3542 Y44.3632
G01 X20.3300 Y44.4606
G01 X20.3260 Y44.4738
G01 X20.2945 Y44.5618
G01 X20.2893 Y44.5745
G01 X20.2462 Y44.6651
G01 X20.1948 Y44.7513
G01 X20.1871 Y44.7627
G01 X20.1272 Y44.8432
G01 X20.0576 Y44.9202
G01 X20.0502 Y44.9274
G01 X19.9757 Y44.9947
G01 X19.8896 Y45.0586
G01 X19.7976 Y45.1137
G01 X19.7007 Y45.1595
G01 X19.5997 Y45.1957
G01 X19.4957 Y45.2217
G01 X19.3896 Y45.2375
G01 X19.2825 Y45.2427
G01 X19.1841 Y45.2427
G01 X19.0838 Y45.2378
G01 X19.0736 Y45.2366
G01 X18.9811 Y45.2229
G01 X18.9676 Y45.2202
G01 X18.8703 Y45.1957
G01 X18.7758 Y45.1620
G01 X18.7631 Y45.1568
G01 X18.6724 Y45.1137
G01 X18.5805 Y45.0586
G01 X18.4943 Y44.9947
G01 X18.4173 Y44.9251
G01 X18.4101 Y44.9177
G01 X18.3429 Y44.8432
G01 X18.2790 Y44.7571
G01 X18.2238 Y44.6651
G01 X18.1808 Y44.5745
G01 X18.1755 Y44.5618
G01 X18.1419 Y44.4672
G01 X18.1173 Y44.3699
G01 X18.1146 Y44.3564
G01 X18.1009 Y44.2640
G01 X18.0996 Y44.2503
G01 X18.0948 Y44.1500
G01 X18.1001 Y44.0429
G01 X18.1158 Y43.9368
G01 X18.1419 Y43.8328
G01 X18.1780 Y43.7319
G01 X18.2238 Y43.6349
G01 X18.2790 Y43.5430
G01 X18.3308 Y43.4728
G01 X14.8082 Y39.9502
G00 Z2.0000
G00 X15.2287 Y38.1778
G01 F60.00
G01 Z-0.1500
G01 F120.00
G01 X15.3723 Y38.3213
G01 X15.4887 Y38.4877
G01 X15.5745 Y38.6717
G01 X15.6271 Y38.8678
G01 X15.6448 Y39.0700
G01 X15.6308 Y39.2317
G01 X15.6310 Y39.2458
G01 X15.6336 Y39.2863
G01 X15.6349 Y39.2964
G01 X15.6369 Y39.3064
G01 X15.6396 Y39.3163
G01 X15.6430 Y39.3259
G01 X15.6471 Y39.3352
G01 X15.6853 Y39.4055
G01 X15.6925 Y39.4167
G01 X15.6986 Y39.4246
G01 X15.7076 Y39.4345
G01 X18.1737 Y41.9006
G01 X18.1863 Y41.9124
G01 X18.1972 Y41.9211
G01 X18.2088 Y41.9287
G01 X18.2211 Y41.9350
G01 X18.2846 Y41.9641
G01 X18.2943 Y41.9680
G01 X18.3042 Y41.9713
G01 X18.3144 Y41.9738
G01 X18.3247 Y41.9755
G01 X18.3350 Y41.9765
G01 X18.3455 Y41.9767
G01 X18.3594 Y41.9758
G01 X18.4320 Y41.9654
G01 X18.4389 Y41.9642
G01 X18.4490 Y41.9618
G01 X18.4590 Y41.9587
G01 X18.4655 Y41.9562
G01 X18.4719 Y41.9534
G01 X18.4811 Y41.9486
G01 X18.4871 Y41.9450
G01 X18.4957 Y41.9391
G01 X18.5038 Y41.9325
G01 X18.5567 Y41.8868
G01 X18.5618 Y41.8821
G01 X18.5691 Y41.8746
G01 X18.5779 Y41.8638
G01 X18.5818 Y41.8581
G01 X18.5873 Y41.8492
G01 X18.5920 Y41.8399
G01 X18.5948 Y41.8335
G01 X18.5994 Y41.8203
G01 X18.6199 Y41.7501
G01 X18.6228 Y41.7370
G01 X18.6244 Y41.7238
G01 X18.6247 Y41.7138
G01 X18.6247 Y39.8405
G01 X18.6240 Y39.8221
G01 X18.6219 Y39.8080
G01 X18.6184 Y39.7942
G01 X18.5949 Y39.7246
G01 X18.5901 Y39.7122
G01 X18.5841 Y39.7002
G01 X18.5788 Y39.6917
G01 X18.5513 Y39.6524
G01 X18.4655 Y39.4684
G01 X18.4130 Y39.2723
G01 X18.3953 Y39.0700
G01 X18.4130 Y38.8678
G01 X18.4655 Y38.6717
G01 X18.5513 Y38.4877
G01 X18.6678 Y38.3213
G01 X18.8113 Y38.1778
G01 X18.9777 Y38.0613
G01 X19.1617 Y37.9755
G01 X19.3578 Y37.9230
G01 X19.5600 Y37.9053
G01 X19.7623 Y37.9230
G01 X19.9584 Y37.9755
G01 X20.1424 Y38.0613
G01 X20.3087 Y38.1778
G01 X20.4523 Y38.3213
G01 X20.5687 Y38.4877
G01 X20.6545 Y38.6717
G01 X20.7071 Y38.8678
G01 X20.7248 Y39.0700
G01 X20.7071 Y39.2723
G01 X20.6545 Y39.4684
G01 X20.5687 Y39.6524
G01 X20.4523 Y39.8187
G01 X20.3087 Y39.9623
G01 X20.1424 Y40.0787
G01 X19.9979 Y40.1461
G01 X19.9883 Y40.1510
G01 X19.9821 Y40.1547
G01 X19.9733 Y40.1608
G01 X19.9676 Y40.1653
G01 X19.9104 Y40.2152
G01 X19.9030 Y40.2225
G01 X19.8984 Y40.2277
G01 X19.8941 Y40.2330
G01 X19.8881 Y40.2415
G01 X19.8810 Y40.2534
G01 X19.8780 Y40.2596
G01 X19.8740 Y40.2692
G01 X19.8707 Y40.2790
G01 X19.8493 Y40.3525
G01 X19.8463 Y40.3689
G01 X19.8453 Y40.3856
G01 X19.8453 Y42.8066
G01 X19.8463 Y42.8229
G01 X19.8484 Y42.8359
G01 X19.8609 Y42.8933
G01 X19.8651 Y42.9065
G01 X19.8691 Y42.9162
G01 X19.8722 Y42.9224
G01 X19.8793 Y42.9344
G01 X19.8875 Y42.9456
G01 X19.9373 Y43.0039
G01 X19.9491 Y43.0157
G01 X19.9622 Y43.0259
G01 X20.0916 Y43.1105
G01 X20.2517 Y43.2578
G01 X20.3853 Y43.4295
G01 X20.4889 Y43.6209
G01 X20.5595 Y43.8266
G01 X20.5953 Y44.0412
G01 X20.5953 Y44.2588
G01 X20.5595 Y44.4734
G01 X20.4889 Y44.6792
G01 X20.3853 Y44.8705
G01 X20.2517 Y45.0422
G01 X20.0916 Y45.1896
G01 X20.0743 Y45.2009
G01 X20.0667 Y45.2065
G01 X20.0340 Y45.2348
G01 X20.0242 Y45.2446
G01 X20.0154 Y45.2554
G01 X20.0077 Y45.2669
G01 X20.0028 Y45.2761
G01 X19.9718 Y45.3426
G01 X19.9665 Y45.3555
G01 X19.9626 Y45.3688
G01 X19.9611 Y45.3756
G01 X19.9596 Y45.3859
G01 X19.9587 Y45.3998
G01 X19.9589 Y45.4103
G01 X19.9595 Y45.4172
G01 X19.9694 Y45.4899
G01 X19.9705 Y45.4968
G01 X19.9728 Y45.5070
G01 X19.9770 Y45.5202
G01 X19.9825 Y45.5330
G01 X19.9893 Y45.5452
G01 X19.9973 Y45.5566
G01 X20.0470 Y45.6151
G01 X20.0561 Y45.6249
G01 X20.0636 Y45.6316
G01 X20.0715 Y45.6377
G01 X20.0913 Y45.6509
G01 X20.2513 Y45.7982
G01 X20.3849 Y45.9698
G01 X20.4884 Y46.1611
G01 X20.5360 Y46.2998
G01 X20.3022 Y46.2998
G01 X20.2945 Y46.2783
G01 X20.2907 Y46.2687
G01 X20.2493 Y46.1811
G01 X20.2445 Y46.1719
G01 X20.1911 Y46.0830
G01 X20.1314 Y46.0022
G01 X20.1250 Y45.9942
G01 X20.0552 Y45.9174
G01 X19.9757 Y45.8454
G01 X19.8896 Y45.7815
G01 X19.8006 Y45.7280
G01 X19.7915 Y45.7233
G01 X19.7007 Y45.6805
G01 X19.6063 Y45.6465
G01 X19.5931 Y45.6425
G01 X19.4957 Y45.6183
G01 X19.3965 Y45.6034
G01 X19.3828 Y45.6021
G01 X19.2825 Y45.5973
G01 X19.1841 Y45.5974
G01 X19.0838 Y45.6023
G01 X19.0736 Y45.6034
G01 X18.9743 Y45.6183
G01 X18.8703 Y45.6444
G01 X18.7758 Y45.6780
G01 X18.7631 Y45.6833
G01 X18.6724 Y45.7263
G01 X18.5805 Y45.7815
G01 X18.4943 Y45.8454
G01 X18.4149 Y45.9174
G01 X18.3451 Y45.9942
G01 X18.3386 Y46.0022
G01 X18.2790 Y46.0830
G01 X18.2255 Y46.1719
G01 X18.2208 Y46.1811
G01 X18.1794 Y46.2687
G01 X18.1755 Y46.2783
G01 X18.1678 Y46.2998
G01 X17.9340 Y46.2998
G01 X17.9816 Y46.1611
G01 X18.0851 Y45.9698
G01 X18.2187 Y45.7982
G01 X18.3787 Y45.6509
G01 X18.3957 Y45.6397
G01 X18.4058 Y45.6321
G01 X18.4361 Y45.6059
G01 X18.4435 Y45.5986
G01 X18.4504 Y45.5908
G01 X18.4586 Y45.5796
G01 X18.4623 Y45.5737
G01 X18.4673 Y45.5646
G01 X18.5011 Y45.4917
G01 X18.5057 Y45.4786
G01 X18.5089 Y45.4650
G01 X18.5108 Y45.4512
G01 X18.5114 Y45.4373
G01 X18.5111 Y45.4304
G01 X18.5101 Y45.4200
G01 X18.5007 Y45.3508
G01 X18.4981 Y45.3371
G01 X18.4942 Y45.3237
G01 X18.4890 Y45.3108
G01 X18.4825 Y45.2985
G01 X18.4769 Y45.2897
G01 X18.4728 Y45.2841
G01 X18.4231 Y45.2255
G01 X18.4139 Y45.2158
G01 X18.4065 Y45.2091
G01 X18.3986 Y45.2029
G01 X18.3784 Y45.1896
G01 X18.2184 Y45.0422
G01 X18.0847 Y44.8705
G01 X17.9812 Y44.6792
G01 X17.9105 Y44.4734
G01 X17.8747 Y44.2588
G01 X17.8747 Y44.0412
G01 X17.9105 Y43.8266
G01 X17.9753 Y43.6379
G01 X17.9783 Y43.6280
G01 X17.9799 Y43.6212
G01 X17.9817 Y43.6110
G01 X17.9824 Y43.6040
G01 X17.9868 Y43.5272
G01 X17.9863 Y43.5136
G01 X17.9844 Y43.5001
G01 X17.9813 Y43.4869
G01 X17.9769 Y43.4740
G01 X17.9696 Y43.4586
G01 X17.9362 Y43.3973
G01 X17.9292 Y43.3859
G01 X17.9212 Y43.3752
G01 X17.9122 Y43.3653
G01 X14.8445 Y40.2976
G01 X14.8341 Y40.2882
G01 X14.7929 Y40.2579
G01 X14.7813 Y40.2509
G01 X14.7658 Y40.2439
G01 X14.7562 Y40.2405
G01 X14.7463 Y40.2379
G01 X14.6745 Y40.2234
G01 X14.6646 Y40.2218
G01 X14.6513 Y40.2208
G01 X14.6380 Y40.2210
G01 X14.4800 Y40.2348
G01 X14.2778 Y40.2171
G01 X14.0817 Y40.1645
G01 X13.8977 Y40.0787
G01 X13.7313 Y39.9623
G01 X13.5878 Y39.8187
G01 X13.4713 Y39.6524
G01 X13.3855 Y39.4684
G01 X13.3330 Y39.2723
G01 X13.3153 Y39.0700
G01 X13.3330 Y38.8678
G01 X13.3855 Y38.6717
G01 X13.4713 Y38.4877
G01 X13.5878 Y38.3213
G01 X13.7313 Y38.1778
G01 X13.8977 Y38.0613
G01 X14.0817 Y37.9755
G01 X14.2778 Y37.9230
G01 X14.4800 Y37.9053
G01 X14.6823 Y37.9230
G01 X14.8784 Y37.9755
G01 X15.0624 Y38.0613
G01 X15.2287 Y38.1778
G00 Z2.0000
G00 X15.3344 Y25.9797
G01 F60.00
G01 Z-0.1500
G01 F120.00
G01 X15.5883 Y25.9797
G01 X16.7465 Y24.8216
G01 X16.7724 Y24.7983
G01 X16.7975 Y24.7794
G01 X16.8090 Y24.7718
G01 X16.8360 Y24.7558
G01 X16.8644 Y24.7422
G01 X16.8771 Y24.7369
G01 X16.9067 Y24.7265
G01 X16.9405 Y24.7179
G01 X16.9507 Y24.7160
G01 X16.9818 Y24.7116
G01 X17.0200 Y24.7097
G01 X20.8335 Y24.7097
G01 X20.8683 Y24.7116
G01 X20.9062 Y24.7172
G01 X20.9433 Y24.7265
G01 X20.9762 Y24.7381
G01 X20.9857 Y24.7422
G01 X21.0140 Y24.7558
G01 X21.0411 Y24.7718
G01 X21.0525 Y24.7794
G01 X21.0750 Y24.7961
G01 X21.0829 Y24.8028
G01 X21.1060 Y24.8240
G01 X22.3784 Y26.0965
G01 X22.4018 Y26.1224
G01 X22.4246 Y26.1532
G01 X22.4443 Y26.1860
G01 X22.4606 Y26.2207
G01 X22.4735 Y26.2567
G01 X22.4828 Y26.2939
G01 X22.4885 Y26.3318
G01 X22.4903 Y26.3666
G01 X22.4903 Y30.0183
G01 X24.7062 Y32.2342
G01 X24.7246 Y32.2035
G01 X24.7302 Y32.1948
G01 X24.7811 Y32.1263
G01 X24.7877 Y32.1184
G01 X24.8428 Y32.0577
G01 X24.8502 Y32.0505
G01 X24.9136 Y31.9932
G01 X24.9848 Y31.9402
G01 X24.9935 Y31.9346
G01 X25.0668 Y31.8908
G01 X25.1502 Y31.8514
G01 X25.2371 Y31.8203
G01 X25.3232 Y31.7986
G01 X25.3334 Y31.7967
G01 X25.4179 Y31.7844
G01 X25.5066 Y31.7799
G01 X26.3135 Y31.7799
G01 X26.4022 Y31.7844
G01 X26.4867 Y31.7967
G01 X26.5002 Y31.7994
G01 X26.5830 Y31.8203
G01 X26.6698 Y31.8514
G01 X26.7532 Y31.8908
G01 X26.8324 Y31.9383
G01 X26.9065 Y31.9932
G01 X26.9748 Y32.0552
G01 X27.0368 Y32.1236
G01 X27.0918 Y32.1977
G01 X27.1392 Y32.2768
G01 X27.1787 Y32.3602
G01 X27.2097 Y32.4471
G01 X27.2322 Y32.5366
G01 X27.2457 Y32.6279
G01 X27.2502 Y32.7200
G01 X27.2457 Y32.8122
G01 X27.2322 Y32.9034
G01 X27.2107 Y32.9896
G01 X27.2076 Y32.9995
G01 X27.1787 Y33.0798
G01 X27.1423 Y33.1571
G01 X27.1358 Y33.1692
G01 X27.0918 Y33.2424
G01 X27.0410 Y33.3111
G01 X27.0323 Y33.3217
G01 X26.9748 Y33.3848
G01 X26.9117 Y33.4423
G01 X26.9011 Y33.4510
G01 X26.8324 Y33.5018
G01 X26.7592 Y33.5458
G01 X26.7471 Y33.5523
G01 X26.6698 Y33.5887
G01 X26.5895 Y33.6176
G01 X26.5796 Y33.6207
G01 X26.4934 Y33.6422
G01 X26.4090 Y33.6549
G01 X26.3953 Y33.6562
G01 X26.3135 Y33.6602
G01 X25.5066 Y33.6602
G01 X25.4179 Y33.6557
G01 X25.3266 Y33.6422
G01 X25.2371 Y33.6197
G01 X25.1566 Y33.5911
G01 X25.1439 Y33.5859
G01 X25.0668 Y33.5492
G01 X24.9877 Y33.5018
G01 X24.9136 Y33.4468
G01 X24.8477 Y33.3872
G01 X24.8405 Y33.3799
G01 X24.7832 Y33.3165
G01 X24.7302 Y33.2452
G01 X24.7246 Y33.2366
G01 X24.6825 Y33.1662
G01 X24.6777 Y33.1571
G01 X24.6556 Y33.1103
G01 X24.6366 Y33.1103
G01 X24.6052 Y33.1088
G01 X24.5949 Y33.1076
G01 X24.5673 Y33.1035
G01 X24.5572 Y33.1013
G01 X24.5267 Y33.0935
G01 X24.4938 Y33.0819
G01 X24.4844 Y33.0778
G01 X24.4560 Y33.0643
G01 X24.4232 Y33.0446
G01 X24.3924 Y33.0218
G01 X24.3665 Y32.9984
G01 X21.8240 Y30.4560
G01 X21.7983 Y30.4276
G01 X21.7755 Y30.3969
G01 X21.7558 Y30.3640
G01 X21.7394 Y30.3294
G01 X21.7265 Y30.2933
G01 X21.7172 Y30.2562
G01 X21.7116 Y30.2183
G01 X21.7097 Y30.1835
G01 X21.7097 Y26.5317
G01 X20.6683 Y25.4903
G01 X19.8895 Y25.4903
G01 X19.9134 Y25.4989
G01 X19.9230 Y25.5027
G01 X19.9971 Y25.5377
G01 X20.0062 Y25.5425
G01 X20.0824 Y25.5883
G01 X20.1538 Y25.6411
G01 X20.1617 Y25.6477
G01 X20.2199 Y25.7005
G01 X20.2296 Y25.7102
G01 X20.2868 Y25.7736
G01 X20.3398 Y25.8448
G01 X20.3455 Y25.8535
G01 X20.3858 Y25.9208
G01 X20.3923 Y25.9330
G01 X20.4287 Y26.0102
G01 X20.4597 Y26.0971
G01 X20.4822 Y26.1866
G01 X20.4949 Y26.2710
G01 X20.4962 Y26.2847
G01 X20.5002 Y26.3700
G01 X20.4962 Y26.4553
G01 X20.4949 Y26.4690
G01 X20.4822 Y26.5534
G01 X20.4597 Y26.6430
G01 X20.4311 Y26.7234
G01 X20.4259 Y26.7361
G01 X20.3892 Y26.8132
G01 X20.3436 Y26.8895
G01 X20.3378 Y26.8980
G01 X20.2910 Y26.9611
G01 X20.2823 Y26.9717
G01 X20.2248 Y27.0348
G01 X20.1591 Y27.0946
G01 X20.1511 Y27.1010
G01 X20.0880 Y27.1478
G01 X20.0795 Y27.1536
G01 X20.0032 Y27.1992
G01 X19.9503 Y27.2244
G01 X19.9503 Y35.0983
G01 X22.2617 Y37.4097
G01 X24.6556 Y37.4097
G01 X24.6808 Y37.3568
G01 X24.7264 Y37.2806
G01 X24.7322 Y37.2721
G01 X24.7811 Y37.2063
G01 X24.7877 Y37.1984
G01 X24.8452 Y37.1352
G01 X24.9084 Y37.0777
G01 X24.9163 Y37.0711
G01 X24.9821 Y37.0222
G01 X24.9935 Y37.0146
G01 X25.0668 Y36.9708
G01 X25.1439 Y36.9342
G01 X25.1566 Y36.9289
G01 X25.2371 Y36.9003
G01 X25.3266 Y36.8779
G01 X25.4179 Y36.8644
G01 X25.5066 Y36.8599
G01 X26.3100 Y36.8598
G01 X26.3988 Y36.8641
G01 X26.4090 Y36.8652
G01 X26.4934 Y36.8779
G01 X26.5830 Y36.9003
G01 X26.6698 Y36.9314
G01 X26.7471 Y36.9677
G01 X26.7592 Y36.9742
G01 X26.8324 Y37.0183
G01 X26.9011 Y37.0690
G01 X26.9117 Y37.0777
G01 X26.9699 Y37.1305
G01 X26.9796 Y37.1402
G01 X27.0368 Y37.2036
G01 X27.0878 Y37.2721
G01 X27.0955 Y37.2835
G01 X27.1392 Y37.3568
G01 X27.1787 Y37.4402
G01 X27.2097 Y37.5271
G01 X27.2307 Y37.6099
G01 X27.2333 Y37.6234
G01 X27.2457 Y37.7079
G01 X27.2501 Y37.7931
G01 X27.2501 Y37.8069
G01 X27.2462 Y37.8853
G01 X27.2449 Y37.8990
G01 X27.2322 Y37.9834
G01 X27.2097 Y38.0730
G01 X27.1811 Y38.1534
G01 X27.1759 Y38.1661
G01 X27.1392 Y38.2432
G01 X27.0955 Y38.3166
G01 X27.0878 Y38.3280
G01 X27.0368 Y38.3965
G01 X26.9796 Y38.4599
G01 X26.9724 Y38.4672
G01 X26.9065 Y38.5268
G01 X26.8380 Y38.5778
G01 X26.8266 Y38.5855
G01 X26.7532 Y38.6292
G01 X26.6698 Y38.6687
G01 X26.5895 Y38.6976
G01 X26.5763 Y38.7016
G01 X26.5002 Y38.7207
G01 X26.4901 Y38.7228
G01 X26.4022 Y38.7357
G01 X26.3135 Y38.7402
G01 X25.5100 Y38.7402
G01 X25.4247 Y38.7362
G01 X25.4110 Y38.7349
G01 X25.3266 Y38.7222
G01 X25.2437 Y38.7016
G01 X25.2306 Y38.6976
G01 X25.1502 Y38.6687
G01 X25.0730 Y38.6323
G01 X25.0608 Y38.6258
G01 X24.9935 Y38.5855
G01 X24.9848 Y38.5798
G01 X24.9136 Y38.5268
G01 X24.8502 Y38.4696
G01 X24.8405 Y38.4599
G01 X24.7855 Y38.3991
G01 X24.7790 Y38.3911
G01 X24.7322 Y38.3280
G01 X24.7264 Y38.3195
G01 X24.6808 Y38.2432
G01 X24.6556 Y38.1903
G01 X22.1000 Y38.1903
G01 X22.0618 Y38.1885
G01 X22.0239 Y38.1828
G01 X21.9867 Y38.1735
G01 X21.9538 Y38.1619
G01 X21.9444 Y38.1578
G01 X21.9160 Y38.1443
G01 X21.8832 Y38.1246
G01 X21.8524 Y38.1018
G01 X21.8240 Y38.0760
G01 X19.2816 Y35.5336
G01 X19.2583 Y35.5076
G01 X19.2355 Y35.4769
G01 X19.2158 Y35.4440
G01 X19.1994 Y35.4094
G01 X19.1865 Y35.3733
G01 X19.1772 Y35.3362
G01 X19.1716 Y35.2983
G01 X19.1697 Y35.2635
G01 X19.1697 Y27.2244
G01 X19.1168 Y27.1992
G01 X19.0406 Y27.1536
G01 X19.0321 Y27.1478
G01 X18.9690 Y27.1010
G01 X18.9609 Y27.0946
G01 X18.8952 Y27.0348
G01 X18.8377 Y26.9717
G01 X18.8290 Y26.9611
G01 X18.7822 Y26.8980
G01 X18.7764 Y26.8895
G01 X18.7308 Y26.8132
G01 X18.6942 Y26.7361
G01 X18.6889 Y26.7234
G01 X18.6603 Y26.6430
G01 X18.6379 Y26.5534
G01 X18.6252 Y26.4690
G01 X18.6238 Y26.4553
G01 X18.6198 Y26.3700
G01 X18.6238 Y26.2847
G01 X18.6252 Y26.2710
G01 X18.6379 Y26.1866
G01 X18.6603 Y26.0971
G01 X18.6914 Y26.0102
G01 X18.7277 Y25.9330
G01 X18.7342 Y25.9208
G01 X18.7746 Y25.8535
G01 X18.7802 Y25.8448
G01 X18.8332 Y25.7736
G01 X18.8905 Y25.7102
G01 X18.9002 Y25.7005
G01 X18.9584 Y25.6477
G01 X18.9663 Y25.6411
G01 X19.0377 Y25.5883
G01 X19.1138 Y25.5425
G01 X19.1230 Y25.5377
G01 X19.1971 Y25.5027
G01 X19.2066 Y25.4989
G01 X19.2306 Y25.4903
G01 X17.1817 Y25.4903
G01 X16.0260 Y26.6460
G01 X15.9976 Y26.6718
G01 X15.9697 Y26.6926
G01 X15.9611 Y26.6982
G01 X15.9340 Y26.7143
G01 X15.9057 Y26.7278
G01 X15.8930 Y26.7331
G01 X15.8633 Y26.7435
G01 X15.8329 Y26.7513
G01 X15.8194 Y26.7540
G01 X15.7883 Y26.7585
G01 X15.7500 Y26.7603
G01 X15.3344 Y26.7603
G01 X15.3092 Y26.8132
G01 X15.2636 Y26.8895
G01 X15.2578 Y26.8980
G01 X15.2090 Y26.9638
G01 X15.2023 Y26.9717
G01 X15.1448 Y27.0348
G01 X15.0817 Y27.0923
G01 X15.0738 Y27.0990
G01 X15.0024 Y27.1518
G01 X14.9292 Y27.1958
G01 X14.9171 Y27.2023
G01 X14.8398 Y27.2387
G01 X14.7595 Y27.2676
G01 X14.7463 Y27.2716
G01 X14.6668 Y27.2914
G01 X14.6567 Y27.2933
G01 X14.5722 Y27.3057
G01 X14.4869 Y27.3101
G01 X14.4731 Y27.3101
G01 X14.3947 Y27.3062
G01 X14.3810 Y27.3049
G01 X14.2966 Y27.2922
G01 X14.2071 Y27.2697
G01 X14.1202 Y27.2387
G01 X14.0368 Y27.1992
G01 X13.9577 Y27.1518
G01 X13.8890 Y27.1010
G01 X13.8784 Y27.0923
G01 X13.8202 Y27.0396
G01 X13.8105 Y27.0299
G01 X13.7532 Y26.9665
G01 X13.6983 Y26.8924
G01 X13.6508 Y26.8132
G01 X13.6127 Y26.7330
G01 X13.6089 Y26.7234
G01 X13.5803 Y26.6430
G01 X13.5579 Y26.5534
G01 X13.5444 Y26.4622
G01 X13.5398 Y26.3700
G01 X13.5444 Y26.2779
G01 X13.5579 Y26.1866
G01 X13.5803 Y26.0971
G01 X13.6114 Y26.0102
G01 X13.6508 Y25.9268
G01 X13.6983 Y25.8477
G01 X13.7532 Y25.7736
G01 X13.8152 Y25.7052
G01 X13.8836 Y25.6432
G01 X13.9577 Y25.5883
G01 X14.0368 Y25.5408
G01 X14.1171 Y25.5027
G01 X14.1266 Y25.4989
G01 X14.2071 Y25.4703
G01 X14.2966 Y25.4479
G01 X14.3879 Y25.4344
G01 X14.4800 Y25.4298
G01 X14.5722 Y25.4344
G01 X14.6634 Y25.4479
G01 X14.7530 Y25.4703
G01 X14.8366 Y25.5001
G01 X14.8461 Y25.5042
G01 X14.9232 Y25.5408
G01 X15.0024 Y25.5883
G01 X15.0765 Y25.6432
G01 X15.1424 Y25.7028
G01 X15.1496 Y25.7102
G01 X15.2068 Y25.7736
G01 X15.2598 Y25.8448
G01 X15.2655 Y25.8535
G01 X15.3075 Y25.9238
G01 X15.3123 Y25.9330
G01 X15.3344 Y25.9797
G00 Z2.0000
G00 X15.3344 Y22.1697
G01 F60.00
G01 Z-0.1500
G01 F120.00
G01 X18.7056 Y22.1697
G01 X18.7308 Y22.1168
G01 X18.7764 Y22.0406
G01 X18.7822 Y22.0321
G01 X18.8290 Y21.9690
G01 X18.8355 Y21.9609
G01 X18.8952 Y21.8952
G01 X18.9584 Y21.8377
G01 X18.9690 Y21.8290
G01 X19.0321 Y21.7822
G01 X19.0406 Y21.7764
G01 X19.1168 Y21.7308
G01 X19.1939 Y21.6942
G01 X19.2066 Y21.6889
G01 X19.2871 Y21.6603
G01 X19.3699 Y21.6394
G01 X19.3834 Y21.6367
G01 X19.4679 Y21.6244
G01 X19.5600 Y21.6198
G01 X19.6522 Y21.6244
G01 X19.7367 Y21.6367
G01 X19.7502 Y21.6394
G01 X19.8330 Y21.6603
G01 X19.9134 Y21.6889
G01 X19.9261 Y21.6942
G01 X20.0032 Y21.7308
G01 X20.0795 Y21.7764
G01 X20.0880 Y21.7822
G01 X20.1511 Y21.8290
G01 X20.1617 Y21.8377
G01 X20.2248 Y21.8952
G01 X20.2846 Y21.9609
G01 X20.2910 Y21.9690
G01 X20.3378 Y22.0321
G01 X20.3436 Y22.0406
G01 X20.3892 Y22.1168
G01 X20.4144 Y22.1697
G01 X20.8300 Y22.1697
G01 X20.8683 Y22.1716
G01 X20.8994 Y22.1760
G01 X20.9129 Y22.1787
G01 X20.9433 Y22.1865
G01 X20.9730 Y22.1969
G01 X20.9857 Y22.2022
G01 X21.0140 Y22.2158
G01 X21.0411 Y22.2318
G01 X21.0525 Y22.2394
G01 X21.0776 Y22.2583
G01 X21.1060 Y22.2840
G01 X26.1860 Y27.3640
G01 X26.2118 Y27.3924
G01 X26.2326 Y27.4203
G01 X26.2382 Y27.4290
G01 X26.2509 Y27.4500
G01 X26.2574 Y27.4622
G01 X26.2706 Y27.4907
G01 X26.2825 Y27.5234
G01 X26.2854 Y27.5334
G01 X26.2913 Y27.5572
G01 X26.2935 Y27.5673
G01 X26.2985 Y27.6018
G01 X26.3002 Y27.6331
G01 X26.3003 Y29.2398
G01 X26.3169 Y29.2400
G01 X26.4022 Y29.2444
G01 X26.4867 Y29.2567
G01 X26.5002 Y29.2594
G01 X26.5830 Y29.2803
G01 X26.6634 Y29.3089
G01 X26.6761 Y29.3142
G01 X26.7471 Y29.3477
G01 X26.7592 Y29.3542
G01 X26.8324 Y29.3983
G01 X26.9011 Y29.4490
G01 X26.9117 Y29.4577
G01 X26.9748 Y29.5152
G01 X27.0368 Y29.5836
G01 X27.0878 Y29.6521
G01 X27.0955 Y29.6635
G01 X27.1392 Y29.7368
G01 X27.1787 Y29.8202
G01 X27.2076 Y29.9006
G01 X27.2116 Y29.9137
G01 X27.2322 Y29.9966
G01 X27.2449 Y30.0810
G01 X27.2462 Y30.0947
G01 X27.2502 Y30.1800
G01 X27.2462 Y30.2653
G01 X27.2449 Y30.2790
G01 X27.2333 Y30.3567
G01 X27.2307 Y30.3702
G01 X27.2097 Y30.4530
G01 X27.1811 Y30.5334
G01 X27.1759 Y30.5461
G01 X27.1392 Y30.6232
G01 X27.0955 Y30.6966
G01 X27.0878 Y30.7080
G01 X27.0410 Y30.7711
G01 X27.0323 Y30.7817
G01 X26.9748 Y30.8448
G01 X26.9117 Y30.9023
G01 X26.9011 Y30.9110
G01 X26.8324 Y30.9618
G01 X26.7532 Y31.0092
G01 X26.6698 Y31.0487
G01 X26.5895 Y31.0776
G01 X26.5763 Y31.0816
G01 X26.4934 Y31.1022
G01 X26.4090 Y31.1149
G01 X26.3953 Y31.1162
G01 X26.3135 Y31.1202
G01 X25.5066 Y31.1202
G01 X25.4179 Y31.1157
G01 X25.3334 Y31.1033
G01 X25.3232 Y31.1014
G01 X25.2371 Y31.0797
G01 X25.1502 Y31.0487
G01 X25.0668 Y31.0092
G01 X24.9935 Y30.9655
G01 X24.9821 Y30.9578
G01 X24.9190 Y30.9110
G01 X24.9084 Y30.9023
G01 X24.8452 Y30.8448
G01 X24.7832 Y30.7765
G01 X24.7283 Y30.7024
G01 X24.6842 Y30.6292
G01 X24.6777 Y30.6171
G01 X24.6414 Y30.5398
G01 X24.6125 Y30.4595
G01 X24.6085 Y30.4463
G01 X24.5894 Y30.3702
G01 X24.5867 Y30.3567
G01 X24.5744 Y30.2722
G01 X24.5698 Y30.1800
G01 X24.5744 Y30.0879
G01 X24.5867 Y30.0034
G01 X24.5894 Y29.9899
G01 X24.6103 Y29.9071
G01 X24.6414 Y29.8202
G01 X24.6808 Y29.7368
G01 X24.7246 Y29.6635
G01 X24.7322 Y29.6521
G01 X24.7790 Y29.5890
G01 X24.7877 Y29.5784
G01 X24.8452 Y29.5152
G01 X24.9136 Y29.4532
G01 X24.9877 Y29.3983
G01 X25.0668 Y29.3508
G01 X25.1502 Y29.3114
G01 X25.2306 Y29.2825
G01 X25.2437 Y29.2785
G01 X25.3266 Y29.2579
G01 X25.4110 Y29.2452
G01 X25.4247 Y29.2438
G01 X25.5031 Y29.2400
G01 X25.5197 Y29.2398
G01 X25.5197 Y27.8017
G01 X20.6683 Y22.9503
G01 X20.4144 Y22.9503
G01 X20.3892 Y23.0032
G01 X20.3436 Y23.0795
G01 X20.3378 Y23.0880
G01 X20.2910 Y23.1511
G01 X20.2846 Y23.1591
G01 X20.2248 Y23.2248
G01 X20.1617 Y23.2823
G01 X20.1511 Y23.2910
G01 X20.0880 Y23.3378
G01 X20.0795 Y23.3436
G01 X20.0032 Y23.3892
G01 X19.9261 Y23.4259
G01 X19.9134 Y23.4311
G01 X19.8330 Y23.4597
G01 X19.7502 Y23.4807
G01 X19.7367 Y23.4833
G01 X19.6522 Y23.4957
G01 X19.5600 Y23.5002
G01 X19.4679 Y23.4957
G01 X19.3834 Y23.4833
G01 X19.3699 Y23.4807
G01 X19.2871 Y23.4597
G01 X19.2066 Y23.4311
G01 X19.1939 Y23.4259
G01 X19.1168 Y23.3892
G01 X19.0406 Y23.3436
G01 X19.0321 Y23.3378
G01 X18.9690 Y23.2910
G01 X18.9584 Y23.2823
G01 X18.8952 Y23.2248
G01 X18.8355 Y23.1591
G01 X18.8290 Y23.1511
G01 X18.7822 Y23.0880
G01 X18.7764 Y23.0795
G01 X18.7308 Y23.0032
G01 X18.7056 Y22.9503
G01 X15.3344 Y22.9503
G01 X15.3092 Y23.0032
G01 X15.2636 Y23.0795
G01 X15.2578 Y23.0880
G01 X15.2110 Y23.1511
G01 X15.2046 Y23.1591
G01 X15.1448 Y23.2248
G01 X15.0817 Y23.2823
G01 X15.0711 Y23.2910
G01 X15.0080 Y23.3378
G01 X14.9995 Y23.3436
G01 X14.9232 Y23.3892
G01 X14.8461 Y23.4259
G01 X14.8334 Y23.4311
G01 X14.7530 Y23.4597
G01 X14.6702 Y23.4807
G01 X14.6567 Y23.4833
G01 X14.5722 Y23.4957
G01 X14.4800 Y23.5002
G01 X14.3879 Y23.4957
G01 X14.3034 Y23.4833
G01 X14.2899 Y23.4807
G01 X14.2071 Y23.4597
G01 X14.1266 Y23.4311
G01 X14.1139 Y23.4259
G01 X14.0368 Y23.3892
G01 X13.9577 Y23.3418
G01 X13.8836 Y23.2868
G01 X13.8202 Y23.2296
G01 X13.8105 Y23.2199
G01 X13.7532 Y23.1565
G01 X13.7022 Y23.0880
G01 X13.6946 Y23.0766
G01 X13.6508 Y23.0032
G01 X13.6127 Y22.9230
G01 X13.6089 Y22.9134
G01 X13.5803 Y22.8330
G01 X13.5579 Y22.7434
G01 X13.5444 Y22.6522
G01 X13.5398 Y22.5600
G01 X13.5444 Y22.4679
G01 X13.5579 Y22.3766
G01 X13.5803 Y22.2871
G01 X13.6114 Y22.2002
G01 X13.6508 Y22.1168
G01 X13.6983 Y22.0377
G01 X13.7532 Y21.9636
G01 X13.8152 Y21.8952
G01 X13.8836 Y21.8332
G01 X13.9577 Y21.7783
G01 X14.0368 Y21.7308
G01 X14.1171 Y21.6927
G01 X14.1266 Y21.6889
G01 X14.2071 Y21.6603
G01 X14.2966 Y21.6379
G01 X14.3879 Y21.6244
G01 X14.4800 Y21.6198
G01 X14.5722 Y21.6244
G01 X14.6634 Y21.6379
G01 X14.7530 Y21.6603
G01 X14.8366 Y21.6901
G01 X14.8461 Y21.6942
G01 X14.9232 Y21.7308
G01 X15.0024 Y21.7783
G01 X15.0765 Y21.8332
G01 X15.1424 Y21.8928
G01 X15.1496 Y21.9002
G01 X15.2068 Y21.9636
G01 X15.2598 Y22.0348
G01 X15.2655 Y22.0435
G01 X15.3075 Y22.1138
G01 X15.3123 Y22.1230
G01 X15.3344 Y22.1697
G00 Z2.0000
G00 X15.2287 Y21.6678
G01 F60.00
G01 Z-0.1500
G01 F120.00
G01 X15.3723 Y21.8113
G01 X15.3943 Y21.8425
G01 X15.4055 Y21.8553
