(G-CODE GENERATED BY FLATCAM v8.994 - www.flatcam.org - Version Date: 2020/11/7)

(Name: med_assoc_lick_sens_addon-B_Cu.gbr_iso_combined_cnc)
(Type: G-code from Geometry)
(Units: MM)

(Created on Friday, 14 July 2023 at 12:58)

(This preprocessor is the default preprocessor used by FlatCAM.)
(It is made to work with MACH3 compatible motion controllers.)

(TOOL DIAMETER: 0.3072 mm)
(Feedrate_XY: 120.0 mm/min)
(Feedrate_Z: 60.0 mm/min)
(Feedrate rapids 1500.0 mm/min)

(Z_Cut: -0.2 mm)
(Z_Move: 2.0 mm)
(Z Start: None mm)
(Z End: 15.0 mm)
(X,Y End: None mm)
(Steps per circle: 64)
(Preprocessor Geometry: default)

(X range:   53.8969 ...  105.0031  mm)
(Y range:    5.8969 ...   58.2731  mm)

(Spindle Speed: 0.0 RPM)
G21
G90
G94

G01 F120.00

M5
G00 Z15.0000
G00 X0.0000 Y0.0000
T2M6    
(MSG, Change to Tool Dia = 0.3072)
M0
G00 Z15.0000

M03
G01 F120.00
G00 X65.8047 Y10.7556
G01 F60.00
G01 Z-0.2000
G01 F120.00
G01 X65.7640 Y10.7702
G01 X65.7532 Y10.7736
G01 X65.6734 Y10.7936
G01 X65.6624 Y10.7960
G01 X65.5735 Y10.8090
G01 X65.4876 Y10.8134
G01 X65.4763 Y10.8136
G01 X65.3866 Y10.8090
G01 X65.2940 Y10.7953
G01 X65.2032 Y10.7726
G01 X65.1221 Y10.7437
G01 X65.1116 Y10.7396
G01 X65.0305 Y10.7010
G01 X64.9502 Y10.6529
G01 X64.8751 Y10.5972
G01 X64.8057 Y10.5343
G01 X64.7429 Y10.4650
G01 X64.6871 Y10.3898
G01 X64.6390 Y10.3095
G01 X64.6021 Y10.2318
G01 X64.5976 Y10.2215
G01 X64.5675 Y10.1368
G01 X64.5447 Y10.0461
G01 X64.5310 Y9.9535
G01 X64.5264 Y9.8600
G01 X64.5310 Y9.7666
G01 X64.5447 Y9.6740
G01 X64.5675 Y9.5832
G01 X64.5990 Y9.4951
G01 X64.6390 Y9.4105
G01 X64.6871 Y9.3302
G01 X64.7429 Y9.2551
G01 X64.8057 Y9.1857
G01 X64.8751 Y9.1229
G01 X64.9502 Y9.0671
G01 X65.0305 Y9.0190
G01 X65.1082 Y8.9821
G01 X65.1186 Y8.9776
G01 X65.2032 Y8.9475
G01 X65.2866 Y8.9264
G01 X65.3014 Y8.9235
G01 X65.3866 Y8.9110
G01 X65.4725 Y8.9066
G01 X65.4876 Y8.9066
G01 X65.5735 Y8.9110
G01 X65.6661 Y8.9247
G01 X65.7496 Y8.9455
G01 X65.7640 Y8.9499
G01 X65.8450 Y8.9790
G01 X65.9295 Y9.0190
G01 X66.0034 Y9.0631
G01 X66.0160 Y9.0715
G01 X66.0850 Y9.1229
G01 X66.1543 Y9.1857
G01 X66.2172 Y9.2551
G01 X66.2686 Y9.3241
G01 X66.2769 Y9.3366
G01 X66.3210 Y9.4105
G01 X66.3580 Y9.4882
G01 X66.3637 Y9.5021
G01 X66.3926 Y9.5832
G01 X66.4145 Y9.6703
G01 X66.4166 Y9.6814
G01 X66.4281 Y9.7591
G01 X66.4296 Y9.7741
G01 X66.4336 Y9.8600
G01 X66.4294 Y9.9497
G01 X66.4281 Y9.9610
G01 X66.4166 Y10.0386
G01 X66.4145 Y10.0498
G01 X66.3936 Y10.1332
G01 X66.3902 Y10.1440
G01 X66.3756 Y10.1847
G01 X68.1873 Y11.9963
G01 X79.4500 Y11.9963
G01 X79.4896 Y11.9982
G01 X79.5288 Y12.0041
G01 X79.5672 Y12.0137
G01 X79.6045 Y12.0270
G01 X79.6403 Y12.0440
G01 X79.6743 Y12.0643
G01 X79.7061 Y12.0879
G01 X79.7355 Y12.1145
G01 X82.0364 Y14.4155
G01 X82.0366 Y14.2225
G01 X82.0376 Y14.2112
G01 X82.0394 Y14.2001
G01 X82.0420 Y14.1891
G01 X82.0467 Y14.1747
G01 X82.0512 Y14.1644
G01 X82.0564 Y14.1543
G01 X82.0603 Y14.1478
G01 X82.0667 Y14.1385
G01 X82.0713 Y14.1326
G01 X82.0788 Y14.1241
G01 X82.0869 Y14.1162
G01 X82.0955 Y14.1089
G01 X82.1047 Y14.1023
G01 X82.1111 Y14.0983
G01 X82.1210 Y14.0928
G01 X82.1312 Y14.0881
G01 X82.1383 Y14.0854
G01 X82.1491 Y14.0820
G01 X82.1601 Y14.0794
G01 X82.1712 Y14.0776
G01 X82.1825 Y14.0766
G01 X82.1900 Y14.0764
G01 X84.1738 Y14.0765
G01 X84.1813 Y14.0768
G01 X84.1926 Y14.0781
G01 X84.2037 Y14.0802
G01 X84.2110 Y14.0820
G01 X84.2253 Y14.0867
G01 X84.2323 Y14.0896
G01 X84.2424 Y14.0946
G01 X84.2554 Y14.1023
G01 X84.2645 Y14.1089
G01 X84.2704 Y14.1137
G01 X84.2786 Y14.1214
G01 X84.2838 Y14.1269
G01 X84.2934 Y14.1385
G01 X84.2998 Y14.1478
G01 X84.3055 Y14.1576
G01 X84.3119 Y14.1712
G01 X84.3159 Y14.1818
G01 X84.3190 Y14.1927
G01 X84.3214 Y14.2038
G01 X84.3232 Y14.2187
G01 X84.3236 Y14.2300
G01 X84.3236 Y18.1900
G01 X84.3229 Y18.2051
G01 X84.3207 Y18.2200
G01 X84.3170 Y18.2346
G01 X84.3119 Y18.2488
G01 X84.3072 Y18.2591
G01 X84.3018 Y18.2690
G01 X84.2956 Y18.2785
G01 X84.2888 Y18.2875
G01 X84.2813 Y18.2959
G01 X84.2732 Y18.3038
G01 X84.2645 Y18.3111
G01 X84.2554 Y18.3177
G01 X84.2457 Y18.3237
G01 X84.2391 Y18.3272
G01 X84.2288 Y18.3319
G01 X84.2182 Y18.3359
G01 X84.2073 Y18.3390
G01 X84.1963 Y18.3414
G01 X84.1851 Y18.3429
G01 X84.1738 Y18.3436
G01 X82.1863 Y18.3436
G01 X82.1712 Y18.3425
G01 X82.1564 Y18.3399
G01 X82.1418 Y18.3359
G01 X82.1312 Y18.3319
G01 X82.1244 Y18.3289
G01 X82.1111 Y18.3218
G01 X82.0985 Y18.3134
G01 X82.0869 Y18.3038
G01 X82.0762 Y18.2932
G01 X82.0689 Y18.2845
G01 X82.0603 Y18.2722
G01 X82.0528 Y18.2591
G01 X82.0467 Y18.2453
G01 X82.0420 Y18.2310
G01 X82.0394 Y18.2200
G01 X82.0376 Y18.2088
G01 X82.0365 Y18.1938
G01 X82.0364 Y15.5574
G01 X79.2828 Y12.8037
G01 X68.0200 Y12.8037
G01 X67.9805 Y12.8018
G01 X67.9487 Y12.7973
G01 X67.9339 Y12.7943
G01 X67.9101 Y12.7884
G01 X67.8992 Y12.7852
G01 X67.8655 Y12.7730
G01 X67.8331 Y12.7578
G01 X67.8232 Y12.7524
G01 X67.8021 Y12.7397
G01 X67.7896 Y12.7314
G01 X67.7639 Y12.7121
G01 X67.7372 Y12.6881
G01 X65.8047 Y10.7556
G00 Z2.0000
G00 X66.2201 Y8.9781
G01 F60.00
G01 Z-0.2000
G01 F120.00
G01 X66.3620 Y9.1200
G01 X66.4771 Y9.2844
G01 X66.5619 Y9.4663
G01 X66.6138 Y9.6601
G01 X66.6313 Y9.8600
G01 X66.6174 Y10.0212
G01 X66.6176 Y10.0366
G01 X66.6202 Y10.0775
G01 X66.6216 Y10.0886
G01 X66.6238 Y10.0995
G01 X66.6268 Y10.1103
G01 X66.6305 Y10.1208
G01 X66.6350 Y10.1310
G01 X66.6737 Y10.2022
G01 X66.6775 Y10.2084
G01 X66.6838 Y10.2174
G01 X66.6907 Y10.2260
G01 X66.6981 Y10.2340
G01 X68.1889 Y11.7247
G01 X68.1982 Y11.7328
G01 X68.2248 Y11.7540
G01 X68.2374 Y11.7623
G01 X68.2508 Y11.7693
G01 X68.2577 Y11.7723
G01 X68.2683 Y11.7761
G01 X68.3425 Y11.7979
G01 X68.3532 Y11.8003
G01 X68.3640 Y11.8020
G01 X68.3749 Y11.8030
G01 X68.3823 Y11.8031
G01 X79.4391 Y11.8031
G01 X79.5112 Y11.8011
G01 X79.5814 Y11.8177
G01 X79.6477 Y11.8313
G01 X79.7122 Y11.8637
G01 X79.7735 Y11.8923
G01 X79.8253 Y11.9358
G01 X79.8476 Y11.9534
G01 X79.8583 Y11.9634
G01 X79.8872 Y11.9876
G01 X79.8978 Y12.0012
G01 X79.9120 Y12.0176
G01 X79.9171 Y12.0230
G01 X81.7463 Y13.8521
G01 X81.7543 Y13.8596
G01 X81.7599 Y13.8642
G01 X81.7658 Y13.8686
G01 X81.7749 Y13.8747
G01 X81.8426 Y13.9118
G01 X81.8528 Y13.9169
G01 X81.8634 Y13.9212
G01 X81.8780 Y13.9257
G01 X81.8929 Y13.9288
G01 X81.9081 Y13.9304
G01 X81.9157 Y13.9306
G01 X81.9271 Y13.9302
G01 X82.0041 Y13.9245
G01 X82.0185 Y13.9221
G01 X82.0326 Y13.9183
G01 X82.1181 Y13.8866
G01 X82.1504 Y13.8831
G01 X84.2097 Y13.8831
G01 X84.2419 Y13.8866
G01 X84.3380 Y13.9224
G01 X84.4178 Y13.9822
G01 X84.4776 Y14.0621
G01 X84.5135 Y14.1581
G01 X84.5169 Y14.1904
G01 X84.5169 Y18.2297
G01 X84.5135 Y18.2619
G01 X84.4776 Y18.3580
G01 X84.4178 Y18.4378
G01 X84.3380 Y18.4976
G01 X84.2419 Y18.5335
G01 X84.2097 Y18.5369
G01 X82.1504 Y18.5369
G01 X82.1181 Y18.5335
G01 X82.0221 Y18.4976
G01 X81.9422 Y18.4378
G01 X81.8824 Y18.3580
G01 X81.8466 Y18.2619
G01 X81.8431 Y18.2297
G01 X81.8431 Y15.7523
G01 X81.8422 Y15.7358
G01 X81.8390 Y15.7057
G01 X81.8371 Y15.6946
G01 X81.8344 Y15.6836
G01 X81.8308 Y15.6729
G01 X81.8266 Y15.6624
G01 X81.8233 Y15.6556
G01 X81.7844 Y15.5846
G01 X81.7804 Y15.5785
G01 X81.7739 Y15.5696
G01 X81.7693 Y15.5640
G01 X81.7618 Y15.5560
G01 X79.2841 Y13.0782
G01 X79.2719 Y13.0672
G01 X79.2482 Y13.0483
G01 X79.2390 Y13.0417
G01 X79.2293 Y13.0359
G01 X79.2227 Y13.0324
G01 X79.2123 Y13.0278
G01 X79.2017 Y13.0239
G01 X79.1240 Y13.0013
G01 X79.1169 Y12.9997
G01 X79.1060 Y12.9980
G01 X79.0988 Y12.9973
G01 X79.0878 Y12.9969
G01 X68.0309 Y12.9969
G01 X67.9588 Y12.9990
G01 X67.8887 Y12.9824
G01 X67.8224 Y12.9687
G01 X67.7619 Y12.9383
G01 X67.6965 Y12.9078
G01 X67.6447 Y12.8643
G01 X67.6225 Y12.8466
G01 X67.6117 Y12.8367
G01 X67.5829 Y12.8124
G01 X67.5723 Y12.7989
G01 X67.5580 Y12.7824
G01 X67.5529 Y12.7771
G01 X65.8540 Y11.0781
G01 X65.8425 Y11.0678
G01 X65.8065 Y11.0410
G01 X65.7972 Y11.0347
G01 X65.7843 Y11.0274
G01 X65.7706 Y11.0213
G01 X65.7601 Y11.0177
G01 X65.7493 Y11.0149
G01 X65.6772 Y11.0003
G01 X65.6663 Y10.9985
G01 X65.6518 Y10.9974
G01 X65.6371 Y10.9976
G01 X65.4800 Y11.0113
G01 X65.2801 Y10.9938
G01 X65.0863 Y10.9419
G01 X64.9044 Y10.8571
G01 X64.7400 Y10.7420
G01 X64.5981 Y10.6001
G01 X64.4830 Y10.4357
G01 X64.3982 Y10.2538
G01 X64.3462 Y10.0599
G01 X64.3287 Y9.8600
G01 X64.3462 Y9.6601
G01 X64.3982 Y9.4663
G01 X64.4830 Y9.2844
G01 X64.5981 Y9.1200
G01 X64.7400 Y8.9781
G01 X64.9044 Y8.8630
G01 X65.0863 Y8.7782
G01 X65.2801 Y8.7262
G01 X65.4800 Y8.7087
G01 X65.6799 Y8.7262
G01 X65.8738 Y8.7782
G01 X66.0557 Y8.8630
G01 X66.2201 Y8.9781
G00 Z2.0000
G00 X69.4833 Y9.4564
G01 F60.00
G01 Z-0.2000
G01 F120.00
G01 X69.5634 Y9.2846
G01 X69.6785 Y9.1203
G01 X69.8203 Y8.9785
G01 X69.9846 Y8.8634
G01 X70.1564 Y8.7833
G01 X70.1564 Y8.9971
G01 X70.1172 Y9.0156
G01 X70.1072 Y9.0208
G01 X70.0366 Y9.0631
G01 X70.0271 Y9.0693
G01 X69.9551 Y9.1229
G01 X69.8857 Y9.1857
G01 X69.8229 Y9.2551
G01 X69.7693 Y9.3271
G01 X69.7631 Y9.3366
G01 X69.7208 Y9.4072
G01 X69.7156 Y9.4172
G01 X69.6971 Y9.4564
G01 X69.4833 Y9.4564
G00 Z2.0000
G00 X69.4833 Y10.2636
G01 F60.00
G01 Z-0.2000
G01 F120.00
G01 X69.6971 Y10.2636
G01 X69.7156 Y10.3028
G01 X69.7208 Y10.3129
G01 X69.7631 Y10.3834
G01 X69.7693 Y10.3929
G01 X69.8229 Y10.4650
G01 X69.8857 Y10.5343
G01 X69.9551 Y10.5972
G01 X70.0271 Y10.6508
G01 X70.0366 Y10.6569
G01 X70.1072 Y10.6992
G01 X70.1172 Y10.7044
G01 X70.1564 Y10.7230
G01 X70.1564 Y10.9367
G01 X69.9846 Y10.8566
G01 X69.8203 Y10.7416
G01 X69.6785 Y10.5997
G01 X69.5634 Y10.4354
G01 X69.4833 Y10.2636
G00 Z2.0000
G00 X70.9636 Y10.9367
G01 F60.00
G01 Z-0.2000
G01 F120.00
G01 X70.9636 Y10.7230
G01 X71.0028 Y10.7044
G01 X71.0129 Y10.6992
G01 X71.0834 Y10.6569
G01 X71.0929 Y10.6508
G01 X71.1650 Y10.5972
G01 X71.2343 Y10.5343
G01 X71.2972 Y10.4650
G01 X71.3508 Y10.3929
G01 X71.3569 Y10.3834
G01 X71.3992 Y10.3129
G01 X71.4044 Y10.3028
G01 X71.4229 Y10.2636
G01 X71.6367 Y10.2636
G01 X71.5566 Y10.4354
G01 X71.4416 Y10.5997
G01 X71.2997 Y10.7416
G01 X71.1354 Y10.8566
G01 X70.9636 Y10.9367
G00 Z2.0000
G00 X70.9636 Y8.9971
G01 F60.00
G01 Z-0.2000
G01 F120.00
G01 X70.9636 Y8.7833
G01 X71.1354 Y8.8634
G01 X71.2997 Y8.9785
G01 X71.4416 Y9.1203
G01 X71.5566 Y9.2846
G01 X71.6367 Y9.4564
G01 X71.4230 Y9.4564
G01 X71.4044 Y9.4172
G01 X71.3992 Y9.4072
G01 X71.3569 Y9.3366
G01 X71.3508 Y9.3271
G01 X71.2972 Y9.2551
G01 X71.2343 Y9.1857
G01 X71.1650 Y9.1229
G01 X71.0929 Y9.0693
G01 X71.0834 Y9.0631
G01 X71.0129 Y9.0208
G01 X71.0028 Y9.0156
G01 X70.9636 Y8.9971
G00 Z2.0000
G00 X77.1218 Y14.3964
G01 F60.00
G01 Z-0.2000
G01 F120.00
G01 X77.2718 Y14.2334
G01 X77.4466 Y14.0974
G01 X77.6414 Y13.9920
G01 X77.7764 Y13.9456
G01 X77.7764 Y14.1511
G01 X77.7494 Y14.1608
G01 X77.7389 Y14.1650
G01 X77.6477 Y14.2081
G01 X77.6376 Y14.2133
G01 X77.5447 Y14.2692
G01 X77.4605 Y14.3314
G01 X77.4516 Y14.3384
G01 X77.3714 Y14.4114
G01 X77.2960 Y14.4945
G01 X77.2292 Y14.5847
G01 X77.1752 Y14.6744
G01 X77.1697 Y14.6843
G01 X77.1235 Y14.7824
G01 X77.0857 Y14.8881
G01 X77.0584 Y14.9969
G01 X77.0423 Y15.1042
G01 X77.0414 Y15.1155
G01 X77.0364 Y15.2200
G01 X77.0364 Y15.8064
G01 X76.8436 Y15.8064
G01 X76.8436 Y15.1647
G01 X76.8573 Y14.9993
G01 X76.9117 Y14.7846
G01 X77.0007 Y14.5818
G01 X77.1218 Y14.3964
G00 Z2.0000
G00 X78.5836 Y14.1511
G01 F60.00
G01 Z-0.2000
G01 F120.00
G01 X78.5836 Y13.9456
G01 X78.7187 Y13.9920
G01 X78.9135 Y14.0974
G01 X79.0882 Y14.2334
G01 X79.2382 Y14.3964
G01 X79.3594 Y14.5818
G01 X79.4483 Y14.7846
G01 X79.5027 Y14.9993
G01 X79.5164 Y15.1647
G01 X79.5164 Y15.8064
G01 X79.3236 Y15.8064
G01 X79.3236 Y15.2200
G01 X79.3187 Y15.1155
G01 X79.3177 Y15.1042
G01 X79.3017 Y14.9969
G01 X79.2744 Y14.8881
G01 X79.2366 Y14.7824
G01 X79.1920 Y14.6877
G01 X79.1868 Y14.6776
G01 X79.1309 Y14.5847
G01 X79.0640 Y14.4945
G01 X78.9887 Y14.4114
G01 X78.9084 Y14.3384
G01 X78.8996 Y14.3314
G01 X78.8154 Y14.2692
G01 X78.7224 Y14.2133
G01 X78.7124 Y14.2081
G01 X78.6211 Y14.1650
G01 X78.6106 Y14.1608
G01 X78.5836 Y14.1511
G00 Z2.0000
G00 X77.2718 Y18.1866
G01 F60.00
G01 Z-0.2000
G01 F120.00
G01 X77.1218 Y18.0237
G01 X77.0007 Y17.8383
G01 X76.9117 Y17.6354
G01 X76.8573 Y17.4207
G01 X76.8436 Y17.2553
G01 X76.8436 Y16.6136
G01 X77.0364 Y16.6136
G01 X77.0364 Y17.2000
G01 X77.0414 Y17.3046
G01 X77.0423 Y17.3159
G01 X77.0584 Y17.4231
G01 X77.0857 Y17.5320
G01 X77.1235 Y17.6377
G01 X77.1697 Y17.7358
G01 X77.1752 Y17.7457
G01 X77.2292 Y17.8354
G01 X77.2960 Y17.9255
G01 X77.3714 Y18.0087
G01 X77.4516 Y18.0816
G01 X77.4605 Y18.0887
G01 X77.5447 Y18.1509
G01 X77.6376 Y18.2068
G01 X77.6477 Y18.2120
G01 X77.7389 Y18.2551
G01 X77.7494 Y18.2593
G01 X77.7764 Y18.2689
G01 X77.7764 Y18.4744
G01 X77.6414 Y18.4281
G01 X77.4466 Y18.3226
G01 X77.2718 Y18.1866
G00 Z2.0000
G00 X78.5836 Y18.4744
G01 F60.00
G01 Z-0.2000
G01 F120.00
G01 X78.5836 Y18.2689
G01 X78.6106 Y18.2593
G01 X78.6211 Y18.2551
G01 X78.7124 Y18.2120
G01 X78.7224 Y18.2068
G01 X78.8154 Y18.1509
G01 X78.8996 Y18.0887
G01 X78.9084 Y18.0816
G01 X78.9887 Y18.0087
G01 X79.0640 Y17.9255
G01 X79.1309 Y17.8354
G01 X79.1849 Y17.7457
G01 X79.1903 Y17.7358
G01 X79.2366 Y17.6377
G01 X79.2744 Y17.5320
G01 X79.3017 Y17.4231
G01 X79.3177 Y17.3159
G01 X79.3187 Y17.3046
G01 X79.3236 Y17.2000
G01 X79.3236 Y16.6136
G01 X79.5164 Y16.6136
G01 X79.5164 Y17.2553
G01 X79.5027 Y17.4207
G01 X79.4483 Y17.6354
G01 X79.3594 Y17.8383
G01 X79.2382 Y18.0237
G01 X79.0882 Y18.1866
G01 X78.9135 Y18.3226
G01 X78.7187 Y18.4281
G01 X78.5836 Y18.4744
G00 Z2.0000
G00 X85.2879 Y29.2963
G01 F60.00
G01 Z-0.2000
G01 F120.00
G01 X85.3018 Y29.3021
G01 X85.3795 Y29.3390
G01 X85.4534 Y29.3831
G01 X85.4660 Y29.3915
G01 X85.5350 Y29.4429
G01 X85.5989 Y29.5005
G01 X85.6095 Y29.5112
G01 X85.6672 Y29.5751
G01 X85.7186 Y29.6441
G01 X85.7269 Y29.6566
G01 X85.7710 Y29.7305
G01 X85.8080 Y29.8082
G01 X85.8137 Y29.8221
G01 X85.8426 Y29.9032
G01 X85.8636 Y29.9866
G01 X85.8666 Y30.0014
G01 X85.8790 Y30.0866
G01 X85.8834 Y30.1725
G01 X85.8834 Y30.1876
G01 X85.8790 Y30.2735
G01 X85.8666 Y30.3586
G01 X85.8636 Y30.3734
G01 X85.8426 Y30.4568
G01 X85.8137 Y30.5379
G01 X85.8080 Y30.5518
G01 X85.7710 Y30.6295
G01 X85.7269 Y30.7034
G01 X85.7186 Y30.7160
G01 X85.6672 Y30.7850
G01 X85.6095 Y30.8489
G01 X85.5989 Y30.8595
G01 X85.5407 Y30.9122
G01 X85.5320 Y30.9195
G01 X85.4598 Y30.9729
G01 X85.3861 Y31.0173
G01 X85.3728 Y31.0244
G01 X85.2950 Y31.0610
G01 X85.2140 Y31.0902
G01 X85.1996 Y31.0946
G01 X85.1161 Y31.1153
G01 X85.0310 Y31.1281
G01 X85.0160 Y31.1296
G01 X84.9300 Y31.1336
G01 X84.1300 Y31.1336
G01 X84.0403 Y31.1294
G01 X84.0291 Y31.1281
G01 X83.9440 Y31.1153
G01 X83.8532 Y31.0926
G01 X83.7651 Y31.0610
G01 X83.6805 Y31.0210
G01 X83.6002 Y30.9729
G01 X83.5251 Y30.9172
G01 X83.4557 Y30.8543
G01 X83.3978 Y30.7907
G01 X83.3905 Y30.7820
G01 X83.3371 Y30.7098
G01 X83.2890 Y30.6295
G01 X83.2490 Y30.5450
G01 X83.2175 Y30.4568
G01 X83.1947 Y30.3661
G01 X83.1810 Y30.2735
G01 X83.1764 Y30.1800
G01 X83.1810 Y30.0866
G01 X83.1947 Y29.9940
G01 X83.2175 Y29.9032
G01 X83.2490 Y29.8151
G01 X83.2890 Y29.7305
G01 X83.3371 Y29.6502
G01 X83.3929 Y29.5751
G01 X83.4557 Y29.5057
G01 X83.5194 Y29.4478
G01 X83.5280 Y29.4405
G01 X83.6002 Y29.3871
G01 X83.6739 Y29.3427
G01 X83.6872 Y29.3356
G01 X83.7651 Y29.2990
G01 X83.8532 Y29.2675
G01 X83.9366 Y29.2464
G01 X83.9514 Y29.2435
G01 X84.0291 Y29.2319
G01 X84.0403 Y29.2307
G01 X84.1300 Y29.2264
G01 X84.9300 Y29.2264
G01 X85.0160 Y29.2305
G01 X85.0310 Y29.2319
G01 X85.1086 Y29.2435
G01 X85.1234 Y29.2464
G01 X85.2068 Y29.2675
G01 X85.2879 Y29.2963
G00 Z2.0000
G00 X83.2672 Y32.3163
G01 F60.00
G01 Z-0.2000
G01 F120.00
G01 X83.2856 Y32.2772
G01 X83.2908 Y32.2672
G01 X83.3351 Y32.1934
G01 X83.3415 Y32.1841
G01 X83.3905 Y32.1180
G01 X83.3978 Y32.1094
G01 X83.4557 Y32.0457
G01 X83.5222 Y31.9853
G01 X83.5310 Y31.9782
G01 X83.6002 Y31.9271
G01 X83.6805 Y31.8790
G01 X83.7651 Y31.8390
G01 X83.8532 Y31.8075
G01 X83.9366 Y31.7864
G01 X83.9514 Y31.7835
G01 X84.0366 Y31.7710
G01 X84.1263 Y31.7665
G01 X84.9300 Y31.7664
G01 X85.0160 Y31.7705
G01 X85.0272 Y31.7714
G01 X85.1161 Y31.7847
G01 X85.2068 Y31.8075
G01 X85.2950 Y31.8390
G01 X85.3728 Y31.8756
G01 X85.3861 Y31.8827
G01 X85.4534 Y31.9231
G01 X85.4660 Y31.9315
G01 X85.5350 Y31.9829
G01 X85.6043 Y32.0457
G01 X85.6672 Y32.1151
G01 X85.7186 Y32.1841
G01 X85.7269 Y32.1966
G01 X85.7673 Y32.2639
G01 X85.7744 Y32.2772
G01 X85.8110 Y32.3551
G01 X85.8426 Y32.4432
G01 X85.8653 Y32.5340
G01 X85.8786 Y32.6228
G01 X85.8796 Y32.6341
G01 X85.8834 Y32.7125
G01 X85.8834 Y32.7276
G01 X85.8790 Y32.8135
G01 X85.8653 Y32.9061
G01 X85.8426 Y32.9968
G01 X85.8137 Y33.0779
G01 X85.8080 Y33.0918
G01 X85.7744 Y33.1628
G01 X85.7673 Y33.1761
G01 X85.7229 Y33.2498
G01 X85.6672 Y33.3250
G01 X85.6043 Y33.3943
G01 X85.5407 Y33.4522
G01 X85.5290 Y33.4618
G01 X85.4660 Y33.5086
G01 X85.4534 Y33.5169
G01 X85.3795 Y33.5610
G01 X85.2984 Y33.5996
G01 X85.2879 Y33.6037
G01 X85.2068 Y33.6326
G01 X85.1161 Y33.6553
G01 X85.0235 Y33.6690
G01 X84.9376 Y33.6734
G01 X84.1263 Y33.6736
G01 X84.0366 Y33.6690
G01 X83.9440 Y33.6553
G01 X83.8532 Y33.6326
G01 X83.7651 Y33.6010
G01 X83.6805 Y33.5610
G01 X83.6066 Y33.5169
G01 X83.5971 Y33.5108
G01 X83.5251 Y33.4572
G01 X83.4612 Y33.3995
G01 X83.4531 Y33.3916
G01 X83.3978 Y33.3307
G01 X83.3905 Y33.3220
G01 X83.3393 Y33.2529
G01 X83.3351 Y33.2467
G01 X83.3235 Y33.2275
G01 X82.3937 Y34.1573
G01 X82.3937 Y40.1728
G01 X86.0855 Y43.8645
G01 X86.1072 Y43.8882
G01 X86.1167 Y43.8998
G01 X86.1357 Y43.9257
G01 X86.1524 Y43.9532
G01 X86.1595 Y43.9664
G01 X86.1730 Y43.9955
G01 X86.1840 Y44.0257
G01 X86.1874 Y44.0365
G01 X86.1960 Y44.0713
G01 X86.2009 Y44.1030
G01 X86.2024 Y44.1180
G01 X86.2037 Y44.1500
G01 X86.2037 Y48.4411
G01 X86.2306 Y48.4508
G01 X86.2411 Y48.4550
G01 X86.3358 Y48.4997
G01 X86.3457 Y48.5052
G01 X86.4290 Y48.5551
G01 X86.4385 Y48.5613
G01 X86.5255 Y48.6260
G01 X86.6032 Y48.6962
G01 X86.6139 Y48.7068
G01 X86.6816 Y48.7816
G01 X86.6887 Y48.7905
G01 X86.7509 Y48.8747
G01 X86.8049 Y48.9644
G01 X86.8120 Y48.9777
G01 X86.8566 Y49.0724
G01 X86.8920 Y49.1709
G01 X86.8964 Y49.1853
G01 X86.9200 Y49.2796
G01 X86.9229 Y49.2943
G01 X86.9381 Y49.3979
G01 X86.9436 Y49.5100
G01 X86.9436 Y51.4938
G01 X86.9381 Y51.6021
G01 X86.9217 Y51.7131
G01 X86.8944 Y51.8220
G01 X86.8593 Y51.9206
G01 X86.8535 Y51.9346
G01 X86.8120 Y52.0224
G01 X86.8049 Y52.0357
G01 X86.7509 Y52.1254
G01 X86.6887 Y52.2096
G01 X86.6791 Y52.2212
G01 X86.6087 Y52.2987
G01 X86.5255 Y52.3740
G01 X86.4354 Y52.4409
G01 X86.3391 Y52.4986
G01 X86.2377 Y52.5466
G01 X86.1320 Y52.5844
G01 X86.0231 Y52.6117
G01 X85.9159 Y52.6277
G01 X85.9046 Y52.6287
G01 X85.8000 Y52.6336
G01 X85.6879 Y52.6281
G01 X85.5769 Y52.6117
G01 X85.4681 Y52.5844
G01 X85.3624 Y52.5466
G01 X85.2609 Y52.4986
G01 X85.1647 Y52.4409
G01 X85.0745 Y52.3740
G01 X84.9914 Y52.2987
G01 X84.9160 Y52.2155
G01 X84.8492 Y52.1254
G01 X84.7915 Y52.0291
G01 X84.7435 Y51.9277
G01 X84.7057 Y51.8220
G01 X84.6784 Y51.7131
G01 X84.6629 Y51.6096
G01 X84.6616 Y51.5984
G01 X84.6564 Y51.4900
G01 X84.6564 Y49.5100
G01 X84.6619 Y49.3979
G01 X84.6771 Y49.2943
G01 X84.6792 Y49.2832
G01 X84.7037 Y49.1853
G01 X84.7080 Y49.1709
G01 X84.7435 Y49.0724
G01 X84.7881 Y48.9777
G01 X84.7952 Y48.9644
G01 X84.8492 Y48.8747
G01 X84.9114 Y48.7905
G01 X84.9184 Y48.7816
G01 X84.9862 Y48.7068
G01 X84.9968 Y48.6962
G01 X85.0745 Y48.6260
G01 X85.1616 Y48.5613
G01 X85.1710 Y48.5551
G01 X85.2544 Y48.5052
G01 X85.2643 Y48.4997
G01 X85.3589 Y48.4550
G01 X85.3694 Y48.4508
G01 X85.3963 Y48.4411
G01 X85.3963 Y44.3173
G01 X81.7019 Y40.6228
G01 X81.6779 Y40.5961
G01 X81.6565 Y40.5674
G01 X81.6503 Y40.5580
G01 X81.6377 Y40.5369
G01 X81.6306 Y40.5236
G01 X81.6170 Y40.4945
G01 X81.6037 Y40.4572
G01 X81.5941 Y40.4188
G01 X81.5887 Y40.3833
G01 X81.5877 Y40.3721
G01 X81.5863 Y40.3400
G01 X81.5863 Y33.9900
G01 X81.5882 Y33.9505
G01 X81.5941 Y33.9113
G01 X81.6037 Y33.8728
G01 X81.6143 Y33.8426
G01 X81.6201 Y33.8286
G01 X81.6340 Y33.7997
G01 X81.6503 Y33.7721
G01 X81.6587 Y33.7596
G01 X81.6779 Y33.7339
G01 X81.7019 Y33.7072
G01 X82.9772 Y32.4319
G01 X83.0039 Y32.4079
G01 X83.0357 Y32.3843
G01 X83.0697 Y32.3640
G01 X83.0986 Y32.3501
G01 X83.1090 Y32.3456
G01 X83.1428 Y32.3337
G01 X83.1739 Y32.3257
G01 X83.1850 Y32.3234
G01 X83.2130 Y32.3192
G01 X83.2242 Y32.3179
G01 X83.2525 Y32.3165
G01 X83.2672 Y32.3163
G00 Z2.0000
G00 X81.3911 Y33.9288
G01 F60.00
G01 Z-0.2000
G01 F120.00
G01 X81.4067 Y33.8630
G01 X81.4213 Y33.7924
G01 X81.4537 Y33.7279
G01 X81.4823 Y33.6665
G01 X81.5258 Y33.6147
G01 X81.5434 Y33.5925
G01 X81.5534 Y33.5817
G01 X81.5776 Y33.5529
G01 X81.5912 Y33.5423
G01 X81.6076 Y33.5280
G01 X81.6130 Y33.5229
G01 X82.8303 Y32.3057
G01 X82.8798 Y32.2532
G01 X82.9411 Y32.2153
G01 X82.9977 Y32.1781
G01 X83.0558 Y32.1589
G01 X83.0758 Y32.1514
G01 X83.0827 Y32.1482
G01 X83.0927 Y32.1429
G01 X83.1022 Y32.1369
G01 X83.1114 Y32.1301
G01 X83.1688 Y32.0842
G01 X83.1742 Y32.0793
G01 X83.1820 Y32.0716
G01 X83.1869 Y32.0662
G01 X83.1937 Y32.0576
G01 X83.2481 Y31.9800
G01 X83.3900 Y31.8381
G01 X83.5544 Y31.7230
G01 X83.6072 Y31.6982
G01 X83.6172 Y31.6923
G01 X83.6268 Y31.6858
G01 X83.6359 Y31.6785
G01 X83.6873 Y31.6340
G01 X83.6955 Y31.6263
G01 X83.7032 Y31.6180
G01 X83.7102 Y31.6092
G01 X83.7166 Y31.5999
G01 X83.7222 Y31.5901
G01 X83.7287 Y31.5765
G01 X83.7326 Y31.5659
G01 X83.7550 Y31.4918
G01 X83.7576 Y31.4806
G01 X83.7594 Y31.4693
G01 X83.7603 Y31.4579
G01 X83.7604 Y31.4465
G01 X83.7592 Y31.4313
G01 X83.7565 Y31.4163
G01 X83.7344 Y31.3381
G01 X83.7306 Y31.3273
G01 X83.7242 Y31.3134
G01 X83.7186 Y31.3034
G01 X83.7123 Y31.2939
G01 X83.7027 Y31.2820
G01 X83.6921 Y31.2711
G01 X83.6368 Y31.2224
G01 X83.6254 Y31.2132
G01 X83.6132 Y31.2052
G01 X83.6035 Y31.2000
G01 X83.5544 Y31.1771
G01 X83.3900 Y31.0620
G01 X83.2481 Y30.9201
G01 X83.1330 Y30.7557
G01 X83.0482 Y30.5738
G01 X82.9962 Y30.3799
G01 X82.9787 Y30.1800
G01 X82.9962 Y29.9801
G01 X83.0482 Y29.7863
G01 X83.1330 Y29.6044
G01 X83.2481 Y29.4400
G01 X83.3900 Y29.2981
G01 X83.5544 Y29.1830
G01 X83.7363 Y29.0982
G01 X83.9301 Y29.0462
G01 X84.0799 Y29.0331
G01 X84.9801 Y29.0331
G01 X85.1299 Y29.0462
G01 X85.3238 Y29.0982
G01 X85.5057 Y29.1830
G01 X85.6701 Y29.2981
G01 X85.8120 Y29.4400
G01 X85.9271 Y29.6044
G01 X86.0119 Y29.7863
G01 X86.0638 Y29.9801
G01 X86.0813 Y30.1800
G01 X86.0638 Y30.3799
G01 X86.0119 Y30.5738
G01 X85.9271 Y30.7557
G01 X85.8120 Y30.9201
G01 X85.6701 Y31.0620
G01 X85.5057 Y31.1771
G01 X85.4563 Y31.2001
G01 X85.4461 Y31.2057
G01 X85.4364 Y31.2120
G01 X85.4242 Y31.2216
G01 X85.3728 Y31.2661
G01 X85.3619 Y31.2765
G01 X85.3521 Y31.2879
G01 X85.3435 Y31.3002
G01 X85.3361 Y31.3133
G01 X85.3314 Y31.3236
G01 X85.3287 Y31.3306
G01 X85.3041 Y31.4120
G01 X85.3018 Y31.4232
G01 X85.3007 Y31.4307
G01 X85.2997 Y31.4421
G01 X85.2996 Y31.4497
G01 X85.3004 Y31.4650
G01 X85.3020 Y31.4763
G01 X85.3035 Y31.4838
G01 X85.3269 Y31.5656
G01 X85.3325 Y31.5798
G01 X85.3395 Y31.5934
G01 X85.3478 Y31.6061
G01 X85.3573 Y31.6181
G01 X85.3652 Y31.6263
G01 X85.3708 Y31.6315
G01 X85.4260 Y31.6801
G01 X85.4376 Y31.6889
G01 X85.4469 Y31.6948
G01 X85.4565 Y31.7000
G01 X85.5057 Y31.7230
G01 X85.6701 Y31.8381
G01 X85.8120 Y31.9800
G01 X85.9271 Y32.1444
G01 X86.0119 Y32.3263
G01 X86.0638 Y32.5201
G01 X86.0813 Y32.7200
G01 X86.0638 Y32.9199
G01 X86.0119 Y33.1138
G01 X85.9271 Y33.2957
G01 X85.8120 Y33.4601
G01 X85.6701 Y33.6020
G01 X85.5057 Y33.7171
G01 X85.4529 Y33.7419
G01 X85.4428 Y33.7477
G01 X85.4332 Y33.7543
G01 X85.4242 Y33.7616
G01 X85.3728 Y33.8061
G01 X85.3645 Y33.8138
G01 X85.3569 Y33.8221
G01 X85.3498 Y33.8309
G01 X85.3435 Y33.8402
G01 X85.3396 Y33.8466
G01 X85.3329 Y33.8601
G01 X85.3275 Y33.8741
G01 X85.3041 Y33.9520
G01 X85.3018 Y33.9632
G01 X85.3002 Y33.9745
G01 X85.2996 Y33.9859
G01 X85.3000 Y34.0012
G01 X85.3020 Y34.0163
G01 X85.3044 Y34.0275
G01 X85.3246 Y34.0983
G01 X85.3295 Y34.1128
G01 X85.3358 Y34.1267
G01 X85.3395 Y34.1334
G01 X85.3456 Y34.1430
G01 X85.3500 Y34.1492
G01 X85.3573 Y34.1581
G01 X85.3680 Y34.1690
G01 X85.4260 Y34.2201
G01 X85.4347 Y34.2268
G01 X85.4438 Y34.2329
G01 X85.4565 Y34.2400
G01 X85.5057 Y34.2630
G01 X85.5779 Y34.3136
G01 X85.5911 Y34.3219
G01 X85.6223 Y34.3383
G01 X85.6324 Y34.3432
G01 X85.6464 Y34.3484
G01 X85.6571 Y34.3515
G01 X85.6681 Y34.3538
G01 X85.6791 Y34.3553
G01 X85.7563 Y34.3608
G01 X85.7678 Y34.3609
G01 X85.7754 Y34.3605
G01 X85.7830 Y34.3597
G01 X85.7943 Y34.3578
G01 X85.8054 Y34.3551
G01 X85.8127 Y34.3529
G01 X85.8234 Y34.3488
G01 X85.8303 Y34.3456
G01 X85.8984 Y34.3087
G01 X85.9079 Y34.3031
G01 X85.9139 Y34.2990
G01 X85.9254 Y34.2899
G01 X85.9334 Y34.2825
G01 X87.6618 Y32.5541
G01 X87.6702 Y32.5450
G01 X87.6940 Y32.5152
G01 X87.7023 Y32.5026
G01 X87.7077 Y32.4927
G01 X87.7123 Y32.4823
G01 X87.7161 Y32.4717
G01 X87.7379 Y32.3976
G01 X87.7403 Y32.3869
G01 X87.7420 Y32.3760
G01 X87.7430 Y32.3651
G01 X87.7431 Y32.3578
G01 X87.7431 Y23.8409
G01 X87.7411 Y23.7688
G01 X87.7577 Y23.6986
G01 X87.7713 Y23.6324
G01 X87.8037 Y23.5679
G01 X87.8323 Y23.5065
G01 X87.8758 Y23.4547
G01 X87.8934 Y23.4325
G01 X87.9034 Y23.4217
G01 X87.9276 Y23.3929
G01 X87.9412 Y23.3823
G01 X87.9576 Y23.3680
G01 X87.9630 Y23.3629
G01 X91.4747 Y19.8511
G01 X91.4828 Y19.8418
G01 X91.5040 Y19.8152
G01 X91.5123 Y19.8026
G01 X91.5193 Y19.7893
G01 X91.5236 Y19.7788
G01 X91.5272 Y19.7681
G01 X91.5479 Y19.6976
G01 X91.5503 Y19.6869
G01 X91.5516 Y19.6797
G01 X91.5527 Y19.6688
G01 X91.5531 Y19.6578
G01 X91.5531 Y18.8488
G01 X91.5517 Y18.8212
G01 X91.5503 Y18.8099
G01 X91.5490 Y18.8025
G01 X91.5462 Y18.7914
G01 X91.5439 Y18.7842
G01 X91.5398 Y18.7736
G01 X91.5108 Y18.7059
G01 X91.5038 Y18.6924
G01 X91.4954 Y18.6796
G01 X91.4859 Y18.6677
G01 X91.4779 Y18.6595
G01 X91.4694 Y18.6518
G01 X91.4604 Y18.6448
G01 X91.3994 Y18.6035
G01 X91.3863 Y18.5956
G01 X91.3726 Y18.5890
G01 X91.3582 Y18.5838
G01 X91.3434 Y18.5801
G01 X91.3284 Y18.5778
G01 X91.3169 Y18.5771
G01 X91.2471 Y18.5755
G01 X91.2361 Y18.5756
G01 X91.2252 Y18.5765
G01 X91.2144 Y18.5782
G01 X91.2037 Y18.5807
G01 X91.0799 Y18.6138
G01 X90.8800 Y18.6313
G01 X90.6801 Y18.6138
G01 X90.4863 Y18.5619
G01 X90.3044 Y18.4771
G01 X90.1400 Y18.3620
G01 X89.9981 Y18.2201
G01 X89.8830 Y18.0557
G01 X89.7982 Y17.8738
G01 X89.7462 Y17.6799
G01 X89.7287 Y17.4800
G01 X89.7462 Y17.2801
G01 X89.7982 Y17.0863
G01 X89.8830 Y16.9044
G01 X89.9981 Y16.7400
G01 X90.1400 Y16.5981
G01 X90.3044 Y16.4830
G01 X90.4863 Y16.3982
G01 X90.6801 Y16.3462
G01 X90.8800 Y16.3287
G01 X91.0799 Y16.3462
G01 X91.2738 Y16.3982
G01 X91.4557 Y16.4830
G01 X91.6201 Y16.5981
G01 X91.7620 Y16.7400
G01 X91.7837 Y16.7708
G01 X91.7884 Y16.7765
G01 X91.7960 Y16.7848
G01 X91.8359 Y16.8231
G01 X91.8472 Y16.8325
G01 X91.8563 Y16.8389
G01 X91.8690 Y16.8463
G01 X91.8824 Y16.8524
G01 X91.8928 Y16.8561
G01 X91.9705 Y16.8788
G01 X91.9848 Y16.8816
G01 X91.9994 Y16.8830
G01 X93.3846 Y16.8831
G01 X93.4000 Y16.8826
G01 X93.4375 Y16.8793
G01 X93.4546 Y16.8814
G01 X93.4763 Y16.8829
G01 X93.4837 Y16.8831
G01 X94.8334 Y16.8831
G01 X94.8445 Y16.8827
G01 X94.8557 Y16.8815
G01 X94.9136 Y16.8702
G01 X94.9279 Y16.8663
G01 X94.9416 Y16.8611
G01 X94.9516 Y16.8563
G01 X94.9612 Y16.8509
G01 X94.9734 Y16.8425
G01 X95.0308 Y16.7966
G01 X95.0418 Y16.7870
G01 X95.0494 Y16.7791
G01 X95.0564 Y16.7706
G01 X95.0781 Y16.7400
G01 X95.2200 Y16.5981
G01 X95.3844 Y16.4830
G01 X95.5663 Y16.3982
G01 X95.7601 Y16.3462
G01 X95.9600 Y16.3287
G01 X96.1599 Y16.3462
G01 X96.3538 Y16.3982
G01 X96.5357 Y16.4830
G01 X96.7001 Y16.5981
G01 X96.8420 Y16.7400
G01 X96.9571 Y16.9044
G01 X97.0419 Y17.0863
G01 X97.0938 Y17.2801
G01 X97.1113 Y17.4800
G01 X97.0938 Y17.6799
G01 X97.0419 Y17.8738
G01 X96.9571 Y18.0557
G01 X96.8420 Y18.2201
G01 X96.7001 Y18.3620
G01 X96.5357 Y18.4771
G01 X96.3538 Y18.5619
G01 X96.1599 Y18.6138
G01 X95.9600 Y18.6313
G01 X95.7601 Y18.6138
G01 X95.5663 Y18.5619
G01 X95.3844 Y18.4771
G01 X95.2200 Y18.3620
G01 X95.0781 Y18.2201
G01 X95.0563 Y18.1893
G01 X95.0492 Y18.1807
G01 X95.0440 Y18.1753
G01 X95.0041 Y18.1369
G01 X94.9928 Y18.1275
G01 X94.9838 Y18.1212
G01 X94.9743 Y18.1155
G01 X94.9644 Y18.1106
G01 X94.9542 Y18.1063
G01 X94.9437 Y18.1028
G01 X94.8766 Y18.0831
G01 X94.8660 Y18.0804
G01 X94.8552 Y18.0785
G01 X94.8480 Y18.0776
G01 X94.8334 Y18.0769
G01 X93.7740 Y18.0771
G01 X93.7395 Y18.0806
G01 X93.7283 Y18.0823
G01 X93.7136 Y18.0857
G01 X93.6993 Y18.0906
G01 X93.6856 Y18.0968
G01 X93.6210 Y18.1320
G01 X93.6115 Y18.1376
G01 X93.6025 Y18.1439
G01 X93.5940 Y18.1508
G01 X93.5860 Y18.1582
G01 X92.8282 Y18.9160
G01 X92.8199 Y18.9250
G01 X92.7960 Y18.9548
G01 X92.7917 Y18.9610
G01 X92.7859 Y18.9707
G01 X92.7792 Y18.9842
G01 X92.7764 Y18.9912
G01 X92.7728 Y19.0019
G01 X92.7522 Y19.0725
G01 X92.7504 Y19.0796
G01 X92.7485 Y19.0904
G01 X92.7476 Y19.0977
G01 X92.7470 Y19.1086
G01 X92.7469 Y20.0091
G01 X92.7490 Y20.0812
G01 X92.7324 Y20.1514
G01 X92.7187 Y20.2177
G01 X92.6864 Y20.2822
G01 X92.6578 Y20.3435
G01 X92.6143 Y20.3953
G01 X92.5966 Y20.4176
G01 X92.5866 Y20.4284
G01 X92.5624 Y20.4571
G01 X92.5489 Y20.4678
G01 X92.5324 Y20.4820
G01 X92.5271 Y20.4871
G01 X89.0182 Y23.9960
G01 X89.0099 Y24.0050
G01 X88.9860 Y24.0348
G01 X88.9797 Y24.0442
G01 X88.9724 Y24.0574
G01 X88.9678 Y24.0677
G01 X88.9639 Y24.0783
G01 X88.9422 Y24.1525
G01 X88.9397 Y24.1632
G01 X88.9385 Y24.1704
G01 X88.9373 Y24.1813
G01 X88.9369 Y24.1923
G01 X88.9369 Y32.7091
G01 X88.9390 Y32.7812
G01 X88.9224 Y32.8514
G01 X88.9087 Y32.9177
G01 X88.8764 Y32.9822
G01 X88.8478 Y33.0435
G01 X88.8043 Y33.0953
G01 X88.7866 Y33.1176
G01 X88.7766 Y33.1284
G01 X88.7524 Y33.1571
G01 X88.7389 Y33.1678
G01 X88.7224 Y33.1820
G01 X88.7171 Y33.1871
G01 X86.2298 Y35.6744
G01 X86.1803 Y35.7268
G01 X86.1189 Y35.7647
G01 X86.0624 Y35.8019
G01 X86.0043 Y35.8212
G01 X85.9913 Y35.8259
G01 X85.9808 Y35.8302
G01 X85.9674 Y35.8371
G01 X85.9578 Y35.8432
G01 X85.9487 Y35.8499
G01 X85.8941 Y35.8936
G01 X85.8831 Y35.9032
G01 X85.8731 Y35.9139
G01 X85.8663 Y35.9225
G01 X85.8120 Y36.0001
G01 X85.6701 Y36.1420
G01 X85.6507 Y36.1557
G01 X85.6346 Y36.1687
G01 X85.6258 Y36.1764
G01 X85.6150 Y36.1876
G01 X85.6077 Y36.1968
G01 X85.6011 Y36.2064
G01 X85.5634 Y36.2698
G01 X85.5580 Y36.2799
G01 X85.5519 Y36.2939
G01 X85.5472 Y36.3084
G01 X85.5440 Y36.3233
G01 X85.5422 Y36.3384
G01 X85.5420 Y36.3537
G01 X85.5447 Y36.4273
G01 X85.5458 Y36.4387
G01 X85.5478 Y36.4500
G01 X85.5506 Y36.4611
G01 X85.5542 Y36.4719
G01 X85.5603 Y36.4859
G01 X85.5657 Y36.4960
G01 X85.5719 Y36.5056
G01 X85.6117 Y36.5630
G01 X85.6186 Y36.5722
G01 X85.6288 Y36.5835
G01 X85.6343 Y36.5888
G01 X85.6430 Y36.5962
G01 X85.6522 Y36.6029
G01 X85.6587 Y36.6070
G01 X85.6653 Y36.6108
G01 X85.6756 Y36.6158
G01 X85.7436 Y36.6441
G01 X85.7539 Y36.6479
G01 X85.7644 Y36.6510
G01 X85.7752 Y36.6533
G01 X85.8019 Y36.6566
G01 X85.8980 Y36.6924
G01 X85.9778 Y36.7522
G01 X86.0376 Y36.8321
G01 X86.0735 Y36.9281
G01 X86.0769 Y36.9604
G01 X86.0769 Y38.6397
G01 X86.0735 Y38.6719
G01 X86.0376 Y38.7680
G01 X85.9778 Y38.8478
G01 X85.8980 Y38.9076
G01 X85.8019 Y38.9435
G01 X85.7697 Y38.9469
G01 X83.2904 Y38.9469
G01 X83.2581 Y38.9435
G01 X83.1621 Y38.9076
G01 X83.0816 Y38.8474
G01 X83.0555 Y38.8192
G01 X83.0501 Y38.8139
G01 X83.0416 Y38.8065
G01 X83.0356 Y38.8020
G01 X83.0262 Y38.7957
G01 X83.0129 Y38.7885
G01 X82.9460 Y38.7578
G01 X82.9354 Y38.7535
G01 X82.9282 Y38.7510
G01 X82.9134 Y38.7472
G01 X82.8984 Y38.7448
G01 X82.8869 Y38.7440
G01 X82.8717 Y38.7443
G01 X82.8603 Y38.7455
G01 X82.7912 Y38.7554
G01 X82.7836 Y38.7567
G01 X82.7725 Y38.7593
G01 X82.7616 Y38.7628
G01 X82.7545 Y38.7655
G01 X82.7407 Y38.7720
G01 X82.7276 Y38.7798
G01 X82.7153 Y38.7889
G01 X82.6540 Y38.8423
G01 X82.6435 Y38.8534
G01 X82.6387 Y38.8593
G01 X82.6320 Y38.8686
G01 X82.6261 Y38.8784
G01 X82.6225 Y38.8851
G01 X82.6179 Y38.8956
G01 X82.6152 Y38.9027
G01 X82.5931 Y38.9770
G01 X82.5904 Y38.9876
G01 X82.5885 Y38.9984
G01 X82.5873 Y39.0093
G01 X82.5869 Y39.0203
G01 X82.5871 Y39.9860
G01 X82.5906 Y40.0206
G01 X82.5923 Y40.0318
G01 X82.5957 Y40.0464
G01 X82.6006 Y40.0607
G01 X82.6068 Y40.0744
G01 X82.6420 Y40.1391
G01 X82.6476 Y40.1485
G01 X82.6539 Y40.1575
G01 X82.6608 Y40.1661
G01 X82.6682 Y40.1741
G01 X86.2144 Y43.7203
G01 X86.2668 Y43.7698
G01 X86.3044 Y43.8307
G01 X86.3419 Y43.8877
G01 X86.3632 Y43.9519
G01 X86.3878 Y44.0197
G01 X86.3937 Y44.0871
G01 X86.3969 Y44.1153
G01 X86.3975 Y44.1300
G01 X86.4007 Y44.1675
G01 X86.3986 Y44.1846
G01 X86.3971 Y44.2063
G01 X86.3969 Y44.2137
G01 X86.3969 Y48.1475
G01 X86.3977 Y48.1630
G01 X86.3987 Y48.1706
G01 X86.4009 Y48.1820
G01 X86.4172 Y48.2456
G01 X86.4203 Y48.2564
G01 X86.4258 Y48.2702
G01 X86.4325 Y48.2835
G01 X86.4384 Y48.2930
G01 X86.4473 Y48.3050
G01 X86.4574 Y48.3160
G01 X86.5052 Y48.3638
G01 X86.5167 Y48.3742
G01 X86.5242 Y48.3801
G01 X86.5309 Y48.3848
G01 X86.7086 Y48.5231
G01 X86.8586 Y48.6861
G01 X86.9799 Y48.8718
G01 X87.0688 Y49.0744
G01 X87.1232 Y49.2892
G01 X87.1369 Y49.4547
G01 X87.1369 Y51.5453
G01 X87.1232 Y51.7108
G01 X87.0688 Y51.9256
G01 X86.9798 Y52.1285
G01 X86.8586 Y52.3140
G01 X86.7086 Y52.4770
G01 X86.5337 Y52.6131
G01 X86.3389 Y52.7185
G01 X86.1293 Y52.7905
G01 X85.9108 Y52.8269
G01 X85.6892 Y52.8269
G01 X85.4707 Y52.7905
G01 X85.2612 Y52.7185
G01 X85.0663 Y52.6131
G01 X84.8915 Y52.4770
G01 X84.7414 Y52.3140
G01 X84.6202 Y52.1285
G01 X84.5312 Y51.9256
G01 X84.4768 Y51.7108
G01 X84.4631 Y51.5453
G01 X84.4631 Y49.4547
G01 X84.4768 Y49.2892
G01 X84.5312 Y49.0744
G01 X84.6202 Y48.8715
G01 X84.7414 Y48.6861
G01 X84.8915 Y48.5231
G01 X85.0692 Y48.3848
G01 X85.0833 Y48.3742
G01 X85.0918 Y48.3668
G01 X85.1370 Y48.3246
G01 X85.1448 Y48.3165
G01 X85.1496 Y48.3107
G01 X85.1563 Y48.3017
G01 X85.1642 Y48.2889
G01 X85.1693 Y48.2789
G01 X85.1749 Y48.2650
G01 X85.1979 Y48.1873
G01 X85.2003 Y48.1766
G01 X85.2024 Y48.1621
G01 X85.2031 Y48.1475
G01 X85.2031 Y44.5123
G01 X85.2026 Y44.4999
G01 X85.1984 Y44.4620
G01 X85.1953 Y44.4472
G01 X85.1933 Y44.4400
G01 X85.1895 Y44.4293
G01 X85.1850 Y44.4190
G01 X85.1815 Y44.4123
G01 X85.1444 Y44.3446
G01 X85.1383 Y44.3355
G01 X85.1339 Y44.3296
G01 X85.1293 Y44.3240
G01 X85.1218 Y44.3160
G01 X81.5757 Y40.7698
G01 X81.5232 Y40.7203
G01 X81.4853 Y40.6589
G01 X81.4481 Y40.6024
G01 X81.4254 Y40.5339
G01 X81.4022 Y40.4703
G01 X81.3963 Y40.4029
G01 X81.3931 Y40.3747
G01 X81.3926 Y40.3601
G01 X81.3893 Y40.3225
G01 X81.3914 Y40.3054
G01 X81.3929 Y40.2838
G01 X81.3931 Y40.2763
G01 X81.3931 Y34.0009
G01 X81.3911 Y33.9288
G00 Z2.0000
G00 X77.3100 Y34.3064
G01 F60.00
G01 Z-0.2000
G01 F120.00
G01 X77.3960 Y34.3105
G01 X77.4110 Y34.3119
G01 X77.4961 Y34.3247
G01 X77.5868 Y34.3475
G01 X77.6679 Y34.3763
G01 X77.6818 Y34.3821
G01 X77.7595 Y34.4190
G01 X77.8334 Y34.4631
G01 X77.8460 Y34.4715
G01 X77.9150 Y34.5229
G01 X77.9789 Y34.5805
G01 X77.9895 Y34.5912
G01 X78.0472 Y34.6551
G01 X78.0986 Y34.7241
G01 X78.1069 Y34.7366
G01 X78.1473 Y34.8039
G01 X78.1544 Y34.8172
G01 X78.1910 Y34.8951
G01 X78.2202 Y34.9761
G01 X78.2246 Y34.9905
G01 X78.2453 Y35.0740
G01 X78.2590 Y35.1666
G01 X78.2634 Y35.2525
G01 X78.2634 Y35.2676
G01 X78.2590 Y35.3535
G01 X78.2466 Y35.4386
G01 X78.2436 Y35.4534
G01 X78.2226 Y35.5368
G01 X78.1910 Y35.6250
G01 X78.1544 Y35.7028
G01 X78.1473 Y35.7161
G01 X78.1029 Y35.7898
G01 X78.0472 Y35.8650
G01 X77.9843 Y35.9343
G01 X77.9150 Y35.9972
G01 X77.8398 Y36.0529
G01 X77.7595 Y36.1010
G01 X77.6750 Y36.1410
G01 X77.5868 Y36.1726
G01 X77.4961 Y36.1953
G01 X77.4110 Y36.2081
G01 X77.3997 Y36.2094
G01 X77.3100 Y36.2136
G01 X76.5100 Y36.2136
G01 X76.4241 Y36.2096
G01 X76.4091 Y36.2081
G01 X76.3240 Y36.1953
G01 X76.2405 Y36.1746
G01 X76.2261 Y36.1702
G01 X76.1451 Y36.1410
G01 X76.0605 Y36.1010
G01 X75.9866 Y36.0569
G01 X75.9741 Y36.0486
G01 X75.9051 Y35.9972
G01 X75.8357 Y35.9343
G01 X75.7729 Y35.8650
G01 X75.7171 Y35.7898
G01 X75.6690 Y35.7095
G01 X75.6290 Y35.6250
G01 X75.5975 Y35.5368
G01 X75.5747 Y35.4461
G01 X75.5610 Y35.3535
G01 X75.5564 Y35.2600
G01 X75.5610 Y35.1666
G01 X75.5747 Y35.0740
G01 X75.5975 Y34.9832
G01 X75.6290 Y34.8951
G01 X75.6690 Y34.8105
G01 X75.7171 Y34.7302
G01 X75.7729 Y34.6551
G01 X75.8357 Y34.5857
G01 X75.8994 Y34.5278
G01 X75.9110 Y34.5182
G01 X75.9741 Y34.4715
G01 X75.9866 Y34.4631
G01 X76.0605 Y34.4190
G01 X76.1451 Y34.3790
G01 X76.2332 Y34.3475
G01 X76.3203 Y34.3255
G01 X76.3314 Y34.3235
G01 X76.4166 Y34.3110
G01 X76.5063 Y34.3065
G01 X77.3100 Y34.3064
G00 Z2.0000
G00 X85.7365 Y34.7526
G01 F60.00
G01 Z-0.2000
G01 F120.00
G01 X87.9363 Y32.5528
G01 X87.9363 Y23.8300
G01 X87.9382 Y23.7905
G01 X87.9441 Y23.7513
G01 X87.9537 Y23.7128
G01 X87.9656 Y23.6790
G01 X87.9701 Y23.6686
G01 X87.9840 Y23.6397
G01 X88.0043 Y23.6057
G01 X88.0279 Y23.5739
G01 X88.0545 Y23.5445
G01 X91.7463 Y19.8528
G01 X91.7463 Y18.7463
G01 X91.7482 Y18.7105
G01 X91.7534 Y18.6750
G01 X91.7557 Y18.6639
G01 X91.7617 Y18.6401
G01 X91.7660 Y18.6257
G01 X91.7756 Y18.5990
G01 X91.7801 Y18.5886
G01 X91.7940 Y18.5597
G01 X91.8103 Y18.5321
G01 X91.8165 Y18.5226
G01 X91.8356 Y18.4968
G01 X91.8429 Y18.4882
G01 X91.8593 Y18.4700
G01 X92.4453 Y17.8837
G01 X91.7429 Y17.8837
G01 X91.7244 Y17.9228
G01 X91.7192 Y17.9329
G01 X91.6750 Y18.0067
G01 X91.6686 Y18.0160
G01 X91.6195 Y18.0820
G01 X91.6122 Y18.0907
G01 X91.5543 Y18.1543
G01 X91.4907 Y18.2122
G01 X91.4820 Y18.2195
G01 X91.4098 Y18.2729
G01 X91.3361 Y18.3173
G01 X91.3228 Y18.3244
G01 X91.2450 Y18.3610
G01 X91.1640 Y18.3902
G01 X91.1496 Y18.3946
G01 X91.0734 Y18.4136
G01 X91.0586 Y18.4166
G01 X90.9810 Y18.4281
G01 X90.9660 Y18.4296
G01 X90.8800 Y18.4336
G01 X90.7866 Y18.4290
G01 X90.7014 Y18.4166
G01 X90.6866 Y18.4136
G01 X90.6032 Y18.3926
G01 X90.5221 Y18.3637
G01 X90.5082 Y18.3580
G01 X90.4305 Y18.3210
G01 X90.3502 Y18.2729
G01 X90.2751 Y18.2172
G01 X90.2057 Y18.1543
G01 X90.1429 Y18.0850
G01 X90.0871 Y18.0098
G01 X90.0390 Y17.9295
G01 X90.0021 Y17.8518
G01 X89.9963 Y17.8379
G01 X89.9675 Y17.7568
G01 X89.9464 Y17.6734
G01 X89.9435 Y17.6586
G01 X89.9319 Y17.5810
G01 X89.9305 Y17.5660
G01 X89.9264 Y17.4800
G01 X89.9305 Y17.3941
G01 X89.9319 Y17.3791
G01 X89.9447 Y17.2940
G01 X89.9675 Y17.2032
G01 X89.9990 Y17.1151
G01 X90.0356 Y17.0372
G01 X90.0427 Y17.0239
G01 X90.0871 Y16.9502
G01 X90.1382 Y16.8810
G01 X90.1478 Y16.8694
G01 X90.2005 Y16.8112
G01 X90.2112 Y16.8005
G01 X90.2751 Y16.7429
G01 X90.3502 Y16.6871
G01 X90.4239 Y16.6427
G01 X90.4372 Y16.6356
G01 X90.5151 Y16.5990
G01 X90.5961 Y16.5699
G01 X90.6105 Y16.5655
G01 X90.6940 Y16.5447
G01 X90.7791 Y16.5319
G01 X90.7941 Y16.5305
G01 X90.8800 Y16.5264
G01 X90.9660 Y16.5305
G01 X90.9810 Y16.5319
G01 X91.0661 Y16.5447
G01 X91.1568 Y16.5675
G01 X91.2379 Y16.5963
G01 X91.2518 Y16.6021
G01 X91.3228 Y16.6356
G01 X91.3329 Y16.6408
G01 X91.4098 Y16.6871
G01 X91.4790 Y16.7382
G01 X91.4907 Y16.7478
G01 X91.5489 Y16.8005
G01 X91.5570 Y16.8084
G01 X91.6172 Y16.8751
G01 X91.6708 Y16.9471
G01 X91.6769 Y16.9566
G01 X91.7192 Y17.0272
G01 X91.7244 Y17.0372
G01 X91.7429 Y17.0763
G01 X95.0972 Y17.0763
G01 X95.1156 Y17.0372
G01 X95.1208 Y17.0272
G01 X95.1651 Y16.9534
G01 X95.1715 Y16.9441
G01 X95.2205 Y16.8780
G01 X95.2278 Y16.8694
G01 X95.2857 Y16.8057
G01 X95.3522 Y16.7453
G01 X95.3610 Y16.7382
G01 X95.4302 Y16.6871
G01 X95.5105 Y16.6390
G01 X95.5951 Y16.5990
G01 X95.6796 Y16.5686
G01 X95.6905 Y16.5655
G01 X95.7740 Y16.5447
G01 X95.8666 Y16.5310
G01 X95.9600 Y16.5264
G01 X96.0535 Y16.5310
G01 X96.1461 Y16.5447
G01 X96.2368 Y16.5675
G01 X96.3250 Y16.5990
G01 X96.4028 Y16.6356
G01 X96.4161 Y16.6427
G01 X96.4834 Y16.6831
G01 X96.4960 Y16.6915
G01 X96.5650 Y16.7429
G01 X96.6289 Y16.8005
G01 X96.6395 Y16.8112
G01 X96.6972 Y16.8751
G01 X96.7529 Y16.9502
G01 X96.8010 Y17.0305
G01 X96.8380 Y17.1082
G01 X96.8437 Y17.1221
G01 X96.8726 Y17.2032
G01 X96.8936 Y17.2866
G01 X96.8966 Y17.3014
G01 X96.9081 Y17.3791
G01 X96.9096 Y17.3941
G01 X96.9136 Y17.4800
G01 X96.9090 Y17.5735
G01 X96.8953 Y17.6661
G01 X96.8746 Y17.7496
G01 X96.8702 Y17.7640
G01 X96.8437 Y17.8379
G01 X96.8380 Y17.8518
G01 X96.8010 Y17.9295
G01 X96.7569 Y18.0034
G01 X96.7486 Y18.0160
G01 X96.6972 Y18.0850
G01 X96.6395 Y18.1489
G01 X96.6316 Y18.1570
G01 X96.5650 Y18.2172
G01 X96.4960 Y18.2686
G01 X96.4834 Y18.2769
G01 X96.4161 Y18.3173
G01 X96.4028 Y18.3244
G01 X96.3250 Y18.3610
G01 X96.2440 Y18.3902
G01 X96.2296 Y18.3946
G01 X96.1461 Y18.4153
G01 X96.0535 Y18.4290
G01 X95.9600 Y18.4336
G01 X95.8666 Y18.4290
G01 X95.7814 Y18.4166
G01 X95.7666 Y18.4136
G01 X95.6832 Y18.3926
G01 X95.6021 Y18.3637
G01 X95.5882 Y18.3580
G01 X95.5105 Y18.3210
G01 X95.4366 Y18.2769
G01 X95.4271 Y18.2708
G01 X95.3551 Y18.2172
G01 X95.2912 Y18.1595
G01 X95.2805 Y18.1489
G01 X95.2253 Y18.0879
G01 X95.2182 Y18.0790
G01 X95.1715 Y18.0160
G01 X95.1651 Y18.0067
G01 X95.1208 Y17.9329
G01 X95.1156 Y17.9228
G01 X95.0972 Y17.8837
G01 X93.5873 Y17.8837
G01 X92.5537 Y18.9173
G01 X92.5537 Y20.0200
G01 X92.5521 Y20.0558
G01 X92.5509 Y20.0671
G01 X92.5473 Y20.0914
G01 X92.5443 Y20.1061
G01 X92.5364 Y20.1372
G01 X92.5230 Y20.1745
G01 X92.5095 Y20.2036
G01 X92.5024 Y20.2169
G01 X92.4857 Y20.2443
G01 X92.4645 Y20.2732
G01 X92.4572 Y20.2819
G01 X92.4355 Y20.3055
G01 X88.7437 Y23.9973
G01 X88.7437 Y32.7200
G01 X88.7418 Y32.7596
G01 X88.7373 Y32.7914
G01 X88.7343 Y32.8061
G01 X88.7264 Y32.8372
G01 X88.7157 Y32.8675
G01 X88.7115 Y32.8780
G01 X88.6995 Y32.9036
G01 X88.6924 Y32.9169
G01 X88.6778 Y32.9412
G01 X88.6714 Y32.9505
G01 X88.6521 Y32.9761
G01 X88.6255 Y33.0055
G01 X86.0828 Y35.5481
G01 X86.0561 Y35.5721
G01 X86.0243 Y35.5957
G01 X85.9903 Y35.6161
G01 X85.9614 Y35.6300
G01 X85.9510 Y35.6344
G01 X85.9172 Y35.6464
G01 X85.8861 Y35.6543
G01 X85.8751 Y35.6567
G01 X85.8471 Y35.6609
G01 X85.8358 Y35.6621
G01 X85.8076 Y35.6636
G01 X85.7929 Y35.6637
G01 X85.7744 Y35.7028
G01 X85.7692 Y35.7129
G01 X85.7269 Y35.7834
G01 X85.7208 Y35.7929
G01 X85.6672 Y35.8650
G01 X85.6070 Y35.9316
G01 X85.5989 Y35.9395
G01 X85.5350 Y35.9972
G01 X85.4660 Y36.0486
G01 X85.4534 Y36.0569
G01 X85.3861 Y36.0973
G01 X85.3728 Y36.1044
G01 X85.3018 Y36.1380
G01 X85.2879 Y36.1437
G01 X85.2068 Y36.1726
G01 X85.1234 Y36.1936
G01 X85.1086 Y36.1966
G01 X85.0235 Y36.2090
G01 X84.9376 Y36.2134
G01 X84.1263 Y36.2136
G01 X84.0441 Y36.2096
G01 X84.0291 Y36.2081
G01 X83.9440 Y36.1953
G01 X83.8605 Y36.1746
G01 X83.8461 Y36.1702
G01 X83.7651 Y36.1410
G01 X83.6872 Y36.1044
G01 X83.6739 Y36.0973
G01 X83.6002 Y36.0529
G01 X83.5310 Y36.0018
G01 X83.5194 Y35.9922
G01 X83.4557 Y35.9343
G01 X83.3929 Y35.8650
G01 X83.3415 Y35.7960
G01 X83.3331 Y35.7834
G01 X83.2890 Y35.7095
G01 X83.2521 Y35.6318
G01 X83.2463 Y35.6179
G01 X83.2175 Y35.5368
G01 X83.1947 Y35.4461
G01 X83.1810 Y35.3535
G01 X83.1764 Y35.2600
G01 X83.1810 Y35.1666
G01 X83.1947 Y35.0740
G01 X83.2175 Y34.9832
G01 X83.2490 Y34.8951
G01 X83.2890 Y34.8105
G01 X83.3371 Y34.7302
G01 X83.3929 Y34.6551
G01 X83.4557 Y34.5857
G01 X83.5251 Y34.5229
G01 X83.6002 Y34.4671
G01 X83.6805 Y34.4190
G01 X83.7651 Y34.3790
G01 X83.8532 Y34.3475
G01 X83.9366 Y34.3264
G01 X83.9514 Y34.3235
G01 X84.0366 Y34.3110
G01 X84.1263 Y34.3065
G01 X84.9338 Y34.3065
G01 X85.0235 Y34.3110
G01 X85.1086 Y34.3235
G01 X85.1198 Y34.3255
G01 X85.2068 Y34.3475
G01 X85.2950 Y34.3790
G01 X85.3795 Y34.4190
G01 X85.4534 Y34.4631
G01 X85.4629 Y34.4693
G01 X85.5350 Y34.5229
G01 X85.5989 Y34.5805
G01 X85.6070 Y34.5884
G01 X85.6622 Y34.6494
G01 X85.6695 Y34.6580
G01 X85.7208 Y34.7271
G01 X85.7250 Y34.7334
G01 X85.7365 Y34.7526
G00 Z2.0000
G00 X85.7300 Y36.8464
G01 F60.00
G01 Z-0.2000
G01 F120.00
G01 X85.7451 Y36.8472
G01 X85.7600 Y36.8494
G01 X85.7710 Y36.8520
G01 X85.7853 Y36.8567
G01 X85.7991 Y36.8628
G01 X85.8122 Y36.8703
G01 X85.8245 Y36.8789
G01 X85.8359 Y36.8888
G01 X85.8463 Y36.8997
G01 X85.8556 Y36.9116
G01 X85.8618 Y36.9211
G01 X85.8689 Y36.9344
G01 X85.8746 Y36.9483
G01 X85.8790 Y36.9627
G01 X85.8820 Y36.9775
G01 X85.8834 Y36.9925
G01 X85.8836 Y38.6038
G01 X85.8825 Y38.6188
G01 X85.8814 Y38.6263
G01 X85.8790 Y38.6373
G01 X85.8746 Y38.6518
G01 X85.8704 Y38.6623
G01 X85.8672 Y38.6691
G01 X85.8618 Y38.6790
G01 X85.8577 Y38.6854
G01 X85.8534 Y38.6915
G01 X85.8463 Y38.7004
G01 X85.8386 Y38.7086
G01 X85.8332 Y38.7138
G01 X85.8215 Y38.7234
G01 X85.8090 Y38.7318
G01 X85.7991 Y38.7372
G01 X85.7888 Y38.7419
G01 X85.7782 Y38.7459
G01 X85.7673 Y38.7490
G01 X85.7563 Y38.7514
G01 X85.7451 Y38.7529
G01 X85.7300 Y38.7536
G01 X83.3300 Y38.7536
G01 X83.3187 Y38.7532
G01 X83.3112 Y38.7525
G01 X83.3038 Y38.7514
G01 X83.2927 Y38.7490
G01 X83.2783 Y38.7446
G01 X83.2678 Y38.7404
G01 X83.2610 Y38.7372
G01 X83.2478 Y38.7298
G01 X83.2416 Y38.7256
G01 X83.2326 Y38.7188
G01 X83.2269 Y38.7138
G01 X83.2188 Y38.7059
G01 X83.2137 Y38.7004
G01 X83.2067 Y38.6915
G01 X83.2003 Y38.6822
G01 X83.1946 Y38.6724
G01 X83.1896 Y38.6623
G01 X83.1854 Y38.6518
G01 X83.1810 Y38.6373
G01 X83.1787 Y38.6263
G01 X83.1772 Y38.6151
G01 X83.1765 Y38.6038
G01 X83.1765 Y36.9963
G01 X83.1768 Y36.9887
G01 X83.1781 Y36.9775
G01 X83.1794 Y36.9701
G01 X83.1820 Y36.9591
G01 X83.1867 Y36.9447
G01 X83.1896 Y36.9378
G01 X83.1946 Y36.9276
G01 X83.1983 Y36.9211
G01 X83.2044 Y36.9116
G01 X83.2137 Y36.8997
G01 X83.2241 Y36.8888
G01 X83.2326 Y36.8813
G01 X83.2385 Y36.8767
G01 X83.2478 Y36.8703
G01 X83.2576 Y36.8646
G01 X83.2678 Y36.8596
G01 X83.2818 Y36.8542
G01 X83.2927 Y36.8510
G01 X83.3038 Y36.8487
G01 X83.3187 Y36.8468
G01 X83.3300 Y36.8464
G01 X85.7300 Y36.8464
G00 Z2.0000
G00 X91.1764 Y36.9327
G01 F60.00
G01 Z-0.2000
G01 F120.00
G01 X91.1418 Y36.8359
G01 X91.1167 Y36.7356
G01 X91.1015 Y36.6333
G01 X91.0964 Y36.5300
G01 X91.1015 Y36.4268
G01 X91.1167 Y36.3245
G01 X91.1418 Y36.2242
G01 X91.1766 Y36.1268
G01 X91.2208 Y36.0334
G01 X91.2740 Y35.9447
G01 X91.3356 Y35.8616
G01 X91.4050 Y35.7850
G01 X91.4816 Y35.7156
G01 X91.5647 Y35.6540
G01 X91.6534 Y35.6008
G01 X91.7468 Y35.5566
G01 X91.8442 Y35.5218
G01 X91.9445 Y35.4967
G01 X92.0468 Y35.4815
G01 X92.1500 Y35.4764
G01 X92.2533 Y35.4815
G01 X92.3556 Y35.4967
G01 X92.4559 Y35.5218
G01 X92.5532 Y35.5566
G01 X92.6467 Y35.6008
G01 X92.7354 Y35.6540
G01 X92.8184 Y35.7156
G01 X92.8950 Y35.7850
G01 X92.9645 Y35.8616
G01 X93.0261 Y35.9447
G01 X93.0792 Y36.0334
G01 X93.1234 Y36.1268
G01 X93.1583 Y36.2242
G01 X93.1817 Y36.3171
G01 X93.1847 Y36.3319
G01 X93.1986 Y36.4268
G01 X93.2034 Y36.5225
G01 X93.2034 Y36.5376
G01 X93.1986 Y36.6333
G01 X93.1834 Y36.7356
G01 X93.1583 Y36.8359
G01 X93.1261 Y36.9262
G01 X93.1204 Y36.9401
G01 X93.0792 Y37.0267
G01 X93.0261 Y37.1154
G01 X92.9691 Y37.1925
G01 X92.9595 Y37.2041
G01 X92.8950 Y37.2750
G01 X92.8184 Y37.3445
G01 X92.7415 Y37.4017
G01 X92.7290 Y37.4101
G01 X92.6467 Y37.4592
G01 X92.5601 Y37.5004
G01 X92.5462 Y37.5061
G01 X92.4559 Y37.5383
G01 X92.3556 Y37.5634
G01 X92.2608 Y37.5776
G01 X92.2458 Y37.5791
G01 X92.1500 Y37.5836
G01 X92.0468 Y37.5786
G01 X91.9519 Y37.5647
G01 X91.9371 Y37.5617
G01 X91.8442 Y37.5383
G01 X91.7474 Y37.5036
G01 X91.2037 Y38.0473
G01 X91.2037 Y48.3664
G01 X91.7900 Y48.3664
G01 X91.8051 Y48.3672
G01 X91.8163 Y48.3687
G01 X91.8273 Y48.3710
G01 X91.8382 Y48.3742
G01 X91.8488 Y48.3781
G01 X91.8591 Y48.3828
G01 X91.8690 Y48.3883
G01 X91.8815 Y48.3967
G01 X91.8904 Y48.4037
G01 X91.8986 Y48.4114
G01 X91.9088 Y48.4226
G01 X91.9156 Y48.4316
G01 X91.9218 Y48.4411
G01 X91.9272 Y48.4510
G01 X91.9319 Y48.4612
G01 X91.9370 Y48.4754
G01 X91.9399 Y48.4864
G01 X91.9420 Y48.4975
G01 X91.9432 Y48.5087
G01 X91.9436 Y48.5200
G01 X91.9436 Y52.4838
G01 X91.9432 Y52.4913
G01 X91.9420 Y52.5026
G01 X91.9407 Y52.5100
G01 X91.9381 Y52.5210
G01 X91.9359 Y52.5282
G01 X91.9319 Y52.5388
G01 X91.9272 Y52.5491
G01 X91.9237 Y52.5557
G01 X91.9177 Y52.5654
G01 X91.9111 Y52.5745
G01 X91.9038 Y52.5832
G01 X91.8986 Y52.5886
G01 X91.8932 Y52.5938
G01 X91.8845 Y52.6011
G01 X91.8754 Y52.6077
G01 X91.8690 Y52.6118
G01 X91.8591 Y52.6172
G01 X91.8488 Y52.6219
G01 X91.8382 Y52.6259
G01 X91.8310 Y52.6281
G01 X91.8200 Y52.6307
G01 X91.8088 Y52.6325
G01 X91.8013 Y52.6332
G01 X91.7900 Y52.6336
G01 X89.8100 Y52.6336
G01 X89.7950 Y52.6329
G01 X89.7838 Y52.6314
G01 X89.7727 Y52.6290
G01 X89.7618 Y52.6259
G01 X89.7547 Y52.6233
G01 X89.7444 Y52.6189
G01 X89.7343 Y52.6137
G01 X89.7247 Y52.6077
G01 X89.7185 Y52.6034
G01 X89.7097 Y52.5963
G01 X89.7014 Y52.5886
G01 X89.6937 Y52.5804
G01 X89.6867 Y52.5715
G01 X89.6803 Y52.5622
G01 X89.6746 Y52.5524
G01 X89.6712 Y52.5457
G01 X89.6667 Y52.5353
G01 X89.6630 Y52.5246
G01 X89.6602 Y52.5137
G01 X89.6587 Y52.5063
G01 X89.6572 Y52.4951
G01 X89.6565 Y52.4838
G01 X89.6564 Y52.2146
G01 X87.2728 Y54.5981
G01 X87.2461 Y54.6221
G01 X87.2143 Y54.6457
G01 X87.1803 Y54.6661
G01 X87.1514 Y54.6800
G01 X87.1375 Y54.6857
G01 X87.1144 Y54.6940
G01 X87.1036 Y54.6974
G01 X87.0688 Y54.7060
G01 X87.0333 Y54.7114
G01 X87.0221 Y54.7124
G01 X86.9900 Y54.7137
G01 X75.6400 Y54.7137
G01 X75.6005 Y54.7118
G01 X75.5613 Y54.7060
G01 X75.5301 Y54.6984
G01 X75.5157 Y54.6940
G01 X75.4890 Y54.6844
G01 X75.4786 Y54.6800
G01 X75.4497 Y54.6661
G01 X75.4157 Y54.6457
G01 X75.3839 Y54.6221
G01 X75.3572 Y54.5981
G01 X71.0952 Y50.3361
G01 X69.2275 Y50.3359
G01 X69.2200 Y50.3354
G01 X69.2088 Y50.3339
G01 X69.2014 Y50.3324
G01 X69.1904 Y50.3295
G01 X69.1833 Y50.3271
G01 X69.1728 Y50.3229
G01 X69.1660 Y50.3197
G01 X69.1561 Y50.3143
G01 X69.1466 Y50.3081
G01 X69.1405 Y50.3036
G01 X69.1347 Y50.2988
G01 X69.1264 Y50.2911
G01 X69.1187 Y50.2829
G01 X69.1139 Y50.2770
G01 X69.1073 Y50.2679
G01 X69.1033 Y50.2615
G01 X69.0978 Y50.2516
G01 X69.0931 Y50.2413
G01 X69.0904 Y50.2343
G01 X69.0870 Y50.2235
G01 X69.0844 Y50.2125
G01 X69.0831 Y50.2051
G01 X69.0818 Y50.1938
G01 X69.0814 Y50.1825
G01 X69.0814 Y48.2775
G01 X69.0822 Y48.2625
G01 X69.0844 Y48.2476
G01 X69.0880 Y48.2329
G01 X69.0931 Y48.2187
G01 X69.0996 Y48.2051
G01 X69.1073 Y48.1922
G01 X69.1163 Y48.1801
G01 X69.1264 Y48.1689
G01 X69.1376 Y48.1588
G01 X69.1497 Y48.1498
G01 X69.1626 Y48.1421
G01 X69.1728 Y48.1371
G01 X69.1868 Y48.1317
G01 X69.2014 Y48.1277
G01 X69.2162 Y48.1251
G01 X69.2313 Y48.1240
G01 X71.2350 Y48.1239
G01 X71.2501 Y48.1247
G01 X71.2650 Y48.1269
G01 X71.2760 Y48.1295
G01 X71.2868 Y48.1329
G01 X71.3007 Y48.1387
G01 X71.3107 Y48.1439
G01 X71.3204 Y48.1498
G01 X71.3295 Y48.1564
G01 X71.3409 Y48.1663
G01 X71.3488 Y48.1744
G01 X71.3561 Y48.1830
G01 X71.3627 Y48.1922
G01 X71.3687 Y48.2018
G01 X71.3754 Y48.2153
G01 X71.3809 Y48.2293
G01 X71.3840 Y48.2402
G01 X71.3864 Y48.2513
G01 X71.3879 Y48.2625
G01 X71.3886 Y48.2775
G01 X71.3886 Y49.4877
G01 X75.8073 Y53.9063
G01 X86.8228 Y53.9063
G01 X89.6564 Y51.0727
G01 X89.6564 Y48.5200
G01 X89.6568 Y48.5087
G01 X89.6581 Y48.4975
G01 X89.6602 Y48.4864
G01 X89.6620 Y48.4791
G01 X89.6654 Y48.4683
G01 X89.6696 Y48.4578
G01 X89.6746 Y48.4476
G01 X89.6803 Y48.4378
G01 X89.6867 Y48.4285
G01 X89.6913 Y48.4226
G01 X89.6988 Y48.4141
G01 X89.7069 Y48.4062
G01 X89.7155 Y48.3989
G01 X89.7247 Y48.3923
G01 X89.7343 Y48.3864
G01 X89.7444 Y48.3812
G01 X89.7547 Y48.3767
G01 X89.7654 Y48.3730
G01 X89.7764 Y48.3702
G01 X89.7875 Y48.3681
G01 X89.7987 Y48.3668
G01 X89.8100 Y48.3664
G01 X90.3963 Y48.3664
G01 X90.3963 Y37.8800
G01 X90.3979 Y37.8442
G01 X90.3992 Y37.8330
G01 X90.4028 Y37.8087
G01 X90.4057 Y37.7939
G01 X90.4137 Y37.7628
G01 X90.4270 Y37.7255
G01 X90.4440 Y37.6897
G01 X90.4603 Y37.6621
G01 X90.4687 Y37.6496
G01 X90.4833 Y37.6298
G01 X90.4904 Y37.6210
G01 X90.5145 Y37.5945
G01 X91.1764 Y36.9327
G00 Z2.0000
G00 X91.7429 Y29.7763
G01 F60.00
G01 Z-0.2000
G01 F120.00
G01 X92.1500 Y29.7763
G01 X92.1821 Y29.7777
G01 X92.1933 Y29.7787
G01 X92.2288 Y29.7841
G01 X92.2600 Y29.7917
G01 X92.2744 Y29.7960
G01 X92.3045 Y29.8070
G01 X92.3336 Y29.8206
G01 X92.3469 Y29.8277
G01 X92.3743 Y29.8443
G01 X92.4032 Y29.8656
G01 X92.4119 Y29.8729
G01 X92.4355 Y29.8945
G01 X94.2863 Y31.7453
G01 X94.2863 Y31.4500
G01 X94.2877 Y31.4180
G01 X94.2887 Y31.4067
G01 X94.2934 Y31.3750
G01 X94.2957 Y31.3639
G01 X94.3037 Y31.3328
G01 X94.3143 Y31.3026
G01 X94.3185 Y31.2921
G01 X94.3322 Y31.2631
G01 X94.3377 Y31.2532
G01 X94.3523 Y31.2289
G01 X94.3587 Y31.2196
G01 X94.3779 Y31.1939
G01 X94.4045 Y31.1645
G01 X95.0644 Y30.5047
G01 X95.0499 Y30.4640
G01 X95.0464 Y30.4532
G01 X95.0264 Y30.3734
G01 X95.0241 Y30.3624
G01 X95.0110 Y30.2735
G01 X95.0065 Y30.1838
G01 X95.0066 Y30.1725
G01 X95.0105 Y30.0941
G01 X95.0119 Y30.0791
G01 X95.0247 Y29.9940
G01 X95.0464 Y29.9068
G01 X95.0499 Y29.8961
G01 X95.0763 Y29.8221
G01 X95.0821 Y29.8082
G01 X95.1190 Y29.7305
G01 X95.1671 Y29.6502
G01 X95.2229 Y29.5751
G01 X95.2805 Y29.5112
G01 X95.2912 Y29.5005
G01 X95.3494 Y29.4478
G01 X95.3580 Y29.4405
G01 X95.4302 Y29.3871
G01 X95.5039 Y29.3427
G01 X95.5172 Y29.3356
G01 X95.5951 Y29.2990
G01 X95.6761 Y29.2699
G01 X95.6905 Y29.2655
G01 X95.7666 Y29.2464
G01 X95.7814 Y29.2435
G01 X95.8666 Y29.2310
G01 X95.9600 Y29.2264
G01 X96.0535 Y29.2310
G01 X96.1461 Y29.2447
G01 X96.2368 Y29.2675
G01 X96.3179 Y29.2963
G01 X96.3318 Y29.3021
G01 X96.4095 Y29.3390
G01 X96.4834 Y29.3831
G01 X96.4960 Y29.3915
G01 X96.5590 Y29.4382
G01 X96.5707 Y29.4478
G01 X96.6343 Y29.5057
G01 X96.6972 Y29.5751
G01 X96.7529 Y29.6502
G01 X96.7973 Y29.7239
G01 X96.8028 Y29.7338
G01 X96.8410 Y29.8151
G01 X96.8702 Y29.8961
G01 X96.8746 Y29.9105
G01 X96.8953 Y29.9940
G01 X96.9090 Y30.0866
G01 X96.9134 Y30.1725
G01 X96.9134 Y30.1876
G01 X96.9096 Y30.2660
G01 X96.9081 Y30.2810
G01 X96.8953 Y30.3661
G01 X96.8726 Y30.4568
G01 X96.8410 Y30.5450
G01 X96.8044 Y30.6228
G01 X96.7973 Y30.6361
G01 X96.7569 Y30.7034
G01 X96.7486 Y30.7160
G01 X96.6972 Y30.7850
G01 X96.6395 Y30.8489
G01 X96.6289 Y30.8595
G01 X96.5707 Y30.9122
G01 X96.5590 Y30.9218
G01 X96.4898 Y30.9729
G01 X96.4095 Y31.0210
G01 X96.3318 Y31.0580
G01 X96.3179 Y31.0637
G01 X96.2368 Y31.0926
G01 X96.1498 Y31.1145
G01 X96.1386 Y31.1166
G01 X96.0610 Y31.1281
G01 X96.0460 Y31.1296
G01 X95.9600 Y31.1336
G01 X95.8703 Y31.1294
G01 X95.8591 Y31.1281
G01 X95.7814 Y31.1166
G01 X95.7703 Y31.1145
G01 X95.6868 Y31.0936
G01 X95.6761 Y31.0902
G01 X95.6354 Y31.0756
G01 X95.0937 Y31.6173
G01 X95.0937 Y35.4764
G01 X95.5900 Y35.4764
G01 X95.6013 Y35.4768
G01 X95.6163 Y35.4787
G01 X95.6273 Y35.4810
G01 X95.6382 Y35.4842
G01 X95.6488 Y35.4881
G01 X95.6591 Y35.4928
G01 X95.6690 Y35.4983
G01 X95.6754 Y35.5023
G01 X95.6845 Y35.5089
G01 X95.6932 Y35.5162
G01 X95.7013 Y35.5241
G01 X95.7088 Y35.5326
G01 X95.7156 Y35.5416
G01 X95.7218 Y35.5511
G01 X95.7272 Y35.5610
G01 X95.7319 Y35.5712
G01 X95.7359 Y35.5818
G01 X95.7381 Y35.5891
G01 X95.7399 Y35.5964
G01 X95.7420 Y35.6075
G01 X95.7432 Y35.6187
G01 X95.7436 Y35.6300
G01 X95.7434 Y37.4376
G01 X95.7425 Y37.4488
G01 X95.7407 Y37.4600
G01 X95.7390 Y37.4673
G01 X95.7359 Y37.4782
G01 X95.7319 Y37.4888
G01 X95.7289 Y37.4957
G01 X95.7237 Y37.5057
G01 X95.7198 Y37.5122
G01 X95.7134 Y37.5215
G01 X95.7063 Y37.5304
G01 X95.7013 Y37.5359
G01 X95.6932 Y37.5438
G01 X95.6845 Y37.5511
G01 X95.6785 Y37.5556
G01 X95.6690 Y37.5618
G01 X95.6591 Y37.5672
G01 X95.6488 Y37.5719
G01 X95.6418 Y37.5746
G01 X95.6346 Y37.5770
G01 X95.6237 Y37.5799
G01 X95.6126 Y37.5820
G01 X95.6051 Y37.5829
G01 X95.5900 Y37.5836
G01 X93.7825 Y37.5834
G01 X93.7675 Y37.5820
G01 X93.7564 Y37.5799
G01 X93.7454 Y37.5770
G01 X93.7347 Y37.5733
G01 X93.7244 Y37.5689
G01 X93.7143 Y37.5637
G01 X93.7047 Y37.5577
G01 X93.6955 Y37.5511
G01 X93.6869 Y37.5438
G01 X93.6788 Y37.5359
G01 X93.6689 Y37.5245
G01 X93.6623 Y37.5154
G01 X93.6564 Y37.5057
G01 X93.6512 Y37.4957
G01 X93.6467 Y37.4853
G01 X93.6430 Y37.4746
G01 X93.6402 Y37.4637
G01 X93.6381 Y37.4526
G01 X93.6368 Y37.4413
G01 X93.6364 Y37.4300
G01 X93.6364 Y35.6300
G01 X93.6372 Y35.6150
G01 X93.6387 Y35.6038
G01 X93.6410 Y35.5927
G01 X93.6442 Y35.5818
G01 X93.6467 Y35.5747
G01 X93.6512 Y35.5644
G01 X93.6564 Y35.5543
G01 X93.6623 Y35.5447
G01 X93.6689 Y35.5355
G01 X93.6737 Y35.5297
G01 X93.6814 Y35.5214
G01 X93.6897 Y35.5137
G01 X93.6985 Y35.5067
G01 X93.7078 Y35.5003
G01 X93.7176 Y35.4946
G01 X93.7244 Y35.4912
G01 X93.7312 Y35.4881
G01 X93.7418 Y35.4842
G01 X93.7527 Y35.4810
G01 X93.7638 Y35.4787
G01 X93.7750 Y35.4772
G01 X93.7900 Y35.4764
G01 X94.2863 Y35.4764
G01 X94.2863 Y32.8873
G01 X91.9828 Y30.5837
G01 X91.7429 Y30.5837
G01 X91.7244 Y30.6228
G01 X91.7192 Y30.6329
G01 X91.6750 Y30.7067
G01 X91.6686 Y30.7160
G01 X91.6218 Y30.7790
G01 X91.6147 Y30.7879
G01 X91.5543 Y30.8543
G01 X91.4907 Y30.9122
G01 X91.4790 Y30.9218
G01 X91.4160 Y30.9686
G01 X91.4067 Y30.9750
G01 X91.3295 Y31.0210
G01 X91.2518 Y31.0580
G01 X91.2379 Y31.0637
G01 X91.1568 Y31.0926
G01 X91.0661 Y31.1153
G01 X90.9810 Y31.1281
G01 X90.9660 Y31.1296
G01 X90.8876 Y31.1334
G01 X90.8763 Y31.1336
G01 X90.7866 Y31.1290
G01 X90.7014 Y31.1166
G01 X90.6866 Y31.1136
G01 X90.6032 Y31.0926
G01 X90.5221 Y31.0637
G01 X90.5082 Y31.0580
G01 X90.4305 Y31.0210
G01 X90.3502 Y30.9729
G01 X90.2751 Y30.9172
G01 X90.2112 Y30.8595
G01 X90.2005 Y30.8489
G01 X90.1429 Y30.7850
G01 X90.0915 Y30.7160
G01 X90.0831 Y30.7034
G01 X90.0390 Y30.6295
G01 X90.0005 Y30.5484
G01 X89.9963 Y30.5379
G01 X89.9675 Y30.4568
G01 X89.9447 Y30.3661
G01 X89.9310 Y30.2735
G01 X89.9264 Y30.1800
G01 X89.9310 Y30.0866
G01 X89.9447 Y29.9940
G01 X89.9675 Y29.9032
G01 X89.9990 Y29.8151
G01 X90.0390 Y29.7305
G01 X90.0871 Y29.6502
G01 X90.1429 Y29.5751
G01 X90.2057 Y29.5057
G01 X90.2751 Y29.4429
G01 X90.3502 Y29.3871
G01 X90.4305 Y29.3390
G01 X90.5116 Y29.3005
G01 X90.5221 Y29.2963
G01 X90.6032 Y29.2675
G01 X90.6940 Y29.2447
G01 X90.7866 Y29.2310
G01 X90.8800 Y29.2264
G01 X90.9735 Y29.2310
G01 X91.0661 Y29.2447
G01 X91.1568 Y29.2675
G01 X91.2415 Y29.2976
G01 X91.2518 Y29.3021
G01 X91.3295 Y29.3390
G01 X91.4098 Y29.3871
G01 X91.4850 Y29.4429
G01 X91.5516 Y29.5031
G01 X91.5595 Y29.5112
G01 X91.6172 Y29.5751
G01 X91.6708 Y29.6471
G01 X91.6769 Y29.6566
G01 X91.7192 Y29.7272
G01 X91.7244 Y29.7372
G01 X91.7429 Y29.7763
G00 Z2.0000
G00 X81.2036 Y48.4411
G01 F60.00
G01 Z-0.2000
G01 F120.00
G01 X81.2036 Y48.2356
G01 X81.3387 Y48.2820
G01 X81.5335 Y48.3874
G01 X81.7082 Y48.5234
G01 X81.8582 Y48.6864
G01 X81.9794 Y48.8718
G01 X82.0683 Y49.0746
G01 X82.1227 Y49.2893
G01 X82.1364 Y49.4547
G01 X82.1364 Y50.0964
G01 X81.9436 Y50.0964
G01 X81.9436 Y49.5100
G01 X81.9387 Y49.4055
G01 X81.9377 Y49.3942
G01 X81.9217 Y49.2869
G01 X81.8944 Y49.1781
G01 X81.8566 Y49.0724
G01 X81.8120 Y48.9777
G01 X81.8068 Y48.9676
G01 X81.7509 Y48.8747
G01 X81.6840 Y48.7845
G01 X81.6087 Y48.7014
G01 X81.5284 Y48.6284
G01 X81.5196 Y48.6214
G01 X81.4354 Y48.5592
G01 X81.3424 Y48.5033
G01 X81.3324 Y48.4981
G01 X81.2411 Y48.4550
G01 X81.2306 Y48.4508
G01 X81.2036 Y48.4411
G00 Z2.0000
G00 X80.3964 Y48.4411
G01 F60.00
G01 Z-0.2000
G01 F120.00
G01 X80.3694 Y48.4508
G01 X80.3589 Y48.4550
G01 X80.2677 Y48.4981
G01 X80.2576 Y48.5033
G01 X80.1647 Y48.5592
G01 X80.0805 Y48.6214
G01 X80.0716 Y48.6284
G01 X79.9914 Y48.7014
G01 X79.9160 Y48.7845
G01 X79.8492 Y48.8747
G01 X79.7933 Y48.9676
G01 X79.7881 Y48.9777
G01 X79.7435 Y49.0724
G01 X79.7057 Y49.1781
G01 X79.6784 Y49.2869
G01 X79.6623 Y49.3942
G01 X79.6614 Y49.4055
G01 X79.6564 Y49.5100
G01 X79.6564 Y50.0964
G01 X79.4636 Y50.0964
G01 X79.4636 Y49.4547
G01 X79.4773 Y49.2893
G01 X79.5317 Y49.0746
G01 X79.6207 Y48.8718
G01 X79.7418 Y48.6864
G01 X79.8918 Y48.5234
G01 X80.0666 Y48.3874
G01 X80.2614 Y48.2820
G01 X80.3964 Y48.2356
G01 X80.3964 Y48.4411
G00 Z2.0000
G00 X79.6564 Y50.9036
G01 F60.00
G01 Z-0.2000
G01 F120.00
G01 X79.6564 Y51.4900
G01 X79.6616 Y51.5984
G01 X79.6629 Y51.6096
G01 X79.6771 Y51.7057
G01 X79.6801 Y51.7205
G01 X79.7057 Y51.8220
G01 X79.7421 Y51.9242
G01 X79.7465 Y51.9346
G01 X79.7915 Y52.0291
G01 X79.8492 Y52.1254
G01 X79.9160 Y52.2155
G01 X79.9862 Y52.2932
G01 X79.9941 Y52.3013
G01 X80.0745 Y52.3740
G01 X80.1585 Y52.4366
G01 X80.1678 Y52.4429
G01 X80.2544 Y52.4949
G01 X80.2643 Y52.5003
G01 X80.3589 Y52.5451
G01 X80.3694 Y52.5493
G01 X80.3964 Y52.5589
G01 X80.3964 Y52.7644
G01 X80.2614 Y52.7181
G01 X80.0666 Y52.6126
G01 X79.8918 Y52.4766
G01 X79.7418 Y52.3137
G01 X79.6207 Y52.1283
G01 X79.5317 Y51.9254
G01 X79.4773 Y51.7107
G01 X79.4636 Y51.5453
G01 X79.4636 Y50.9036
G01 X79.6564 Y50.9036
G00 Z2.0000
G00 X81.2036 Y52.5589
G01 F60.00
G01 Z-0.2000
G01 F120.00
G01 X81.2306 Y52.5493
G01 X81.2411 Y52.5451
G01 X81.3324 Y52.5020
G01 X81.3424 Y52.4968
G01 X81.4354 Y52.4409
G01 X81.5196 Y52.3787
G01 X81.5284 Y52.3716
G01 X81.6087 Y52.2987
G01 X81.6840 Y52.2155
G01 X81.7509 Y52.1254
G01 X81.8068 Y52.0324
G01 X81.8120 Y52.0224
G01 X81.8566 Y51.9277
G01 X81.8944 Y51.8220
G01 X81.9217 Y51.7131
G01 X81.9377 Y51.6059
G01 X81.9387 Y51.5946
G01 X81.9436 Y51.4900
G01 X81.9436 Y50.9036
G01 X82.1364 Y50.9036
G01 X82.1364 Y51.5453
G01 X82.1227 Y51.7107
G01 X82.0683 Y51.9254
G01 X81.9794 Y52.1283
G01 X81.8582 Y52.3137
G01 X81.7082 Y52.4766
G01 X81.5335 Y52.6126
G01 X81.3387 Y52.7181
G01 X81.2036 Y52.7644
G01 X81.2036 Y52.5589
G00 Z2.0000
G00 X68.9274 Y50.3505
G01 F60.00
G01 Z-0.2000
G01 F120.00
G01 X68.8916 Y50.2544
G01 X68.8881 Y50.2222
G01 X68.8881 Y48.2379
G01 X68.8916 Y48.2056
G01 X68.9274 Y48.1096
G01 X68.9872 Y48.0297
G01 X69.0671 Y47.9699
G01 X69.0852 Y47.9629
G01 X69.1105 Y47.9511
G01 X69.1235 Y47.9438
G01 X69.1358 Y47.9352
G01 X69.1417 Y47.9305
G01 X69.1500 Y47.9229
G01 X69.2011 Y47.8699
G01 X69.2087 Y47.8613
G01 X69.2157 Y47.8523
G01 X69.2239 Y47.8394
G01 X69.2291 Y47.8293
G01 X69.2337 Y47.8187
G01 X69.2385 Y47.8043
G01 X69.2411 Y47.7931
G01 X69.2554 Y47.7208
G01 X69.2572 Y47.7057
G01 X69.2576 Y47.6943
G01 X69.2571 Y47.6828
G01 X69.2558 Y47.6715
G01 X69.2537 Y47.6602
G01 X69.2507 Y47.6492
G01 X69.2469 Y47.6384
G01 X69.2212 Y47.5734
G01 X69.2152 Y47.5601
G01 X69.2080 Y47.5474
G01 X69.2018 Y47.5383
G01 X69.0964 Y47.4029
G01 X68.9939 Y47.2136
G01 X68.9528 Y47.0936
G01 X69.1584 Y47.0936
G01 X69.1642 Y47.1098
G01 X69.1687 Y47.1202
G01 X69.2086 Y47.2047
G01 X69.2157 Y47.2180
G01 X69.2678 Y47.3045
G01 X69.3279 Y47.3858
G01 X69.3374 Y47.3974
G01 X69.4054 Y47.4722
G01 X69.4858 Y47.5451
G01 X69.5730 Y47.6097
G01 X69.6628 Y47.6637
G01 X69.6728 Y47.6689
G01 X69.7642 Y47.7119
G01 X69.8593 Y47.7461
G01 X69.8737 Y47.7505
G01 X69.9717 Y47.7749
G01 X70.0716 Y47.7899
G01 X70.0866 Y47.7914
G01 X70.1875 Y47.7961
G01 X70.2863 Y47.7961
G01 X70.3872 Y47.7911
G01 X70.3984 Y47.7899
G01 X70.4909 Y47.7762
G01 X70.5020 Y47.7741
G01 X70.6036 Y47.7485
G01 X70.6988 Y47.7146
G01 X70.7127 Y47.7089
G01 X70.8039 Y47.6655
G01 X70.8970 Y47.6097
G01 X70.9842 Y47.5451
G01 X71.0647 Y47.4722
G01 X71.1326 Y47.3974
G01 X71.1422 Y47.3858
G01 X71.2022 Y47.3045
G01 X71.2543 Y47.2180
G01 X71.2614 Y47.2047
G01 X71.3014 Y47.1202
G01 X71.3058 Y47.1098
G01 X71.3117 Y47.0936
G01 X71.5173 Y47.0936
G01 X71.4761 Y47.2136
G01 X71.3737 Y47.4029
G01 X71.2680 Y47.5387
G01 X71.2503 Y47.5654
G01 X71.2430 Y47.5785
G01 X71.2370 Y47.5923
G01 X71.2324 Y47.6066
G01 X71.2158 Y47.6821
G01 X71.2138 Y47.6934
G01 X71.2126 Y47.7048
G01 X71.2123 Y47.7124
G01 X71.2125 Y47.7238
G01 X71.2136 Y47.7352
G01 X71.2156 Y47.7465
G01 X71.2184 Y47.7576
G01 X71.2220 Y47.7685
G01 X71.2492 Y47.8410
G01 X71.2524 Y47.8479
G01 X71.2578 Y47.8580
G01 X71.2619 Y47.8645
G01 X71.2685 Y47.8738
G01 X71.2733 Y47.8798
G01 X71.2810 Y47.8882
G01 X71.2923 Y47.8985
G01 X71.3571 Y47.9472
G01 X71.3663 Y47.9533
G01 X71.3791 Y47.9603
G01 X71.3891 Y47.9647
G01 X71.4030 Y47.9699
G01 X71.4828 Y48.0297
G01 X71.5426 Y48.1096
G01 X71.5785 Y48.2056
G01 X71.5819 Y48.2379
G01 X71.5821 Y49.3010
G01 X71.5866 Y49.3430
G01 X71.5897 Y49.3578
G01 X71.5942 Y49.3722
G01 X71.5985 Y49.3826
G01 X71.6035 Y49.3928
G01 X71.6370 Y49.4541
G01 X71.6446 Y49.4666
G01 X71.6534 Y49.4783
G01 X71.6632 Y49.4891
G01 X75.8060 Y53.6318
G01 X75.8150 Y53.6402
G01 X75.8448 Y53.6640
G01 X75.8510 Y53.6683
G01 X75.8607 Y53.6742
G01 X75.8742 Y53.6808
G01 X75.8848 Y53.6849
G01 X75.8919 Y53.6872
G01 X75.9660 Y53.7088
G01 X75.9732 Y53.7103
G01 X75.9840 Y53.7120
G01 X75.9949 Y53.7130
G01 X76.0023 Y53.7131
G01 X86.6278 Y53.7131
G01 X86.6401 Y53.7126
G01 X86.6780 Y53.7084
G01 X86.6928 Y53.7053
G01 X86.7072 Y53.7008
G01 X86.7176 Y53.6966
G01 X86.7278 Y53.6915
G01 X86.7923 Y53.6562
G01 X86.8016 Y53.6504
G01 X86.8075 Y53.6462
G01 X86.8161 Y53.6393
G01 X86.8241 Y53.6318
G01 X89.3818 Y51.0741
G01 X89.3902 Y51.0650
G01 X89.4094 Y51.0412
G01 X89.4162 Y51.0322
G01 X89.4223 Y51.0226
G01 X89.4293 Y51.0093
G01 X89.4349 Y50.9953
G01 X89.4569 Y50.9211
G01 X89.4596 Y50.9104
G01 X89.4616 Y50.8997
G01 X89.4627 Y50.8888
G01 X89.4631 Y50.8815
G01 X89.4631 Y48.4804
G01 X89.4666 Y48.4481
G01 X89.5024 Y48.3521
G01 X89.5622 Y48.2722
G01 X89.6421 Y48.2124
G01 X89.7381 Y48.1766
G01 X89.7704 Y48.1731
G01 X89.9255 Y48.1731
G01 X89.9401 Y48.1724
G01 X89.9546 Y48.1703
G01 X90.0134 Y48.1575
G01 X90.0281 Y48.1532
G01 X90.0388 Y48.1489
G01 X90.0458 Y48.1457
G01 X90.0526 Y48.1421
G01 X90.0624 Y48.1360
G01 X90.0686 Y48.1316
G01 X90.0776 Y48.1244
G01 X90.1361 Y48.0735
G01 X90.1465 Y48.0624
G01 X90.1559 Y48.0504
G01 X90.1621 Y48.0407
G01 X90.1675 Y48.0307
G01 X90.1722 Y48.0202
G01 X90.1749 Y48.0131
G01 X90.1969 Y47.9388
G01 X90.1996 Y47.9282
G01 X90.2010 Y47.9210
G01 X90.2024 Y47.9101
G01 X90.2031 Y47.8955
G01 X90.2031 Y37.8909
G01 X90.2011 Y37.8188
G01 X90.2167 Y37.7530
G01 X90.2313 Y37.6824
G01 X90.2637 Y37.6179
G01 X90.2923 Y37.5565
G01 X90.3358 Y37.5047
G01 X90.3534 Y37.4825
G01 X90.3634 Y37.4717
G01 X90.3876 Y37.4429
G01 X90.4012 Y37.4323
G01 X90.4176 Y37.4180
G01 X90.4230 Y37.4129
G01 X90.8443 Y36.9915
G01 X90.8546 Y36.9795
G01 X90.8614 Y36.9699
G01 X90.8973 Y36.9117
G01 X90.9024 Y36.9016
G01 X90.9080 Y36.8876
G01 X90.9123 Y36.8731
G01 X90.9145 Y36.8620
G01 X90.9162 Y36.8470
G01 X90.9190 Y36.7734
G01 X90.9190 Y36.7624
G01 X90.9186 Y36.7551
G01 X90.9173 Y36.7442
G01 X90.9160 Y36.7370
G01 X90.8989 Y36.5300
G01 X90.9159 Y36.3241
G01 X90.9666 Y36.1238
G01 X91.0497 Y35.9345
G01 X91.1627 Y35.7615
G01 X91.3026 Y35.6095
G01 X91.4657 Y35.4826
G01 X91.6474 Y35.3842
G01 X91.8429 Y35.3171
G01 X92.0467 Y35.2831
G01 X92.2533 Y35.2831
G01 X92.4572 Y35.3171
G01 X92.6526 Y35.3842
G01 X92.8343 Y35.4826
G01 X92.9984 Y35.6105
G01 X93.0047 Y35.6169
G01 X93.0128 Y35.6240
G01 X93.0474 Y35.6511
G01 X93.0599 Y35.6599
G01 X93.0699 Y35.6657
G01 X93.0767 Y35.6691
G01 X93.0873 Y35.6736
G01 X93.1019 Y35.6783
G01 X93.1813 Y35.6957
G01 X93.1926 Y35.6975
G01 X93.2079 Y35.6985
G01 X93.2231 Y35.6979
G01 X93.2382 Y35.6959
G01 X93.2494 Y35.6934
G01 X93.2603 Y35.6901
G01 X93.3294 Y35.6644
G01 X93.3399 Y35.6600
G01 X93.3501 Y35.6548
G01 X93.3631 Y35.6468
G01 X93.3752 Y35.6375
G01 X93.3836 Y35.6297
G01 X93.3915 Y35.6214
G01 X93.3963 Y35.6155
G01 X93.4405 Y35.5566
G01 X93.4468 Y35.5476
G01 X93.4541 Y35.5349
G01 X93.4588 Y35.5250
G01 X93.4824 Y35.4621
G01 X93.5422 Y35.3822
G01 X93.6221 Y35.3224
G01 X93.7181 Y35.2866
G01 X93.7504 Y35.2831
G01 X93.8155 Y35.2831
G01 X93.8301 Y35.2824
G01 X93.8446 Y35.2803
G01 X93.9034 Y35.2675
G01 X93.9145 Y35.2644
G01 X93.9217 Y35.2618
G01 X93.9358 Y35.2557
G01 X93.9492 Y35.2481
G01 X93.9617 Y35.2393
G01 X94.0261 Y35.1835
G01 X94.0340 Y35.1753
G01 X94.0414 Y35.1665
G01 X94.0459 Y35.1604
G01 X94.0521 Y35.1507
G01 X94.0558 Y35.1441
G01 X94.0607 Y35.1338
G01 X94.0661 Y35.1195
G01 X94.0879 Y35.0453
G01 X94.0903 Y35.0346
G01 X94.0920 Y35.0238
G01 X94.0930 Y35.0128
G01 X94.0931 Y35.0055
G01 X94.0931 Y33.0781
G01 X94.0922 Y33.0658
G01 X94.0894 Y33.0395
G01 X94.0878 Y33.0283
G01 X94.0844 Y33.0136
G01 X94.0795 Y32.9993
G01 X94.0766 Y32.9924
G01 X94.0715 Y32.9823
G01 X94.0362 Y32.9178
G01 X94.0304 Y32.9085
G01 X94.0216 Y32.8968
G01 X94.0118 Y32.8860
G01 X92.1002 Y30.9744
G01 X92.0894 Y30.9645
G01 X92.0777 Y30.9558
G01 X92.0271 Y30.9232
G01 X92.0136 Y30.9159
G01 X92.0030 Y30.9113
G01 X91.9921 Y30.9076
G01 X91.9810 Y30.9046
G01 X91.9697 Y30.9025
G01 X91.9582 Y30.9013
G01 X91.8847 Y30.8961
G01 X91.8695 Y30.8961
G01 X91.8543 Y30.8977
G01 X91.8394 Y30.9007
G01 X91.8248 Y30.9053
G01 X91.8142 Y30.9096
G01 X91.8040 Y30.9147
G01 X91.7395 Y30.9500
G01 X91.7302 Y30.9558
G01 X91.7242 Y30.9600
G01 X91.7157 Y30.9669
G01 X91.7076 Y30.9744
G01 X91.6201 Y31.0620
G01 X91.4557 Y31.1771
G01 X91.2738 Y31.2619
G01 X91.0799 Y31.3138
G01 X90.8800 Y31.3313
G01 X90.6801 Y31.3138
G01 X90.4863 Y31.2619
G01 X90.3044 Y31.1771
G01 X90.1400 Y31.0620
G01 X89.9981 Y30.9201
G01 X89.8830 Y30.7557
G01 X89.7982 Y30.5738
G01 X89.7462 Y30.3799
G01 X89.7287 Y30.1800
G01 X89.7462 Y29.9801
G01 X89.7982 Y29.7863
G01 X89.8830 Y29.6044
G01 X89.9981 Y29.4400
G01 X90.1400 Y29.2981
G01 X90.3044 Y29.1830
G01 X90.4863 Y29.0982
G01 X90.6801 Y29.0462
G01 X90.8800 Y29.0287
G01 X91.0799 Y29.0462
G01 X91.2738 Y29.0982
G01 X91.4557 Y29.1830
G01 X91.6201 Y29.2981
G01 X91.7620 Y29.4400
G01 X91.7837 Y29.4708
G01 X91.7884 Y29.4765
G01 X91.7960 Y29.4848
G01 X91.8332 Y29.5206
G01 X91.8415 Y29.5280
G01 X91.8472 Y29.5325
G01 X91.8563 Y29.5389
G01 X91.8626 Y29.5427
G01 X91.8723 Y29.5479
G01 X91.8824 Y29.5524
G01 X91.8928 Y29.5561
G01 X91.9634 Y29.5769
G01 X91.9776 Y29.5803
G01 X91.9921 Y29.5824
G01 X92.0067 Y29.5831
G01 X92.1391 Y29.5831
G01 X92.2112 Y29.5811
G01 X92.2809 Y29.5976
G01 X92.3477 Y29.6113
G01 X92.4082 Y29.6417
G01 X92.4735 Y29.6723
G01 X92.5254 Y29.7158
G01 X92.5476 Y29.7334
G01 X92.5583 Y29.7434
G01 X92.5872 Y29.7676
G01 X92.5978 Y29.7812
G01 X92.6120 Y29.7976
G01 X92.6171 Y29.8030
G01 X93.8630 Y31.0487
G01 X93.8713 Y31.0556
G01 X93.8830 Y31.0640
G01 X93.9438 Y31.0996
G01 X93.9572 Y31.1066
G01 X93.9642 Y31.1096
G01 X93.9749 Y31.1134
G01 X93.9859 Y31.1164
G01 X93.9933 Y31.1180
G01 X94.0008 Y31.1192
G01 X94.0121 Y31.1202
G01 X94.0235 Y31.1205
G01 X94.0972 Y31.1193
G01 X94.1124 Y31.1179
G01 X94.1274 Y31.1150
G01 X94.1347 Y31.1130
G01 X94.1456 Y31.1094
G01 X94.1595 Y31.1032
G01 X94.1728 Y31.0958
G01 X94.2342 Y31.0550
G01 X94.2431 Y31.0486
G01 X94.2515 Y31.0416
G01 X94.2619 Y31.0313
G01 X94.2776 Y31.0129
G01 X94.2912 Y31.0023
G01 X94.3076 Y30.9880
G01 X94.3130 Y30.9829
G01 X94.7419 Y30.5540
G01 X94.7498 Y30.5455
G01 X94.7547 Y30.5395
G01 X94.7833 Y30.5004
G01 X94.7910 Y30.4876
G01 X94.7959 Y30.4775
G01 X94.8000 Y30.4672
G01 X94.8034 Y30.4565
G01 X94.8060 Y30.4456
G01 X94.8197 Y30.3772
G01 X94.8215 Y30.3663
G01 X94.8223 Y30.3591
G01 X94.8227 Y30.3445
G01 X94.8222 Y30.3335
G01 X94.8087 Y30.1800
G01 X94.8262 Y29.9801
G01 X94.8782 Y29.7863
G01 X94.9630 Y29.6044
G01 X95.0781 Y29.4400
G01 X95.2200 Y29.2981
G01 X95.3844 Y29.1830
G01 X95.5663 Y29.0982
G01 X95.7601 Y29.0462
G01 X95.9600 Y29.0287
G01 X96.1599 Y29.0462
G01 X96.3538 Y29.0982
G01 X96.5357 Y29.1830
G01 X96.7001 Y29.2981
G01 X96.8420 Y29.4400
G01 X96.9571 Y29.6044
G01 X97.0419 Y29.7863
G01 X97.0938 Y29.9801
G01 X97.1113 Y30.1800
G01 X97.0938 Y30.3799
G01 X97.0419 Y30.5738
G01 X96.9571 Y30.7557
G01 X96.8420 Y30.9201
G01 X96.7001 Y31.0620
G01 X96.5357 Y31.1771
G01 X96.3538 Y31.2619
G01 X96.1599 Y31.3138
G01 X95.9600 Y31.3313
G01 X95.7988 Y31.3174
G01 X95.7834 Y31.3176
G01 X95.7425 Y31.3202
G01 X95.7315 Y31.3216
G01 X95.7241 Y31.3230
G01 X95.7133 Y31.3257
G01 X95.7027 Y31.3292
G01 X95.6924 Y31.3335
G01 X95.6824 Y31.3384
G01 X95.6147 Y31.3756
G01 X95.6056 Y31.3816
G01 X95.5997 Y31.3860
G01 X95.5941 Y31.3907
G01 X95.5861 Y31.3981
G01 X95.3682 Y31.6160
G01 X95.3599 Y31.6250
G01 X95.3383 Y31.6518
G01 X95.3317 Y31.6610
G01 X95.3259 Y31.6707
G01 X95.3192 Y31.6842
G01 X95.3151 Y31.6948
G01 X95.2922 Y31.7725
G01 X95.2897 Y31.7832
G01 X95.2880 Y31.7940
G01 X95.2871 Y31.8049
G01 X95.2869 Y31.8123
G01 X95.2869 Y32.6846
G01 X95.2875 Y32.7000
G01 X95.2907 Y32.7375
G01 X95.2886 Y32.7546
G01 X95.2871 Y32.7763
G01 X95.2869 Y32.7837
G01 X95.2869 Y35.0055
G01 X95.2876 Y35.0201
G01 X95.2885 Y35.0274
G01 X95.2904 Y35.0382
G01 X95.3035 Y35.0971
G01 X95.3082 Y35.1117
G01 X95.3127 Y35.1223
G01 X95.3161 Y35.1292
G01 X95.3240 Y35.1424
G01 X95.3308 Y35.1517
G01 X95.3356 Y35.1576
G01 X95.3839 Y35.2133
G01 X95.3920 Y35.2214
G01 X95.4006 Y35.2290
G01 X95.4097 Y35.2359
G01 X95.4193 Y35.2421
G01 X95.4294 Y35.2475
G01 X95.4398 Y35.2522
G01 X95.4542 Y35.2572
G01 X95.5248 Y35.2779
G01 X95.5391 Y35.2810
G01 X95.5536 Y35.2827
G01 X95.5645 Y35.2831
G01 X95.6297 Y35.2831
G01 X95.6619 Y35.2866
G01 X95.7580 Y35.3224
G01 X95.8378 Y35.3822
G01 X95.8976 Y35.4621
G01 X95.9335 Y35.5581
G01 X95.9369 Y35.5904
G01 X95.9369 Y37.4697
G01 X95.9335 Y37.5019
G01 X95.8976 Y37.5980
G01 X95.8378 Y37.6778
G01 X95.7580 Y37.7376
G01 X95.6619 Y37.7735
G01 X95.6297 Y37.7769
G01 X93.7504 Y37.7769
G01 X93.7181 Y37.7735
G01 X93.6221 Y37.7376
G01 X93.5422 Y37.6778
G01 X93.4824 Y37.5980
G01 X93.4615 Y37.5418
G01 X93.4559 Y37.5287
G01 X93.4508 Y37.5191
G01 X93.4308 Y37.4841
G01 X93.4247 Y37.4744
G01 X93.4202 Y37.4681
G01 X93.4130 Y37.4592
G01 X93.4078 Y37.4536
G01 X93.3995 Y37.4456
G01 X93.3936 Y37.4407
G01 X93.3844 Y37.4338
G01 X93.3268 Y37.3943
G01 X93.3171 Y37.3882
G01 X93.3104 Y37.3845
G01 X93.2965 Y37.3782
G01 X93.2894 Y37.3756
G01 X93.2784 Y37.3723
G01 X93.2635 Y37.3692
G01 X93.2483 Y37.3676
G01 X93.1747 Y37.3653
G01 X93.1594 Y37.3656
G01 X93.1480 Y37.3669
G01 X93.1331 Y37.3698
G01 X93.1221 Y37.3730
G01 X93.1113 Y37.3769
G01 X93.1009 Y37.3817
G01 X93.0909 Y37.3872
G01 X93.0249 Y37.4271
G01 X93.0160 Y37.4335
G01 X93.0103 Y37.4382
G01 X93.0049 Y37.4430
G01 X92.9974 Y37.4505
G01 X92.8344 Y37.5775
G01 X92.6526 Y37.6758
G01 X92.4572 Y37.7429
G01 X92.2533 Y37.7769
G01 X92.0467 Y37.7769
G01 X91.9274 Y37.7571
G01 X91.9166 Y37.7559
G01 X91.9056 Y37.7555
G01 X91.8514 Y37.7569
G01 X91.8361 Y37.7584
G01 X91.8248 Y37.7605
G01 X91.8136 Y37.7635
G01 X91.8028 Y37.7673
G01 X91.7922 Y37.7719
G01 X91.7209 Y37.8107
G01 X91.7086 Y37.8186
G01 X91.6971 Y37.8277
G01 X91.6891 Y37.8351
G01 X91.4726 Y38.0519
G01 X91.4460 Y38.0848
G01 X91.4378 Y38.0974
G01 X91.4308 Y38.1108
G01 X91.4278 Y38.1177
G01 X91.4239 Y38.1283
G01 X91.4031 Y38.1990
G01 X91.4004 Y38.2096
G01 X91.3991 Y38.2168
G01 X91.3976 Y38.2277
G01 X91.3969 Y38.2423
G01 X91.3971 Y47.9028
G01 X91.3980 Y47.9138
G01 X91.3997 Y47.9246
G01 X91.4125 Y47.9834
G01 X91.4145 Y47.9908
G01 X91.4182 Y48.0017
G01 X91.4211 Y48.0088
G01 X91.4261 Y48.0192
G01 X91.4319 Y48.0292
G01 X91.4362 Y48.0355
G01 X91.4456 Y48.0476
G01 X91.4939 Y48.1033
G01 X91.5048 Y48.1140
G01 X91.5166 Y48.1237
G01 X91.5261 Y48.1301
G01 X91.5360 Y48.1358
G01 X91.5463 Y48.1407
G01 X91.5569 Y48.1449
G01 X91.6313 Y48.1669
G01 X91.6455 Y48.1704
G01 X91.6599 Y48.1724
G01 X91.6709 Y48.1731
G01 X91.8297 Y48.1731
G01 X91.8619 Y48.1766
G01 X91.9580 Y48.2124
G01 X92.0378 Y48.2722
G01 X92.0976 Y48.3521
G01 X92.1335 Y48.4481
G01 X92.1369 Y48.4804
G01 X92.1369 Y52.5197
G01 X92.1335 Y52.5519
G01 X92.0976 Y52.6480
G01 X92.0378 Y52.7278
G01 X91.9580 Y52.7876
G01 X91.8619 Y52.8235
G01 X91.8297 Y52.8269
G01 X89.7704 Y52.8269
G01 X89.7381 Y52.8235
G01 X89.6293 Y52.7829
G01 X89.6094 Y52.7738
G01 X89.6026 Y52.7711
G01 X89.5887 Y52.7666
G01 X89.5744 Y52.7635
G01 X89.5599 Y52.7618
G01 X89.4902 Y52.7568
G01 X89.4826 Y52.7565
G01 X89.4711 Y52.7566
G01 X89.4560 Y52.7582
G01 X89.4447 Y52.7604
G01 X89.4300 Y52.7645
G01 X89.4159 Y52.7701
G01 X89.4056 Y52.7752
G01 X89.3380 Y52.8124
G01 X89.3288 Y52.8184
G01 X89.3230 Y52.8228
G01 X89.3146 Y52.8299
G01 X89.3093 Y52.8349
G01 X87.4198 Y54.7244
G01 X87.3703 Y54.7768
G01 X87.3089 Y54.8147
G01 X87.2524 Y54.8519
G01 X87.1881 Y54.8732
G01 X87.1203 Y54.8978
G01 X87.0529 Y54.9037
G01 X87.0247 Y54.9069
G01 X87.0100 Y54.9075
G01 X86.9725 Y54.9107
G01 X86.9554 Y54.9086
G01 X86.9338 Y54.9071
G01 X86.9263 Y54.9069
G01 X75.6509 Y54.9069
G01 X75.5788 Y54.9090
G01 X75.5087 Y54.8924
G01 X75.4424 Y54.8787
G01 X75.3819 Y54.8483
G01 X75.3165 Y54.8178
G01 X75.2647 Y54.7743
G01 X75.2425 Y54.7566
G01 X75.2317 Y54.7467
G01 X75.2029 Y54.7224
G01 X75.1923 Y54.7089
G01 X75.1780 Y54.6924
G01 X75.1729 Y54.6871
G01 X71.0966 Y50.6107
G01 X71.0844 Y50.5997
G01 X71.0637 Y50.5831
G01 X71.0547 Y50.5763
G01 X71.0451 Y50.5703
G01 X71.0352 Y50.5649
G01 X71.0248 Y50.5603
G01 X71.0142 Y50.5564
G01 X70.9365 Y50.5338
G01 X70.9258 Y50.5316
G01 X70.9185 Y50.5305
G01 X70.9040 Y50.5295
G01 X69.1954 Y50.5294
G01 X69.1631 Y50.5260
G01 X69.0671 Y50.4901
G01 X68.9872 Y50.4303
G01 X68.9274 Y50.3505
G00 Z2.0000
G00 X65.8047 Y39.9656
G01 F60.00
G01 Z-0.2000
G01 F120.00
G01 X65.7640 Y39.9802
G01 X65.7532 Y39.9836
G01 X65.6734 Y40.0036
G01 X65.6624 Y40.0060
G01 X65.5735 Y40.0190
G01 X65.4876 Y40.0234
G01 X65.4763 Y40.0236
G01 X65.3866 Y40.0190
G01 X65.2940 Y40.0053
G01 X65.2032 Y39.9826
G01 X65.1221 Y39.9537
G01 X65.1116 Y39.9496
G01 X65.0305 Y39.9110
G01 X64.9502 Y39.8629
G01 X64.8751 Y39.8072
G01 X64.8057 Y39.7443
G01 X64.7429 Y39.6750
G01 X64.6871 Y39.5998
G01 X64.6390 Y39.5195
G01 X64.6021 Y39.4418
G01 X64.5976 Y39.4315
G01 X64.5675 Y39.3468
G01 X64.5447 Y39.2561
G01 X64.5310 Y39.1635
G01 X64.5264 Y39.0700
G01 X64.5310 Y38.9766
G01 X64.5447 Y38.8840
G01 X64.5675 Y38.7932
G01 X64.5990 Y38.7051
G01 X64.6390 Y38.6205
G01 X64.6871 Y38.5402
G01 X64.7429 Y38.4651
G01 X64.8057 Y38.3957
G01 X64.8751 Y38.3329
G01 X64.9502 Y38.2771
G01 X65.0305 Y38.2290
G01 X65.1082 Y38.1921
G01 X65.1186 Y38.1876
G01 X65.2032 Y38.1575
G01 X65.2866 Y38.1364
G01 X65.3014 Y38.1335
G01 X65.3866 Y38.1210
G01 X65.4800 Y38.1164
G01 X65.5660 Y38.1205
G01 X65.5810 Y38.1219
G01 X65.6661 Y38.1347
G01 X65.7496 Y38.1555
G01 X65.7640 Y38.1599
G01 X65.8450 Y38.1890
G01 X65.9295 Y38.2290
G01 X66.0098 Y38.2771
G01 X66.0790 Y38.3282
G01 X66.0907 Y38.3378
G01 X66.1543 Y38.3957
G01 X66.2172 Y38.4651
G01 X66.2686 Y38.5341
G01 X66.2769 Y38.5466
G01 X66.3210 Y38.6205
G01 X66.3580 Y38.6982
G01 X66.3637 Y38.7121
G01 X66.3926 Y38.7932
G01 X66.4145 Y38.8803
G01 X66.4166 Y38.8914
G01 X66.4281 Y38.9691
G01 X66.4296 Y38.9841
G01 X66.4336 Y39.0700
G01 X66.4294 Y39.1597
G01 X66.4281 Y39.1710
G01 X66.4166 Y39.2486
G01 X66.4145 Y39.2598
G01 X66.3936 Y39.3432
G01 X66.3902 Y39.3540
G01 X66.3756 Y39.3947
G01 X69.8305 Y42.8495
G01 X69.8313 Y39.6845
G01 X69.8253 Y39.6779
G01 X69.8182 Y39.6690
G01 X69.7671 Y39.5998
G01 X69.7227 Y39.5261
G01 X69.7156 Y39.5128
G01 X69.6790 Y39.4350
G01 X69.6499 Y39.3540
G01 X69.6455 Y39.3396
G01 X69.6247 Y39.2561
G01 X69.6110 Y39.1635
G01 X69.6066 Y39.0776
G01 X69.6066 Y39.0625
G01 X69.6110 Y38.9766
G01 X69.6235 Y38.8914
G01 X69.6264 Y38.8766
G01 X69.6475 Y38.7932
G01 X69.6790 Y38.7051
G01 X69.7156 Y38.6272
G01 X69.7227 Y38.6139
G01 X69.7671 Y38.5402
G01 X69.8182 Y38.4710
G01 X69.8278 Y38.4594
G01 X69.8857 Y38.3957
G01 X69.9494 Y38.3378
G01 X69.9610 Y38.3282
G01 X70.0302 Y38.2771
G01 X70.1039 Y38.2327
G01 X70.1172 Y38.2256
G01 X70.1951 Y38.1890
G01 X70.2761 Y38.1599
G01 X70.2905 Y38.1555
G01 X70.3740 Y38.1347
G01 X70.4591 Y38.1219
G01 X70.4741 Y38.1205
G01 X70.5600 Y38.1164
G01 X70.6460 Y38.1205
G01 X70.6610 Y38.1219
G01 X70.7461 Y38.1347
G01 X70.8296 Y38.1555
G01 X70.8440 Y38.1599
G01 X70.9250 Y38.1890
G01 X71.0028 Y38.2256
G01 X71.0161 Y38.2327
G01 X71.0898 Y38.2771
G01 X71.1590 Y38.3282
G01 X71.1707 Y38.3378
G01 X71.2316 Y38.3931
G01 X71.2395 Y38.4012
G01 X71.2922 Y38.4594
G01 X71.3018 Y38.4710
G01 X71.3529 Y38.5402
G01 X71.4010 Y38.6205
G01 X71.4410 Y38.7051
G01 X71.4702 Y38.7861
G01 X71.4746 Y38.8005
G01 X71.4953 Y38.8840
G01 X71.5090 Y38.9766
G01 X71.5134 Y39.0625
G01 X71.5134 Y39.0776
G01 X71.5090 Y39.1635
G01 X71.4966 Y39.2486
G01 X71.4936 Y39.2634
G01 X71.4726 Y39.3468
G01 X71.4437 Y39.4279
G01 X71.4380 Y39.4418
G01 X71.4044 Y39.5128
G01 X71.3973 Y39.5261
G01 X71.3529 Y39.5998
G01 X71.2972 Y39.6750
G01 X71.2395 Y39.7389
G01 X71.2289 Y39.7495
G01 X71.1650 Y39.8072
G01 X71.0960 Y39.8586
G01 X71.0834 Y39.8669
G01 X71.0161 Y39.9073
G01 X71.0028 Y39.9144
G01 X70.9250 Y39.9510
G01 X70.8440 Y39.9802
G01 X70.8296 Y39.9846
G01 X70.7461 Y40.0053
G01 X70.6610 Y40.0181
G01 X70.6497 Y40.0194
G01 X70.6387 Y40.0199
G01 X70.6387 Y43.1039
G01 X70.7058 Y43.1281
G01 X70.8006 Y43.1728
G01 X70.8105 Y43.1782
G01 X70.8907 Y43.2263
G01 X70.9001 Y43.2325
G01 X70.9842 Y43.2950
G01 X71.0592 Y43.3627
G01 X71.0699 Y43.3734
G01 X71.1326 Y43.4426
G01 X71.1399 Y43.4513
G01 X71.2022 Y43.5355
G01 X71.2543 Y43.6221
G01 X71.2614 Y43.6353
G01 X71.3044 Y43.7267
G01 X71.3410 Y43.8289
G01 X71.3657 Y43.9269
G01 X71.3687 Y43.9417
G01 X71.3833 Y44.0416
G01 X71.3886 Y44.1500
G01 X71.3833 Y44.2584
G01 X71.3674 Y44.3658
G01 X71.3430 Y44.4638
G01 X71.3386 Y44.4783
G01 X71.3071 Y44.5663
G01 X71.3014 Y44.5802
G01 X71.2580 Y44.6714
G01 X71.2062 Y44.7582
G01 X71.1979 Y44.7707
G01 X71.1376 Y44.8517
G01 X71.0673 Y44.9295
G01 X71.0592 Y44.9374
G01 X70.9842 Y45.0051
G01 X70.8970 Y45.0697
G01 X70.8039 Y45.1255
G01 X70.7058 Y45.1719
G01 X70.6036 Y45.2085
G01 X70.4983 Y45.2349
G01 X70.3909 Y45.2508
G01 X70.2825 Y45.2561
G01 X70.1838 Y45.2561
G01 X70.0829 Y45.2511
G01 X70.0716 Y45.2499
G01 X69.9792 Y45.2362
G01 X69.9644 Y45.2332
G01 X69.8664 Y45.2085
G01 X69.7713 Y45.1746
G01 X69.7573 Y45.1689
G01 X69.6661 Y45.1255
G01 X69.5730 Y45.0697
G01 X69.4858 Y45.0051
G01 X69.4081 Y44.9348
G01 X69.4002 Y44.9267
G01 X69.3325 Y44.8517
G01 X69.2678 Y44.7645
G01 X69.2120 Y44.6714
G01 X69.1687 Y44.5802
G01 X69.1629 Y44.5663
G01 X69.1314 Y44.4783
G01 X69.1270 Y44.4638
G01 X69.1027 Y44.3658
G01 X69.0877 Y44.2659
G01 X69.0864 Y44.2547
G01 X69.0814 Y44.1500
G01 X69.0868 Y44.0416
G01 X69.1027 Y43.9342
G01 X69.1291 Y43.8289
G01 X69.1656 Y43.7267
G01 X69.2103 Y43.6320
G01 X69.2157 Y43.6221
G01 X69.2678 Y43.5355
G01 X69.3131 Y43.4741
G01 X65.8047 Y39.9656
G00 Z2.0000
G00 X66.2201 Y38.1881
G01 F60.00
G01 Z-0.2000
G01 F120.00
G01 X66.3620 Y38.3300
G01 X66.4771 Y38.4944
G01 X66.5619 Y38.6763
G01 X66.6138 Y38.8701
G01 X66.6313 Y39.0700
G01 X66.6174 Y39.2312
G01 X66.6176 Y39.2466
G01 X66.6202 Y39.2875
G01 X66.6216 Y39.2986
G01 X66.6238 Y39.3095
G01 X66.6268 Y39.3203
G01 X66.6305 Y39.3308
G01 X66.6350 Y39.3410
G01 X66.6737 Y39.4122
G01 X66.6795 Y39.4215
G01 X66.6883 Y39.4332
G01 X66.6981 Y39.4440
G01 X69.1642 Y41.9101
G01 X69.1775 Y41.9225
G01 X69.1893 Y41.9320
G01 X69.2020 Y41.9402
G01 X69.2155 Y41.9472
G01 X69.2791 Y41.9763
G01 X69.2896 Y41.9806
G01 X69.3005 Y41.9842
G01 X69.3116 Y41.9869
G01 X69.3229 Y41.9888
G01 X69.3343 Y41.9899
G01 X69.3457 Y41.9901
G01 X69.3610 Y41.9891
G01 X69.4339 Y41.9786
G01 X69.4414 Y41.9774
G01 X69.4526 Y41.9747
G01 X69.4635 Y41.9713
G01 X69.4706 Y41.9686
G01 X69.4810 Y41.9638
G01 X69.4877 Y41.9602
G01 X69.4975 Y41.9542
G01 X69.5037 Y41.9498
G01 X69.5126 Y41.9427
G01 X69.5654 Y41.8969
G01 X69.5711 Y41.8918
G01 X69.5790 Y41.8836
G01 X69.5887 Y41.8717
G01 X69.5930 Y41.8655
G01 X69.5990 Y41.8557
G01 X69.6057 Y41.8420
G01 X69.6086 Y41.8350
G01 X69.6122 Y41.8241
G01 X69.6329 Y41.7536
G01 X69.6360 Y41.7393
G01 X69.6377 Y41.7248
G01 X69.6381 Y41.7138
G01 X69.6381 Y39.8405
G01 X69.6373 Y39.8208
G01 X69.6350 Y39.8054
G01 X69.6312 Y39.7902
G01 X69.6076 Y39.7203
G01 X69.6023 Y39.7067
G01 X69.5975 Y39.6968
G01 X69.5920 Y39.6874
G01 X69.5630 Y39.6457
G01 X69.4782 Y39.4638
G01 X69.4262 Y39.2699
G01 X69.4087 Y39.0700
G01 X69.4262 Y38.8701
G01 X69.4782 Y38.6763
G01 X69.5630 Y38.4944
G01 X69.6781 Y38.3300
G01 X69.8200 Y38.1881
G01 X69.9844 Y38.0730
G01 X70.1663 Y37.9882
G01 X70.3601 Y37.9362
G01 X70.5600 Y37.9187
G01 X70.7599 Y37.9362
G01 X70.9538 Y37.9882
G01 X71.1357 Y38.0730
G01 X71.3001 Y38.1881
G01 X71.4420 Y38.3300
G01 X71.5571 Y38.4944
G01 X71.6419 Y38.6763
G01 X71.6938 Y38.8701
G01 X71.7113 Y39.0700
G01 X71.6938 Y39.2699
G01 X71.6419 Y39.4638
G01 X71.5571 Y39.6457
G01 X71.4420 Y39.8101
G01 X71.3001 Y39.9520
G01 X71.1357 Y40.0671
G01 X70.9922 Y40.1340
G01 X70.9817 Y40.1394
G01 X70.9750 Y40.1434
G01 X70.9652 Y40.1501
G01 X70.9591 Y40.1549
G01 X70.8986 Y40.2080
G01 X70.8882 Y40.2190
G01 X70.8812 Y40.2279
G01 X70.8769 Y40.2341
G01 X70.8710 Y40.2439
G01 X70.8675 Y40.2506
G01 X70.8614 Y40.2645
G01 X70.8578 Y40.2752
G01 X70.8363 Y40.3493
G01 X70.8341 Y40.3601
G01 X70.8330 Y40.3673
G01 X70.8321 Y40.3782
G01 X70.8319 Y40.3856
G01 X70.8319 Y42.8066
G01 X70.8326 Y42.8209
G01 X70.8340 Y42.8316
G01 X70.8353 Y42.8387
G01 X70.8479 Y42.8968
G01 X70.8526 Y42.9113
G01 X70.8570 Y42.9218
G01 X70.8603 Y42.9286
G01 X70.8681 Y42.9417
G01 X70.8771 Y42.9540
G01 X70.9273 Y43.0129
G01 X70.9323 Y43.0182
G01 X70.9402 Y43.0257
G01 X70.9487 Y43.0327
G01 X70.9547 Y43.0370
G01 X71.0834 Y43.1211
G01 X71.2418 Y43.2669
G01 X71.3741 Y43.4369
G01 X71.4766 Y43.6263
G01 X71.5465 Y43.8299
G01 X71.5819 Y44.0424
G01 X71.5819 Y44.2577
G01 X71.5465 Y44.4701
G01 X71.4766 Y44.6738
G01 X71.3741 Y44.8632
G01 X71.2418 Y45.0331
G01 X71.0834 Y45.1790
G01 X71.0667 Y45.1899
G01 X71.0584 Y45.1960
G01 X71.0249 Y45.2249
G01 X71.0194 Y45.2301
G01 X71.0117 Y45.2385
G01 X71.0024 Y45.2505
G01 X70.9943 Y45.2634
G01 X70.9891 Y45.2736
G01 X70.9581 Y45.3404
G01 X70.9527 Y45.3546
G01 X70.9487 Y45.3694
G01 X70.9462 Y45.3844
G01 X70.9456 Y45.3920
G01 X70.9453 Y45.4035
G01 X70.9462 Y45.4187
G01 X70.9561 Y45.4917
G01 X70.9573 Y45.4992
G01 X70.9598 Y45.5104
G01 X70.9645 Y45.5249
G01 X70.9705 Y45.5389
G01 X70.9779 Y45.5522
G01 X70.9866 Y45.5648
G01 X71.0368 Y45.6238
G01 X71.0468 Y45.6345
G01 X71.0522 Y45.6395
G01 X71.0607 Y45.6464
G01 X71.0831 Y45.6615
G01 X71.2414 Y45.8073
G01 X71.3737 Y45.9772
G01 X71.4761 Y46.1665
G01 X71.5173 Y46.2864
G01 X71.3117 Y46.2864
G01 X71.3058 Y46.2702
G01 X71.3014 Y46.2598
G01 X71.2614 Y46.1753
G01 X71.2543 Y46.1621
G01 X71.2022 Y46.0755
G01 X71.1422 Y45.9943
G01 X71.1326 Y45.9826
G01 X71.0647 Y45.9079
G01 X70.9842 Y45.8350
G01 X70.8970 Y45.7703
G01 X70.8072 Y45.7163
G01 X70.7972 Y45.7111
G01 X70.7058 Y45.6681
G01 X70.6108 Y45.6339
G01 X70.5963 Y45.6295
G01 X70.4983 Y45.6052
G01 X70.3984 Y45.5902
G01 X70.3834 Y45.5887
G01 X70.2825 Y45.5839
G01 X70.1838 Y45.5840
G01 X70.0829 Y45.5889
G01 X70.0716 Y45.5902
G01 X69.9792 Y45.6039
G01 X69.9680 Y45.6060
G01 X69.8664 Y45.6316
G01 X69.7713 Y45.6654
G01 X69.7573 Y45.6712
G01 X69.6661 Y45.7145
G01 X69.5730 Y45.7703
G01 X69.4858 Y45.8350
G01 X69.4054 Y45.9079
G01 X69.3374 Y45.9826
G01 X69.3279 Y45.9943
G01 X69.2678 Y46.0755
G01 X69.2157 Y46.1621
G01 X69.2086 Y46.1753
G01 X69.1687 Y46.2598
G01 X69.1642 Y46.2702
G01 X69.1584 Y46.2864
G01 X68.9528 Y46.2864
G01 X68.9940 Y46.1665
G01 X69.0964 Y45.9772
G01 X69.2286 Y45.8073
G01 X69.3870 Y45.6615
G01 X69.4033 Y45.6508
G01 X69.4117 Y45.6446
G01 X69.4451 Y45.6158
G01 X69.4558 Y45.6050
G01 X69.4632 Y45.5963
G01 X69.4719 Y45.5838
G01 X69.4793 Y45.5705
G01 X69.5104 Y45.5037
G01 X69.5149 Y45.4932
G01 X69.5195 Y45.4787
G01 X69.5228 Y45.4638
G01 X69.5245 Y45.4486
G01 X69.5248 Y45.4372
G01 X69.5242 Y45.4258
G01 X69.5234 Y45.4182
G01 X69.5140 Y45.3489
G01 X69.5112 Y45.3340
G01 X69.5069 Y45.3193
G01 X69.5012 Y45.3052
G01 X69.4941 Y45.2917
G01 X69.4857 Y45.2789
G01 X69.4786 Y45.2699
G01 X69.4332 Y45.2168
G01 X69.4232 Y45.2061
G01 X69.4151 Y45.1988
G01 X69.4094 Y45.1942
G01 X69.3867 Y45.1789
G01 X69.2282 Y45.0331
G01 X69.0960 Y44.8632
G01 X68.9935 Y44.6738
G01 X68.9236 Y44.4701
G01 X68.8881 Y44.2577
G01 X68.8881 Y44.0424
G01 X68.9236 Y43.8299
G01 X68.9880 Y43.6423
G01 X68.9903 Y43.6350
G01 X68.9930 Y43.6240
G01 X68.9950 Y43.6127
G01 X68.9958 Y43.6052
G01 X69.0002 Y43.5273
G01 X68.9996 Y43.5124
G01 X68.9976 Y43.4976
G01 X68.9942 Y43.4831
G01 X68.9893 Y43.4690
G01 X68.9864 Y43.4622
G01 X68.9814 Y43.4522
G01 X68.9479 Y43.3909
G01 X68.9403 Y43.3784
G01 X68.9316 Y43.3667
G01 X68.9217 Y43.3559
G01 X65.8540 Y40.2881
G01 X65.8425 Y40.2778
G01 X65.8004 Y40.2467
G01 X65.7876 Y40.2391
G01 X65.7741 Y40.2327
G01 X65.7601 Y40.2277
G01 X65.7493 Y40.2249
G01 X65.6736 Y40.2096
G01 X65.6627 Y40.2081
G01 X65.6554 Y40.2075
G01 X65.6445 Y40.2073
G01 X65.6371 Y40.2076
G01 X65.4800 Y40.2213
G01 X65.2801 Y40.2038
G01 X65.0863 Y40.1519
G01 X64.9044 Y40.0671
G01 X64.7400 Y39.9520
G01 X64.5981 Y39.8101
G01 X64.4830 Y39.6457
G01 X64.3982 Y39.4638
G01 X64.3462 Y39.2699
G01 X64.3287 Y39.0700
G01 X64.3462 Y38.8701
G01 X64.3982 Y38.6763
G01 X64.4830 Y38.4944
G01 X64.5981 Y38.3300
G01 X64.7400 Y38.1881
G01 X64.9044 Y38.0730
G01 X65.0863 Y37.9882
G01 X65.2801 Y37.9362
G01 X65.4800 Y37.9187
G01 X65.6799 Y37.9362
G01 X65.8738 Y37.9882
G01 X66.0557 Y38.0730
G01 X66.2201 Y38.1881
G00 Z2.0000
G00 X66.3429 Y25.9663
G01 F60.00
G01 Z-0.2000
G01 F120.00
G01 X66.5828 Y25.9663
G01 X67.7372 Y24.8119
G01 X67.7639 Y24.7879
G01 X67.7896 Y24.7687
G01 X67.8021 Y24.7603
G01 X67.8297 Y24.7440
G01 X67.8586 Y24.7301
G01 X67.8726 Y24.7243
G01 X67.9028 Y24.7137
G01 X67.9376 Y24.7048
G01 X67.9487 Y24.7028
G01 X67.9805 Y24.6982
G01 X68.0200 Y24.6963
G01 X71.8338 Y24.6963
G01 X71.8696 Y24.6982
G01 X71.9088 Y24.7041
G01 X71.9472 Y24.7137
G01 X71.9810 Y24.7256
G01 X71.9914 Y24.7301
G01 X72.0170 Y24.7422
G01 X72.0269 Y24.7477
G01 X72.0480 Y24.7603
G01 X72.0605 Y24.7687
G01 X72.0832 Y24.7856
G01 X72.0919 Y24.7929
G01 X72.1155 Y24.8145
G01 X73.3881 Y26.0872
G01 X73.4121 Y26.1139
G01 X73.4357 Y26.1457
G01 X73.4561 Y26.1797
G01 X73.4730 Y26.2155
G01 X73.4864 Y26.2528
G01 X73.4960 Y26.2913
G01 X73.5018 Y26.3305
G01 X73.5037 Y26.3663
G01 X73.5037 Y30.0128
G01 X75.7035 Y32.2126
G01 X75.7151 Y32.1934
G01 X75.7193 Y32.1871
G01 X75.7705 Y32.1180
G01 X75.7778 Y32.1094
G01 X75.8331 Y32.0484
G01 X75.8412 Y32.0405
G01 X75.9051 Y31.9829
G01 X75.9741 Y31.9315
G01 X75.9834 Y31.9251
G01 X76.0605 Y31.8790
G01 X76.1382 Y31.8421
G01 X76.1521 Y31.8363
G01 X76.2332 Y31.8075
G01 X76.3166 Y31.7864
G01 X76.3314 Y31.7835
G01 X76.4128 Y31.7714
G01 X76.4241 Y31.7705
G01 X76.5100 Y31.7664
G01 X77.3100 Y31.7664
G01 X77.4035 Y31.7710
G01 X77.4961 Y31.7847
G01 X77.5796 Y31.8055
G01 X77.5940 Y31.8099
G01 X77.6750 Y31.8390
G01 X77.7528 Y31.8756
G01 X77.7661 Y31.8827
G01 X77.8367 Y31.9251
G01 X77.8460 Y31.9315
G01 X77.9090 Y31.9782
G01 X77.9207 Y31.9878
G01 X77.9843 Y32.0457
G01 X78.0472 Y32.1151
G01 X78.1029 Y32.1902
G01 X78.1473 Y32.2639
G01 X78.1544 Y32.2772
G01 X78.1880 Y32.3482
G01 X78.1937 Y32.3621
G01 X78.2226 Y32.4432
G01 X78.2453 Y32.5340
G01 X78.2590 Y32.6266
G01 X78.2634 Y32.7125
G01 X78.2634 Y32.7276
G01 X78.2596 Y32.8060
G01 X78.2581 Y32.8210
G01 X78.2453 Y32.9061
G01 X78.2236 Y32.9932
G01 X78.2202 Y33.0040
G01 X78.1910 Y33.0850
G01 X78.1544 Y33.1628
G01 X78.1473 Y33.1761
G01 X78.1029 Y33.2498
G01 X78.0518 Y33.3190
G01 X78.0422 Y33.3307
G01 X77.9843 Y33.3943
G01 X77.9207 Y33.4522
G01 X77.9090 Y33.4618
G01 X77.8398 Y33.5129
G01 X77.7661 Y33.5573
G01 X77.7528 Y33.5644
G01 X77.6750 Y33.6010
G01 X77.5868 Y33.6326
G01 X77.5034 Y33.6536
G01 X77.4886 Y33.6566
G01 X77.4035 Y33.6690
G01 X77.3176 Y33.6734
G01 X76.5063 Y33.6736
G01 X76.4166 Y33.6690
G01 X76.3240 Y33.6553
G01 X76.2332 Y33.6326
G01 X76.1521 Y33.6037
G01 X76.1382 Y33.5980
G01 X76.0605 Y33.5610
G01 X75.9802 Y33.5129
G01 X75.9051 Y33.4572
G01 X75.8384 Y33.3970
G01 X75.8305 Y33.3889
G01 X75.7729 Y33.3250
G01 X75.7193 Y33.2529
G01 X75.7131 Y33.2434
G01 X75.6708 Y33.1729
G01 X75.6656 Y33.1628
G01 X75.6472 Y33.1237
G01 X75.6325 Y33.1236
G01 X75.6042 Y33.1221
G01 X75.5930 Y33.1209
G01 X75.5650 Y33.1167
G01 X75.5539 Y33.1143
G01 X75.5228 Y33.1064
G01 X75.4890 Y33.0944
G01 X75.4786 Y33.0900
G01 X75.4497 Y33.0761
G01 X75.4157 Y33.0557
G01 X75.3839 Y33.0321
G01 X75.3572 Y33.0081
G01 X72.8119 Y30.4628
G01 X72.7879 Y30.4361
G01 X72.7643 Y30.4043
G01 X72.7440 Y30.3703
G01 X72.7270 Y30.3345
G01 X72.7137 Y30.2972
G01 X72.7041 Y30.2588
G01 X72.6982 Y30.2196
G01 X72.6963 Y30.1838
G01 X72.6963 Y26.5373
G01 X71.6628 Y25.5037
G01 X70.9565 Y25.5037
G01 X71.0095 Y25.5290
G01 X71.0867 Y25.5751
G01 X71.0960 Y25.5815
G01 X71.1590 Y25.6282
G01 X71.1679 Y25.6353
G01 X71.2343 Y25.6957
G01 X71.2922 Y25.7594
G01 X71.3018 Y25.7710
G01 X71.3486 Y25.8341
G01 X71.3550 Y25.8434
G01 X71.4010 Y25.9205
G01 X71.4380 Y25.9982
G01 X71.4437 Y26.0121
G01 X71.4726 Y26.0932
G01 X71.4953 Y26.1840
G01 X71.5081 Y26.2691
G01 X71.5096 Y26.2841
G01 X71.5136 Y26.3700
G01 X71.5096 Y26.4560
G01 X71.5081 Y26.4710
G01 X71.4953 Y26.5561
G01 X71.4726 Y26.6468
G01 X71.4437 Y26.7279
G01 X71.4380 Y26.7418
G01 X71.4010 Y26.8195
G01 X71.3550 Y26.8967
G01 X71.3486 Y26.9060
G01 X71.3018 Y26.9690
G01 X71.2922 Y26.9807
G01 X71.2343 Y27.0443
G01 X71.1679 Y27.1047
G01 X71.1590 Y27.1118
G01 X71.0960 Y27.1586
G01 X71.0867 Y27.1650
G01 X71.0129 Y27.2092
G01 X71.0028 Y27.2144
G01 X70.9637 Y27.2329
G01 X70.9637 Y35.0928
G01 X73.2673 Y37.3963
G01 X75.6472 Y37.3963
G01 X75.6656 Y37.3572
G01 X75.6708 Y37.3472
G01 X75.7151 Y37.2734
G01 X75.7215 Y37.2641
G01 X75.7682 Y37.2010
G01 X75.7753 Y37.1922
G01 X75.8305 Y37.1312
G01 X75.8412 Y37.1205
G01 X75.9051 Y37.0629
G01 X75.9771 Y37.0093
G01 X75.9866 Y37.0031
G01 X76.0605 Y36.9590
G01 X76.1382 Y36.9221
G01 X76.1521 Y36.9163
G01 X76.2332 Y36.8875
G01 X76.3166 Y36.8664
G01 X76.3314 Y36.8635
G01 X76.4166 Y36.8510
G01 X76.5100 Y36.8464
G01 X77.3100 Y36.8464
G01 X77.3997 Y36.8507
G01 X77.4110 Y36.8519
G01 X77.4961 Y36.8647
G01 X77.5868 Y36.8875
G01 X77.6750 Y36.9190
G01 X77.7528 Y36.9556
G01 X77.7661 Y36.9627
G01 X77.8398 Y37.0071
G01 X77.9090 Y37.0582
G01 X77.9207 Y37.0678
G01 X77.9789 Y37.1205
G01 X77.9895 Y37.1312
G01 X78.0472 Y37.1951
G01 X78.0986 Y37.2641
G01 X78.1069 Y37.2766
G01 X78.1510 Y37.3505
G01 X78.1910 Y37.4351
G01 X78.2226 Y37.5232
G01 X78.2436 Y37.6066
G01 X78.2466 Y37.6214
G01 X78.2590 Y37.7066
G01 X78.2634 Y37.7925
G01 X78.2634 Y37.8076
G01 X78.2596 Y37.8860
G01 X78.2581 Y37.9010
G01 X78.2453 Y37.9861
G01 X78.2226 Y38.0768
G01 X78.1937 Y38.1579
G01 X78.1880 Y38.1718
G01 X78.1510 Y38.2495
G01 X78.1069 Y38.3234
G01 X78.0986 Y38.3360
G01 X78.0472 Y38.4050
G01 X77.9895 Y38.4689
G01 X77.9816 Y38.4770
G01 X77.9150 Y38.5372
G01 X77.8460 Y38.5886
G01 X77.8334 Y38.5969
G01 X77.7595 Y38.6410
G01 X77.6750 Y38.6810
G01 X77.5940 Y38.7102
G01 X77.5796 Y38.7146
G01 X77.5034 Y38.7336
G01 X77.4924 Y38.7360
G01 X77.4035 Y38.7490
G01 X77.3138 Y38.7536
G01 X76.5100 Y38.7536
G01 X76.4241 Y38.7496
G01 X76.4091 Y38.7481
G01 X76.3240 Y38.7353
G01 X76.2405 Y38.7146
G01 X76.2261 Y38.7102
G01 X76.1451 Y38.6810
G01 X76.0672 Y38.6444
G01 X76.0539 Y38.6373
G01 X75.9866 Y38.5969
G01 X75.9771 Y38.5908
G01 X75.9051 Y38.5372
G01 X75.8412 Y38.4795
G01 X75.8305 Y38.4689
G01 X75.7753 Y38.4079
G01 X75.7682 Y38.3990
G01 X75.7215 Y38.3360
G01 X75.7151 Y38.3267
G01 X75.6708 Y38.2529
G01 X75.6656 Y38.2428
G01 X75.6472 Y38.2037
G01 X73.1000 Y38.2037
G01 X73.0605 Y38.2018
G01 X73.0213 Y38.1960
G01 X72.9828 Y38.1864
G01 X72.9490 Y38.1744
G01 X72.9386 Y38.1700
G01 X72.9097 Y38.1561
G01 X72.8757 Y38.1357
G01 X72.8439 Y38.1121
G01 X72.8145 Y38.0855
G01 X70.2719 Y35.5428
G01 X70.2479 Y35.5161
G01 X70.2243 Y35.4843
G01 X70.2040 Y35.4503
G01 X70.1870 Y35.4145
G01 X70.1737 Y35.3772
G01 X70.1641 Y35.3388
G01 X70.1582 Y35.2996
G01 X70.1563 Y35.2638
G01 X70.1563 Y27.2329
G01 X70.1172 Y27.2144
G01 X70.1072 Y27.2092
G01 X70.0334 Y27.1650
G01 X70.0241 Y27.1586
G01 X69.9610 Y27.1118
G01 X69.9522 Y27.1047
G01 X69.8857 Y27.0443
G01 X69.8278 Y26.9807
G01 X69.8182 Y26.9690
G01 X69.7715 Y26.9060
G01 X69.7651 Y26.8967
G01 X69.7190 Y26.8195
G01 X69.6821 Y26.7418
G01 X69.6763 Y26.7279
G01 X69.6475 Y26.6468
G01 X69.6247 Y26.5561
G01 X69.6119 Y26.4710
G01 X69.6105 Y26.4560
G01 X69.6064 Y26.3700
G01 X69.6105 Y26.2841
G01 X69.6119 Y26.2691
G01 X69.6247 Y26.1840
G01 X69.6475 Y26.0932
G01 X69.6763 Y26.0121
G01 X69.6821 Y25.9982
G01 X69.7190 Y25.9205
G01 X69.7651 Y25.8434
G01 X69.7715 Y25.8341
G01 X69.8182 Y25.7710
G01 X69.8278 Y25.7594
G01 X69.8857 Y25.6957
G01 X69.9522 Y25.6353
G01 X69.9610 Y25.6282
G01 X70.0241 Y25.5815
G01 X70.0334 Y25.5751
G01 X70.1105 Y25.5290
G01 X70.1635 Y25.5037
G01 X68.1873 Y25.5037
G01 X67.0355 Y26.6555
G01 X67.0061 Y26.6821
G01 X66.9774 Y26.7036
G01 X66.9680 Y26.7097
G01 X66.9403 Y26.7261
G01 X66.9114 Y26.7400
G01 X66.8975 Y26.7457
G01 X66.8672 Y26.7564
G01 X66.8361 Y26.7643
G01 X66.8214 Y26.7673
G01 X66.7896 Y26.7718
G01 X66.7500 Y26.7737
G01 X66.3429 Y26.7737
G01 X66.3244 Y26.8128
G01 X66.3192 Y26.8229
G01 X66.2750 Y26.8967
G01 X66.2686 Y26.9060
G01 X66.2195 Y26.9720
G01 X66.2122 Y26.9807
G01 X66.1543 Y27.0443
G01 X66.0907 Y27.1022
G01 X66.0820 Y27.1095
G01 X66.0098 Y27.1629
G01 X65.9361 Y27.2073
G01 X65.9228 Y27.2144
G01 X65.8450 Y27.2510
G01 X65.7640 Y27.2802
G01 X65.7496 Y27.2846
G01 X65.6698 Y27.3045
G01 X65.6586 Y27.3066
G01 X65.5735 Y27.3190
G01 X65.4876 Y27.3234
G01 X65.4725 Y27.3234
G01 X65.3941 Y27.3196
G01 X65.3791 Y27.3181
G01 X65.2940 Y27.3053
G01 X65.2032 Y27.2826
G01 X65.1151 Y27.2510
G01 X65.0305 Y27.2110
G01 X64.9502 Y27.1629
G01 X64.8810 Y27.1118
G01 X64.8694 Y27.1022
G01 X64.8112 Y27.0495
G01 X64.8005 Y27.0389
G01 X64.7429 Y26.9750
G01 X64.6871 Y26.8998
G01 X64.6390 Y26.8195
G01 X64.6005 Y26.7384
G01 X64.5963 Y26.7279
G01 X64.5675 Y26.6468
G01 X64.5447 Y26.5561
G01 X64.5310 Y26.4635
G01 X64.5264 Y26.3700
G01 X64.5310 Y26.2766
G01 X64.5447 Y26.1840
G01 X64.5675 Y26.0932
G01 X64.5990 Y26.0051
G01 X64.6390 Y25.9205
G01 X64.6871 Y25.8402
G01 X64.7429 Y25.7651
G01 X64.8057 Y25.6957
G01 X64.8751 Y25.6329
G01 X64.9502 Y25.5771
G01 X65.0305 Y25.5290
G01 X65.1116 Y25.4905
G01 X65.1221 Y25.4863
G01 X65.2032 Y25.4575
G01 X65.2940 Y25.4347
G01 X65.3866 Y25.4210
G01 X65.4800 Y25.4164
G01 X65.5735 Y25.4210
G01 X65.6661 Y25.4347
G01 X65.7568 Y25.4575
G01 X65.8415 Y25.4876
G01 X65.8518 Y25.4921
G01 X65.9295 Y25.5290
G01 X66.0098 Y25.5771
G01 X66.0850 Y25.6329
G01 X66.1516 Y25.6931
G01 X66.1595 Y25.7012
G01 X66.2172 Y25.7651
G01 X66.2708 Y25.8371
G01 X66.2769 Y25.8466
G01 X66.3192 Y25.9172
G01 X66.3244 Y25.9272
G01 X66.3429 Y25.9663
G00 Z2.0000
G00 X66.3429 Y22.1563
G01 F60.00
G01 Z-0.2000
G01 F120.00
G01 X69.6972 Y22.1563
G01 X69.7156 Y22.1172
G01 X69.7208 Y22.1072
G01 X69.7651 Y22.0334
G01 X69.7715 Y22.0241
G01 X69.8182 Y21.9610
G01 X69.8253 Y21.9522
G01 X69.8857 Y21.8857
G01 X69.9494 Y21.8278
G01 X69.9610 Y21.8182
G01 X70.0241 Y21.7715
G01 X70.0334 Y21.7651
G01 X70.1105 Y21.7190
G01 X70.1882 Y21.6821
G01 X70.2021 Y21.6763
G01 X70.2832 Y21.6475
G01 X70.3740 Y21.6247
G01 X70.4591 Y21.6119
G01 X70.4741 Y21.6105
G01 X70.5525 Y21.6066
G01 X70.5638 Y21.6065
G01 X70.6535 Y21.6110
G01 X70.7386 Y21.6235
G01 X70.7534 Y21.6264
G01 X70.8368 Y21.6475
G01 X70.9179 Y21.6763
G01 X70.9318 Y21.6821
G01 X71.0095 Y21.7190
G01 X71.0867 Y21.7651
G01 X71.0960 Y21.7715
G01 X71.1590 Y21.8182
G01 X71.1707 Y21.8278
G01 X71.2343 Y21.8857
G01 X71.2947 Y21.9522
G01 X71.3018 Y21.9610
G01 X71.3486 Y22.0241
G01 X71.3550 Y22.0334
G01 X71.3992 Y22.1072
G01 X71.4044 Y22.1172
G01 X71.4229 Y22.1563
G01 X71.8300 Y22.1563
G01 X71.8621 Y22.1577
G01 X71.8733 Y22.1587
G01 X71.9088 Y22.1641
G01 X71.9400 Y22.1717
G01 X71.9508 Y22.1748
G01 X71.9810 Y22.1856
G01 X71.9914 Y22.1901
G01 X72.0203 Y22.2040
G01 X72.0480 Y22.2203
G01 X72.0605 Y22.2287
G01 X72.0861 Y22.2479
G01 X72.1155 Y22.2745
G01 X77.1955 Y27.3545
G01 X77.2221 Y27.3839
G01 X77.2436 Y27.4126
G01 X77.2497 Y27.4221
G01 X77.2624 Y27.4432
G01 X77.2695 Y27.4564
G01 X77.2830 Y27.4855
G01 X77.2952 Y27.5192
G01 X77.2984 Y27.5301
G01 X77.3043 Y27.5539
G01 X77.3067 Y27.5650
G01 X77.3118 Y27.6005
G01 X77.3136 Y27.6325
G01 X77.3137 Y29.2265
G01 X77.4035 Y29.2310
G01 X77.4886 Y29.2435
G01 X77.5034 Y29.2464
G01 X77.5868 Y29.2675
G01 X77.6679 Y29.2963
G01 X77.6818 Y29.3021
G01 X77.7595 Y29.3390
G01 X77.8334 Y29.3831
G01 X77.8460 Y29.3915
G01 X77.9150 Y29.4429
G01 X77.9789 Y29.5005
G01 X77.9895 Y29.5112
G01 X78.0472 Y29.5751
G01 X78.0986 Y29.6441
G01 X78.1069 Y29.6566
G01 X78.1510 Y29.7305
G01 X78.1910 Y29.8151
G01 X78.2202 Y29.8961
G01 X78.2246 Y29.9105
G01 X78.2453 Y29.9940
G01 X78.2581 Y30.0791
G01 X78.2596 Y30.0941
G01 X78.2636 Y30.1800
G01 X78.2596 Y30.2660
G01 X78.2581 Y30.2810
G01 X78.2466 Y30.3586
G01 X78.2436 Y30.3734
G01 X78.2226 Y30.4568
G01 X78.1937 Y30.5379
G01 X78.1880 Y30.5518
G01 X78.1510 Y30.6295
G01 X78.1069 Y30.7034
G01 X78.0986 Y30.7160
G01 X78.0518 Y30.7790
G01 X78.0422 Y30.7907
G01 X77.9843 Y30.8543
G01 X77.9207 Y30.9122
G01 X77.9090 Y30.9218
G01 X77.8398 Y30.9729
G01 X77.7595 Y31.0210
G01 X77.6750 Y31.0610
G01 X77.5940 Y31.0902
G01 X77.5796 Y31.0946
G01 X77.4961 Y31.1153
G01 X77.4110 Y31.1281
G01 X77.3960 Y31.1296
G01 X77.3138 Y31.1336
G01 X76.5063 Y31.1336
G01 X76.4166 Y31.1290
G01 X76.3314 Y31.1166
G01 X76.3203 Y31.1145
G01 X76.2332 Y31.0926
G01 X76.1451 Y31.0610
G01 X76.0605 Y31.0210
G01 X75.9866 Y30.9769
G01 X75.9741 Y30.9686
G01 X75.9110 Y30.9218
G01 X75.8994 Y30.9122
G01 X75.8357 Y30.8543
G01 X75.7729 Y30.7850
G01 X75.7171 Y30.7098
G01 X75.6727 Y30.6361
G01 X75.6656 Y30.6228
G01 X75.6321 Y30.5518
G01 X75.6263 Y30.5379
G01 X75.5975 Y30.4568
G01 X75.5764 Y30.3734
G01 X75.5735 Y30.3586
G01 X75.5610 Y30.2735
G01 X75.5564 Y30.1800
G01 X75.5610 Y30.0866
G01 X75.5735 Y30.0014
G01 X75.5764 Y29.9866
G01 X75.5975 Y29.9032
G01 X75.6290 Y29.8151
G01 X75.6690 Y29.7305
G01 X75.7131 Y29.6566
G01 X75.7215 Y29.6441
G01 X75.7682 Y29.5810
G01 X75.7778 Y29.5694
G01 X75.8357 Y29.5057
G01 X75.9051 Y29.4429
G01 X75.9802 Y29.3871
G01 X76.0539 Y29.3427
G01 X76.0672 Y29.3356
G01 X76.1382 Y29.3021
G01 X76.1521 Y29.2963
G01 X76.2332 Y29.2675
G01 X76.3240 Y29.2447
G01 X76.4166 Y29.2310
G01 X76.5063 Y29.2265
G01 X76.5063 Y27.8073
G01 X71.6628 Y22.9637
G01 X71.4229 Y22.9637
G01 X71.4044 Y23.0028
G01 X71.3992 Y23.0129
G01 X71.3550 Y23.0867
G01 X71.3486 Y23.0960
G01 X71.3018 Y23.1590
G01 X71.2947 Y23.1679
G01 X71.2343 Y23.2343
G01 X71.1707 Y23.2922
G01 X71.1590 Y23.3018
G01 X71.0960 Y23.3486
G01 X71.0867 Y23.3550
G01 X71.0095 Y23.4010
G01 X70.9318 Y23.4380
G01 X70.9179 Y23.4437
G01 X70.8368 Y23.4726
G01 X70.7534 Y23.4936
G01 X70.7386 Y23.4966
G01 X70.6535 Y23.5090
G01 X70.5600 Y23.5136
G01 X70.4666 Y23.5090
G01 X70.3814 Y23.4966
G01 X70.3666 Y23.4936
G01 X70.2832 Y23.4726
G01 X70.2021 Y23.4437
G01 X70.1882 Y23.4380
G01 X70.1105 Y23.4010
G01 X70.0334 Y23.3550
G01 X70.0241 Y23.3486
G01 X69.9610 Y23.3018
G01 X69.9494 Y23.2922
G01 X69.8857 Y23.2343
G01 X69.8253 Y23.1679
G01 X69.8182 Y23.1590
G01 X69.7715 Y23.0960
