(G-CODE GENERATED BY FLATCAM v8.994 - www.flatcam.org - Version Date: 2020/11/7)

(Name: med_assoc_lick_sens_addon-PTH.drl_cnc)
(Type: G-code from Geometry)
(Units: MM)

(Created on Friday, 14 July 2023 at 13:20)

(This preprocessor is the default preprocessor used by FlatCAM.)
(It is made to work with MACH3 compatible motion controllers.)


(TOOLS DIAMETER: )
(Tool: 1 -> Dia: 0.8000999999999999)
(Tool: 2 -> Dia: 0.89916)
(Tool: 3 -> Dia: 1.0998199999999998)
(Tool: 4 -> Dia: 1.3208)

(FEEDRATE Z: )
(Tool: 1 -> Feedrate: 300)
(Tool: 2 -> Feedrate: 300)
(Tool: 3 -> Feedrate: 300)
(Tool: 4 -> Feedrate: 300)

(FEEDRATE RAPIDS: )
(Tool: 1 -> Feedrate Rapids: 1500)
(Tool: 2 -> Feedrate Rapids: 1500)
(Tool: 3 -> Feedrate Rapids: 1500)
(Tool: 4 -> Feedrate Rapids: 1500)

(Z_CUT: )
(Tool: 1 -> Z_Cut: -1.8)
(Tool: 2 -> Z_Cut: -1.8)
(Tool: 3 -> Z_Cut: -1.8)
(Tool: 4 -> Z_Cut: -1.8)

(Tools Offset: )
(Tool: 1 -> Offset Z: 0.0)
(Tool: 2 -> Offset Z: 0.0)
(Tool: 3 -> Offset Z: 0.0)
(Tool: 4 -> Offset Z: 0.0)

(Z_MOVE: )
(Tool: 1 -> Z_Move: 2)
(Tool: 2 -> Z_Move: 2)
(Tool: 3 -> Z_Move: 2)
(Tool: 4 -> Z_Move: 2)

(Z Toolchange: 15 mm)
(X,Y Toolchange: 0.0000, 0.0000 mm)
(Z Start: None mm)
(Z End: 0.5 mm)
(X,Y End: None mm)
(Steps per circle: 64)
(Preprocessor Excellon: default)

(X range:   65.0800 ...   96.3601  mm)
(Y range:    9.4600 ...   51.1604  mm)

(Spindle Speed: 0 RPM)
G21
G90
G94

G01 F300.00

M5
G00 Z15.0000
T3M6
(MSG, Change to Tool Dia = 0.8001 ||| Total drills for tool T1 = 30)
M0
G00 Z15.0000

G01 F300.00
M03
G00 X95.9600 Y30.1800
G01 Z-1.8000
G01 Z0
G00 Z2.0000
G00 X90.8800 Y30.1800
G01 Z-1.8000
G01 Z0
G00 Z2.0000
G00 X92.1500 Y36.5300
G01 Z-1.8000
G01 Z0
G00 Z2.0000
G00 X94.6900 Y36.5300
G01 Z-1.8000
G01 Z0
G00 Z2.0000
G00 X90.8013 Y50.5000
G01 Z-1.8000
G01 Z0
G00 Z2.0000
G00 X85.8000 Y50.5000
G01 Z-1.8000
G01 Z0
G00 Z2.0000
G00 X80.7988 Y50.5000
G01 Z-1.8000
G01 Z0
G00 Z2.0000
G00 X70.2349 Y49.2300
G01 Z-1.8000
G01 Z0
G00 Z2.0000
G00 X70.2349 Y46.6900
G01 Z-1.8000
G01 Z0
G00 Z2.0000
G00 X70.2349 Y44.1500
G01 Z-1.8000
G01 Z0
G00 Z2.0000
G00 X70.5600 Y39.0700
G01 Z-1.8000
G01 Z0
G00 Z2.0000
G00 X65.4800 Y39.0700
G01 Z-1.8000
G01 Z0
G00 Z2.0000
G00 X65.4800 Y26.3700
G01 Z-1.8000
G01 Z0
G00 Z2.0000
G00 X65.4800 Y22.5600
G01 Z-1.8000
G01 Z0
G00 Z2.0000
G00 X65.4800 Y9.8600
G01 Z-1.8000
G01 Z0
G00 Z2.0000
G00 X70.5600 Y9.8600
G01 Z-1.8000
G01 Z0
G00 Z2.0000
G00 X70.5600 Y22.5600
G01 Z-1.8000
G01 Z0
G00 Z2.0000
G00 X70.5600 Y26.3700
G01 Z-1.8000
G01 Z0
G00 Z2.0000
G00 X76.9100 Y30.1800
G01 Z-1.8000
G01 Z0
G00 Z2.0000
G00 X76.9100 Y32.7200
G01 Z-1.8000
G01 Z0
G00 Z2.0000
G00 X76.9100 Y35.2600
G01 Z-1.8000
G01 Z0
G00 Z2.0000
G00 X76.9100 Y37.8000
G01 Z-1.8000
G01 Z0
G00 Z2.0000
G00 X84.5300 Y37.8000
G01 Z-1.8000
G01 Z0
G00 Z2.0000
G00 X84.5300 Y35.2600
G01 Z-1.8000
G01 Z0
G00 Z2.0000
G00 X84.5300 Y32.7200
G01 Z-1.8000
G01 Z0
G00 Z2.0000
G00 X84.5300 Y30.1800
G01 Z-1.8000
G01 Z0
G00 Z2.0000
G00 X78.1800 Y16.2100
G01 Z-1.8000
G01 Z0
G00 Z2.0000
G00 X83.1813 Y16.2100
G01 Z-1.8000
G01 Z0
G00 Z2.0000
G00 X90.8800 Y17.4800
G01 Z-1.8000
G01 Z0
G00 Z2.0000
G00 X95.9600 Y17.4800
G01 Z-1.8000
G01 Z0
G00 Z2.0000
M05
G00 Z0.50


