(G-CODE GENERATED BY FLATCAM v8.994 - www.flatcam.org - Version Date: 2020/11/7)

(Name: med_assoc_lick_sens_addon-Edge_Cuts.gbr_cutout_cnc)
(Type: G-code from Geometry)
(Units: MM)

(Created on Friday, 14 July 2023 at 13:49)

(This preprocessor is the default preprocessor used by FlatCAM.)
(It is made to work with MACH3 compatible motion controllers.)

(TOOL DIAMETER: 0.8 mm)
(Feedrate_XY: 120.0 mm/min)
(Feedrate_Z: 60.0 mm/min)
(Feedrate rapids 1500.0 mm/min)

(Z_Cut: -1.8 mm)
(DepthPerCut: 0.6 mm <=>3 passes)
(Z_Move: 2.0 mm)
(Z Start: None mm)
(Z End: 15.0 mm)
(X,Y End: None mm)
(Steps per circle: 64)
(Preprocessor Geometry: default)

(X range:   53.5000 ...  105.4000  mm)
(Y range:    5.5000 ...   58.6700  mm)

(Spindle Speed: 0.0 RPM)
G21
G90
G94

G01 F120.00

M5
G00 Z15.0000
G00 X0.0000 Y0.0000
T3M6    
(MSG, Change to Tool Dia = 0.8000)
M0
G00 Z15.0000

M03
G01 F120.00
G00 X53.5000 Y29.7850
G01 F60.00
G01 Z-0.6000
G01 F120.00
G01 X53.5000 Y6.0500
G01 X53.5008 Y6.0206
G01 X53.5064 Y5.9669
G01 X53.5171 Y5.9140
G01 X53.5330 Y5.8624
G01 X53.5539 Y5.8127
G01 X53.5796 Y5.7652
G01 X53.6098 Y5.7204
G01 X53.6442 Y5.6789
G01 X53.6825 Y5.6409
G01 X53.7244 Y5.6068
G01 X53.7694 Y5.5770
G01 X53.8171 Y5.5518
G01 X53.8671 Y5.5314
G01 X53.9188 Y5.5159
G01 X53.9718 Y5.5057
G01 X54.0206 Y5.5008
G01 X54.0500 Y5.5000
G01 X77.1500 Y5.5000
G00 X77.1500 Y5.5000
G01 F60.00
G01 Z-1.2000
G01 F120.00
G01 X54.0500 Y5.5000
G01 X54.0206 Y5.5008
G01 X53.9718 Y5.5057
G01 X53.9188 Y5.5159
G01 X53.8671 Y5.5314
G01 X53.8171 Y5.5518
G01 X53.7694 Y5.5770
G01 X53.7244 Y5.6068
G01 X53.6825 Y5.6409
G01 X53.6442 Y5.6789
G01 X53.6098 Y5.7204
G01 X53.5796 Y5.7652
G01 X53.5539 Y5.8127
G01 X53.5330 Y5.8624
G01 X53.5171 Y5.9140
G01 X53.5064 Y5.9669
G01 X53.5008 Y6.0206
G01 X53.5000 Y6.0500
G01 X53.5000 Y29.7850
G00 X53.5000 Y29.7850
G01 F60.00
G01 Z-1.8000
G01 F120.00
G01 X53.5000 Y6.0500
G01 X53.5008 Y6.0206
G01 X53.5064 Y5.9669
G01 X53.5171 Y5.9140
G01 X53.5330 Y5.8624
G01 X53.5539 Y5.8127
G01 X53.5796 Y5.7652
G01 X53.6098 Y5.7204
G01 X53.6442 Y5.6789
G01 X53.6825 Y5.6409
G01 X53.7244 Y5.6068
G01 X53.7694 Y5.5770
G01 X53.8171 Y5.5518
G01 X53.8671 Y5.5314
G01 X53.9188 Y5.5159
G01 X53.9718 Y5.5057
G01 X54.0206 Y5.5008
G01 X54.0500 Y5.5000
G01 X77.1500 Y5.5000
G00 Z2.0000
G00 X53.5000 Y34.5850
G01 F60.00
G01 Z-0.6000
G01 F120.00
G01 X53.5000 Y58.1200
G01 X53.5008 Y58.1495
G01 X53.5064 Y58.2031
G01 X53.5171 Y58.2560
G01 X53.5330 Y58.3076
G01 X53.5539 Y58.3574
G01 X53.5796 Y58.4049
G01 X53.6098 Y58.4496
G01 X53.6442 Y58.4912
G01 X53.6825 Y58.5292
G01 X53.7244 Y58.5632
G01 X53.7694 Y58.5930
G01 X53.8171 Y58.6182
G01 X53.8671 Y58.6387
G01 X53.9188 Y58.6541
G01 X53.9718 Y58.6644
G01 X54.0206 Y58.6692
G01 X54.0500 Y58.6700
G01 X77.1500 Y58.6700
G00 X77.1500 Y58.6700
G01 F60.00
G01 Z-1.2000
G01 F120.00
G01 X54.0500 Y58.6700
G01 X54.0206 Y58.6692
G01 X53.9718 Y58.6644
G01 X53.9188 Y58.6541
G01 X53.8671 Y58.6387
G01 X53.8171 Y58.6182
G01 X53.7694 Y58.5930
G01 X53.7244 Y58.5632
G01 X53.6825 Y58.5292
G01 X53.6442 Y58.4912
G01 X53.6098 Y58.4496
G01 X53.5796 Y58.4049
G01 X53.5539 Y58.3574
G01 X53.5330 Y58.3076
G01 X53.5171 Y58.2560
G01 X53.5064 Y58.2031
G01 X53.5008 Y58.1495
G01 X53.5000 Y58.1200
G01 X53.5000 Y34.5850
G00 X53.5000 Y34.5850
G01 F60.00
G01 Z-1.8000
G01 F120.00
G01 X53.5000 Y58.1200
G01 X53.5008 Y58.1495
G01 X53.5064 Y58.2031
G01 X53.5171 Y58.2560
G01 X53.5330 Y58.3076
G01 X53.5539 Y58.3574
G01 X53.5796 Y58.4049
G01 X53.6098 Y58.4496
G01 X53.6442 Y58.4912
G01 X53.6825 Y58.5292
G01 X53.7244 Y58.5632
G01 X53.7694 Y58.5930
G01 X53.8171 Y58.6182
G01 X53.8671 Y58.6387
G01 X53.9188 Y58.6541
G01 X53.9718 Y58.6644
G01 X54.0206 Y58.6692
G01 X54.0500 Y58.6700
G01 X77.1500 Y58.6700
G00 Z2.0000
G00 X81.9500 Y58.6700
G01 F60.00
G01 Z-0.6000
G01 F120.00
G01 X104.8500 Y58.6700
G01 X104.8795 Y58.6692
G01 X104.9283 Y58.6644
G01 X104.9813 Y58.6541
G01 X105.0330 Y58.6387
G01 X105.0829 Y58.6182
G01 X105.1307 Y58.5930
G01 X105.1757 Y58.5632
G01 X105.2175 Y58.5292
G01 X105.2559 Y58.4912
G01 X105.2903 Y58.4496
G01 X105.3205 Y58.4049
G01 X105.3461 Y58.3574
G01 X105.3670 Y58.3076
G01 X105.3829 Y58.2560
G01 X105.3937 Y58.2031
G01 X105.3992 Y58.1495
G01 X105.4000 Y58.1200
G01 X105.4000 Y34.5850
G00 X105.4000 Y34.5850
G01 F60.00
G01 Z-1.2000
G01 F120.00
G01 X105.4000 Y58.1200
G01 X105.3992 Y58.1495
G01 X105.3937 Y58.2031
G01 X105.3829 Y58.2560
G01 X105.3670 Y58.3076
G01 X105.3461 Y58.3574
G01 X105.3205 Y58.4049
G01 X105.2903 Y58.4496
G01 X105.2559 Y58.4912
G01 X105.2175 Y58.5292
G01 X105.1757 Y58.5632
G01 X105.1307 Y58.5930
G01 X105.0829 Y58.6182
G01 X105.0330 Y58.6387
G01 X104.9813 Y58.6541
G01 X104.9283 Y58.6644
G01 X104.8795 Y58.6692
G01 X104.8500 Y58.6700
G01 X81.9500 Y58.6700
G00 X81.9500 Y58.6700
G01 F60.00
G01 Z-1.8000
G01 F120.00
G01 X104.8500 Y58.6700
G01 X104.8795 Y58.6692
G01 X104.9283 Y58.6644
G01 X104.9813 Y58.6541
G01 X105.0330 Y58.6387
G01 X105.0829 Y58.6182
G01 X105.1307 Y58.5930
G01 X105.1757 Y58.5632
G01 X105.2175 Y58.5292
G01 X105.2559 Y58.4912
G01 X105.2903 Y58.4496
G01 X105.3205 Y58.4049
G01 X105.3461 Y58.3574
G01 X105.3670 Y58.3076
G01 X105.3829 Y58.2560
G01 X105.3937 Y58.2031
G01 X105.3992 Y58.1495
G01 X105.4000 Y58.1200
G01 X105.4000 Y34.5850
G00 Z2.0000
G00 X105.4000 Y29.7850
G01 F60.00
G01 Z-0.6000
G01 F120.00
G01 X105.4000 Y6.0500
G01 X105.3992 Y6.0206
G01 X105.3937 Y5.9669
G01 X105.3829 Y5.9140
G01 X105.3670 Y5.8624
G01 X105.3461 Y5.8127
G01 X105.3205 Y5.7652
G01 X105.2903 Y5.7204
G01 X105.2559 Y5.6789
G01 X105.2175 Y5.6409
G01 X105.1757 Y5.6068
G01 X105.1307 Y5.5770
G01 X105.0829 Y5.5518
G01 X105.0330 Y5.5314
G01 X104.9813 Y5.5159
G01 X104.9283 Y5.5057
G01 X104.8795 Y5.5008
G01 X104.8500 Y5.5000
G01 X81.9500 Y5.5000
G00 X81.9500 Y5.5000
G01 F60.00
G01 Z-1.2000
G01 F120.00
G01 X104.8500 Y5.5000
G01 X104.8795 Y5.5008
G01 X104.9283 Y5.5057
G01 X104.9813 Y5.5159
G01 X105.0330 Y5.5314
G01 X105.0829 Y5.5518
G01 X105.1307 Y5.5770
G01 X105.1757 Y5.6068
G01 X105.2175 Y5.6409
G01 X105.2559 Y5.6789
G01 X105.2903 Y5.7204
G01 X105.3205 Y5.7652
G01 X105.3461 Y5.8127
G01 X105.3670 Y5.8624
G01 X105.3829 Y5.9140
G01 X105.3937 Y5.9669
G01 X105.3992 Y6.0206
G01 X105.4000 Y6.0500
G01 X105.4000 Y29.7850
G00 X105.4000 Y29.7850
G01 F60.00
G01 Z-1.8000
G01 F120.00
G01 X105.4000 Y6.0500
G01 X105.3992 Y6.0206
G01 X105.3937 Y5.9669
G01 X105.3829 Y5.9140
G01 X105.3670 Y5.8624
G01 X105.3461 Y5.8127
G01 X105.3205 Y5.7652
G01 X105.2903 Y5.7204
G01 X105.2559 Y5.6789
G01 X105.2175 Y5.6409
G01 X105.1757 Y5.6068
G01 X105.1307 Y5.5770
G01 X105.0829 Y5.5518
G01 X105.0330 Y5.5314
G01 X104.9813 Y5.5159
G01 X104.9283 Y5.5057
G01 X104.8795 Y5.5008
G01 X104.8500 Y5.5000
G01 X81.9500 Y5.5000
G00 Z2.0000
M05
G00 Z2.0000
G00 Z15.00


