(G-CODE GENERATED BY FLATCAM v8.994 - www.flatcam.org - Version Date: 2020/11/7)

(Name: med_assoc_lick_sens_addon-B_Cu.gbr_iso_combined_cnc)
(Type: G-code from Geometry)
(Units: MM)

(Created on Thursday, 13 July 2023 at 13:53)

(This preprocessor is the default preprocessor used by FlatCAM.)
(It is made to work with MACH3 compatible motion controllers.)

(TOOL DIAMETER: 0.2536 mm)
(Feedrate_XY: 120.0 mm/min)
(Feedrate_Z: 60.0 mm/min)
(Feedrate rapids 1500.0 mm/min)

(Z_Cut: -0.2866 mm)
(Z_Move: 2.0 mm)
(Z Start: None mm)
(Z End: 15.0 mm)
(X,Y End: None mm)
(Steps per circle: 64)
(Preprocessor Geometry: default)

(X range:    0.5737 ...   51.6263  mm)
(Y range:    0.2437 ...   52.5663  mm)

(Spindle Speed: 0.0 RPM)
G21
G90
G94

G01 F120.00

M5
G00 Z15.0000
G00 X0.0000 Y0.0000
T2M6    
(MSG, Change to Tool Dia = 0.2536)
M0
G00 Z15.0000

M03
G01 F120.00
G00 X12.8873 Y3.2775
G01 F60.00
G01 Z-0.2866
G01 F120.00
G01 X13.0325 Y3.4227
G01 X13.1503 Y3.5909
G01 X13.2371 Y3.7770
G01 X13.2903 Y3.9754
G01 X13.3082 Y4.1800
G01 X13.2942 Y4.3422
G01 X13.2943 Y4.3549
G01 X13.2967 Y4.3921
G01 X13.2981 Y4.4043
G01 X13.2999 Y4.4133
G01 X13.3023 Y4.4222
G01 X13.3054 Y4.4309
G01 X13.3091 Y4.4393
G01 X13.3469 Y4.5088
G01 X13.3552 Y4.5213
G01 X13.3609 Y4.5284
G01 X13.3671 Y4.5350
G01 X14.8573 Y6.0252
G01 X14.8650 Y6.0319
G01 X14.8906 Y6.0523
G01 X14.9010 Y6.0592
G01 X14.9120 Y6.0649
G01 X14.9265 Y6.0706
G01 X14.9994 Y6.0920
G01 X15.0082 Y6.0940
G01 X15.0172 Y6.0954
G01 X15.0322 Y6.0963
G01 X26.0891 Y6.0963
G01 X26.1622 Y6.0942
G01 X26.1657 Y6.0946
G01 X26.2332 Y6.1106
G01 X26.3054 Y6.1256
G01 X26.3082 Y6.1266
G01 X26.3735 Y6.1593
G01 X26.4364 Y6.1887
G01 X26.4394 Y6.1906
G01 X26.4925 Y6.2352
G01 X26.5153 Y6.2533
G01 X26.5260 Y6.2632
G01 X26.5568 Y6.2891
G01 X26.5660 Y6.3013
G01 X26.5861 Y6.3240
G01 X28.4152 Y8.1531
G01 X28.4265 Y8.1631
G01 X28.4388 Y8.1717
G01 X28.5054 Y8.2082
G01 X28.5138 Y8.2125
G01 X28.5256 Y8.2171
G01 X28.5377 Y8.2205
G01 X28.5501 Y8.2227
G01 X28.5626 Y8.2237
G01 X28.5752 Y8.2234
G01 X28.6509 Y8.2179
G01 X28.6628 Y8.2159
G01 X28.6773 Y8.2118
G01 X28.7619 Y8.1803
G01 X28.7989 Y8.1763
G01 X30.8611 Y8.1763
G01 X30.8981 Y8.1803
G01 X31.0009 Y8.2186
G01 X31.0870 Y8.2830
G01 X31.1514 Y8.3691
G01 X31.1897 Y8.4719
G01 X31.1937 Y8.5089
G01 X31.1937 Y12.5511
G01 X31.1897 Y12.5881
G01 X31.1514 Y12.6909
G01 X31.0870 Y12.7770
G01 X31.0009 Y12.8414
G01 X30.8981 Y12.8797
G01 X30.8611 Y12.8837
G01 X28.7989 Y12.8837
G01 X28.7619 Y12.8797
G01 X28.6591 Y12.8414
G01 X28.5730 Y12.7770
G01 X28.5086 Y12.6909
G01 X28.4703 Y12.5881
G01 X28.4663 Y12.5511
G01 X28.4663 Y10.0722
G01 X28.4656 Y10.0587
G01 X28.4624 Y10.0292
G01 X28.4608 Y10.0200
G01 X28.4567 Y10.0050
G01 X28.4534 Y9.9963
G01 X28.4494 Y9.9879
G01 X28.4115 Y9.9186
G01 X28.4029 Y9.9062
G01 X28.3928 Y9.8949
G01 X25.9151 Y7.4172
G01 X25.9050 Y7.4081
G01 X25.8819 Y7.3895
G01 X25.8743 Y7.3841
G01 X25.8663 Y7.3793
G01 X25.8580 Y7.3751
G01 X25.8435 Y7.3694
G01 X25.7677 Y7.3473
G01 X25.7528 Y7.3446
G01 X25.7378 Y7.3437
G01 X14.6809 Y7.3437
G01 X14.6078 Y7.3458
G01 X14.6043 Y7.3454
G01 X14.5332 Y7.3286
G01 X14.4646 Y7.3144
G01 X14.4618 Y7.3134
G01 X14.3965 Y7.2807
G01 X14.3336 Y7.2513
G01 X14.3306 Y7.2494
G01 X14.2775 Y7.2048
G01 X14.2547 Y7.1867
G01 X14.2440 Y7.1768
G01 X14.2132 Y7.1509
G01 X14.2040 Y7.1387
G01 X14.1839 Y7.1160
G01 X12.4850 Y5.4171
G01 X12.4756 Y5.4085
G01 X12.4355 Y5.3790
G01 X12.4222 Y5.3713
G01 X12.4110 Y5.3663
G01 X12.4023 Y5.3633
G01 X12.3934 Y5.3610
G01 X12.3218 Y5.3466
G01 X12.3129 Y5.3451
G01 X12.3009 Y5.3441
G01 X12.2888 Y5.3443
G01 X12.1300 Y5.3582
G01 X11.9254 Y5.3403
G01 X11.7270 Y5.2871
G01 X11.5409 Y5.2003
G01 X11.3727 Y5.0825
G01 X11.2275 Y4.9373
G01 X11.1097 Y4.7691
G01 X11.0229 Y4.5830
G01 X10.9697 Y4.3846
G01 X10.9518 Y4.1800
G01 X10.9697 Y3.9754
G01 X11.0229 Y3.7770
G01 X11.1097 Y3.5909
G01 X11.2275 Y3.4227
G01 X11.3727 Y3.2775
G01 X11.5409 Y3.1597
G01 X11.7270 Y3.0729
G01 X11.9254 Y3.0197
G01 X12.1300 Y3.0018
G01 X12.3346 Y3.0197
G01 X12.5330 Y3.0729
G01 X12.7191 Y3.1597
G01 X12.8873 Y3.2775
G00 Z2.0000
G00 X12.4616 Y5.0447
G01 F60.00
G01 Z-0.2866
G01 F120.00
G01 X12.3990 Y5.0669
G01 X12.3169 Y5.0876
G01 X12.3078 Y5.0896
G01 X12.2208 Y5.1023
G01 X12.1362 Y5.1066
G01 X12.1269 Y5.1068
G01 X12.0392 Y5.1023
G01 X11.9492 Y5.0890
G01 X11.8610 Y5.0669
G01 X11.7811 Y5.0385
G01 X11.7725 Y5.0350
G01 X11.6931 Y4.9974
G01 X11.6151 Y4.9506
G01 X11.5420 Y4.8964
G01 X11.4747 Y4.8353
G01 X11.4136 Y4.7680
G01 X11.3594 Y4.6949
G01 X11.3126 Y4.6169
G01 X11.2763 Y4.5404
G01 X11.2726 Y4.5318
G01 X11.2431 Y4.4490
G01 X11.2210 Y4.3608
G01 X11.2077 Y4.2708
G01 X11.2032 Y4.1800
G01 X11.2077 Y4.0892
G01 X11.2210 Y3.9992
G01 X11.2431 Y3.9110
G01 X11.2737 Y3.8253
G01 X11.3126 Y3.7431
G01 X11.3594 Y3.6651
G01 X11.4136 Y3.5920
G01 X11.4747 Y3.5247
G01 X11.5420 Y3.4636
G01 X11.6151 Y3.4094
G01 X11.6931 Y3.3626
G01 X11.7696 Y3.3263
G01 X11.7782 Y3.3226
G01 X11.8610 Y3.2931
G01 X11.9431 Y3.2724
G01 X11.9553 Y3.2699
G01 X12.0392 Y3.2577
G01 X12.1238 Y3.2534
G01 X12.1362 Y3.2534
G01 X12.2208 Y3.2577
G01 X12.3108 Y3.2710
G01 X12.3930 Y3.2914
G01 X12.4049 Y3.2951
G01 X12.4847 Y3.3237
G01 X12.5669 Y3.3626
G01 X12.6396 Y3.4061
G01 X12.6500 Y3.4130
G01 X12.7180 Y3.4636
G01 X12.7853 Y3.5247
G01 X12.8464 Y3.5920
G01 X12.8970 Y3.6600
G01 X12.9039 Y3.6704
G01 X12.9474 Y3.7431
G01 X12.9837 Y3.8196
G01 X12.9885 Y3.8311
G01 X13.0169 Y3.9110
G01 X13.0383 Y3.9961
G01 X13.0401 Y4.0053
G01 X13.0516 Y4.0830
G01 X13.0528 Y4.0954
G01 X13.0568 Y4.1800
G01 X13.0526 Y4.2677
G01 X13.0516 Y4.2770
G01 X13.0401 Y4.3547
G01 X13.0376 Y4.3669
G01 X13.0169 Y4.4490
G01 X12.9947 Y4.5116
G01 X14.8261 Y6.3431
G01 X26.1000 Y6.3431
G01 X26.1369 Y6.3449
G01 X26.1735 Y6.3503
G01 X26.2094 Y6.3593
G01 X26.2442 Y6.3718
G01 X26.2777 Y6.3876
G01 X26.3094 Y6.4066
G01 X26.3391 Y6.4286
G01 X26.3665 Y6.4535
G01 X28.7132 Y8.8001
G01 X28.7132 Y8.5469
G01 X28.7146 Y8.5314
G01 X28.7178 Y8.5162
G01 X28.7206 Y8.5073
G01 X28.7241 Y8.4986
G01 X28.7282 Y8.4902
G01 X28.7329 Y8.4822
G01 X28.7382 Y8.4745
G01 X28.7440 Y8.4672
G01 X28.7548 Y8.4560
G01 X28.7620 Y8.4500
G01 X28.7696 Y8.4446
G01 X28.7775 Y8.4397
G01 X28.7858 Y8.4354
G01 X28.7944 Y8.4317
G01 X28.8032 Y8.4287
G01 X28.8122 Y8.4263
G01 X28.8214 Y8.4246
G01 X28.8307 Y8.4235
G01 X28.8400 Y8.4232
G01 X30.8231 Y8.4232
G01 X30.8386 Y8.4246
G01 X30.8508 Y8.4270
G01 X30.8656 Y8.4317
G01 X30.8798 Y8.4382
G01 X30.8930 Y8.4463
G01 X30.9028 Y8.4540
G01 X30.9118 Y8.4626
G01 X30.9218 Y8.4745
G01 X30.9271 Y8.4822
G01 X30.9333 Y8.4930
G01 X30.9371 Y8.5015
G01 X30.9404 Y8.5102
G01 X30.9437 Y8.5222
G01 X30.9454 Y8.5314
G01 X30.9465 Y8.5407
G01 X30.9468 Y8.5500
G01 X30.9468 Y12.5100
G01 X30.9462 Y12.5224
G01 X30.9444 Y12.5347
G01 X30.9413 Y12.5468
G01 X30.9371 Y12.5585
G01 X30.9333 Y12.5670
G01 X30.9288 Y12.5752
G01 X30.9237 Y12.5830
G01 X30.9180 Y12.5904
G01 X30.9074 Y12.6018
G01 X30.9004 Y12.6080
G01 X30.8930 Y12.6137
G01 X30.8852 Y12.6188
G01 X30.8770 Y12.6233
G01 X30.8685 Y12.6271
G01 X30.8598 Y12.6304
G01 X30.8508 Y12.6330
G01 X30.8417 Y12.6349
G01 X30.8324 Y12.6362
G01 X30.8231 Y12.6368
G01 X28.8369 Y12.6368
G01 X28.8214 Y12.6354
G01 X28.8092 Y12.6330
G01 X28.7973 Y12.6294
G01 X28.7858 Y12.6246
G01 X28.7748 Y12.6188
G01 X28.7645 Y12.6118
G01 X28.7548 Y12.6040
G01 X28.7460 Y12.5952
G01 X28.7400 Y12.5880
G01 X28.7329 Y12.5778
G01 X28.7267 Y12.5670
G01 X28.7217 Y12.5556
G01 X28.7187 Y12.5468
G01 X28.7156 Y12.5347
G01 X28.7138 Y12.5224
G01 X28.7132 Y12.5100
G01 X28.7132 Y9.8663
G01 X25.9439 Y7.0969
G01 X14.6700 Y7.0969
G01 X14.6331 Y7.0951
G01 X14.6026 Y7.0907
G01 X14.5904 Y7.0883
G01 X14.5576 Y7.0798
G01 X14.5258 Y7.0682
G01 X14.4951 Y7.0539
G01 X14.4658 Y7.0367
G01 X14.4555 Y7.0298
G01 X14.4309 Y7.0114
G01 X14.4057 Y6.9887
G01 X12.4616 Y5.0447
G00 Z2.0000
G00 X16.3640 Y4.5568
G01 F60.00
G01 Z-0.2866
G01 F120.00
G01 X16.3926 Y4.6169
G01 X16.4394 Y4.6949
G01 X16.4936 Y4.7680
G01 X16.5547 Y4.8353
G01 X16.6220 Y4.8964
G01 X16.6951 Y4.9506
G01 X16.7731 Y4.9974
G01 X16.8332 Y5.0260
G01 X16.8332 Y5.2936
G01 X16.8072 Y5.2867
G01 X16.6212 Y5.1999
G01 X16.4530 Y5.0822
G01 X16.3078 Y4.9370
G01 X16.1901 Y4.7688
G01 X16.1033 Y4.5828
G01 X16.0964 Y4.5568
G01 X16.3640 Y4.5568
G00 Z2.0000
G00 X16.3640 Y3.8032
G01 F60.00
G01 Z-0.2866
G01 F120.00
G01 X16.0964 Y3.8032
G01 X16.1033 Y3.7772
G01 X16.1901 Y3.5912
G01 X16.3078 Y3.4230
G01 X16.4530 Y3.2778
G01 X16.6212 Y3.1601
G01 X16.8072 Y3.0733
G01 X16.8332 Y3.0664
G01 X16.8332 Y3.3340
G01 X16.7731 Y3.3626
G01 X16.6951 Y3.4094
G01 X16.6220 Y3.4636
G01 X16.5547 Y3.5247
G01 X16.4936 Y3.5920
G01 X16.4394 Y3.6651
G01 X16.3926 Y3.7431
G01 X16.3640 Y3.8032
G00 Z2.0000
G00 X17.5868 Y3.3340
G01 F60.00
G01 Z-0.2866
G01 F120.00
G01 X17.5868 Y3.0664
G01 X17.6128 Y3.0733
G01 X17.7988 Y3.1601
G01 X17.9670 Y3.2778
G01 X18.1122 Y3.4230
G01 X18.2299 Y3.5912
G01 X18.3167 Y3.7772
G01 X18.3236 Y3.8032
G01 X18.0560 Y3.8032
G01 X18.0274 Y3.7431
G01 X17.9806 Y3.6651
G01 X17.9264 Y3.5920
G01 X17.8653 Y3.5247
G01 X17.7980 Y3.4636
G01 X17.7249 Y3.4094
G01 X17.6469 Y3.3626
G01 X17.5868 Y3.3340
G00 Z2.0000
G00 X17.5868 Y5.0260
G01 F60.00
G01 Z-0.2866
G01 F120.00
G01 X17.6469 Y4.9974
G01 X17.7249 Y4.9506
G01 X17.7980 Y4.8964
G01 X17.8653 Y4.8353
G01 X17.9264 Y4.7680
G01 X17.9806 Y4.6949
G01 X18.0274 Y4.6169
G01 X18.0560 Y4.5568
G01 X18.3236 Y4.5568
G01 X18.3167 Y4.5828
G01 X18.2299 Y4.7688
G01 X18.1122 Y4.9370
G01 X17.9670 Y5.0822
G01 X17.7988 Y5.1999
G01 X17.6128 Y5.2867
G01 X17.5868 Y5.2936
G01 X17.5868 Y5.0260
G00 Z2.0000
G00 X23.7506 Y8.6998
G01 F60.00
G01 Z-0.2866
G01 F120.00
G01 X23.9036 Y8.5336
G01 X24.0818 Y8.3949
G01 X24.2805 Y8.2873
G01 X24.4532 Y8.2281
G01 X24.4532 Y8.4900
G01 X24.4084 Y8.5060
G01 X24.3998 Y8.5094
G01 X24.3063 Y8.5536
G01 X24.2981 Y8.5581
G01 X24.2121 Y8.6097
G01 X24.2045 Y8.6150
G01 X24.1215 Y8.6767
G01 X24.0425 Y8.7481
G01 X24.0360 Y8.7548
G01 X23.9667 Y8.8315
G01 X23.9014 Y8.9195
G01 X23.8451 Y9.0135
G01 X23.8007 Y9.1069
G01 X23.7971 Y9.1155
G01 X23.7613 Y9.2158
G01 X23.7360 Y9.3161
G01 X23.7336 Y9.3283
G01 X23.7193 Y9.4244
G01 X23.7183 Y9.4336
G01 X23.7132 Y9.5400
G01 X23.7132 Y10.1532
G01 X23.4668 Y10.1532
G01 X23.4668 Y9.4836
G01 X23.4808 Y9.3149
G01 X23.5362 Y9.0959
G01 X23.6270 Y8.8890
G01 X23.7506 Y8.6998
G00 Z2.0000
G00 X25.2068 Y8.4900
G01 F60.00
G01 Z-0.2866
G01 F120.00
G01 X25.2068 Y8.2281
G01 X25.3795 Y8.2873
G01 X25.5782 Y8.3949
G01 X25.7564 Y8.5336
G01 X25.9094 Y8.6998
G01 X26.0330 Y8.8890
G01 X26.1238 Y9.0959
G01 X26.1792 Y9.3149
G01 X26.1932 Y9.4836
G01 X26.1932 Y10.1532
G01 X25.9468 Y10.1532
G01 X25.9468 Y9.5400
G01 X25.9419 Y9.4367
G01 X25.9411 Y9.4274
G01 X25.9253 Y9.3221
G01 X25.8987 Y9.2158
G01 X25.8618 Y9.1126
G01 X25.8177 Y9.0191
G01 X25.8119 Y9.0081
G01 X25.7586 Y8.9195
G01 X25.6933 Y8.8315
G01 X25.6197 Y8.7503
G01 X25.5409 Y8.6787
G01 X25.5336 Y8.6729
G01 X25.4505 Y8.6114
G01 X25.3592 Y8.5566
G01 X25.3509 Y8.5523
G01 X25.2602 Y8.5094
G01 X25.2516 Y8.5060
G01 X25.2068 Y8.4900
G00 Z2.0000
G00 X23.9036 Y12.5264
G01 F60.00
G01 Z-0.2866
G01 F120.00
G01 X23.7506 Y12.3602
G01 X23.6270 Y12.1710
G01 X23.5362 Y11.9641
G01 X23.4808 Y11.7451
G01 X23.4668 Y11.5764
G01 X23.4668 Y10.9068
G01 X23.7132 Y10.9068
G01 X23.7132 Y11.5200
G01 X23.7183 Y11.6264
G01 X23.7193 Y11.6356
G01 X23.7336 Y11.7317
G01 X23.7360 Y11.7439
G01 X23.7613 Y11.8442
G01 X23.7971 Y11.9445
G01 X23.8007 Y11.9531
G01 X23.8451 Y12.0465
G01 X23.9014 Y12.1405
G01 X23.9667 Y12.2285
G01 X24.0360 Y12.3052
G01 X24.0425 Y12.3119
G01 X24.1215 Y12.3833
G01 X24.2045 Y12.4450
G01 X24.2121 Y12.4503
G01 X24.2981 Y12.5019
G01 X24.3063 Y12.5064
G01 X24.3998 Y12.5506
G01 X24.4084 Y12.5540
G01 X24.4532 Y12.5700
G01 X24.4532 Y12.8319
G01 X24.2805 Y12.7727
G01 X24.0818 Y12.6651
G01 X23.9036 Y12.5264
G00 Z2.0000
G00 X25.2068 Y12.8319
G01 F60.00
G01 Z-0.2866
G01 F120.00
G01 X25.2068 Y12.5700
G01 X25.2516 Y12.5540
G01 X25.2602 Y12.5506
G01 X25.3537 Y12.5064
G01 X25.3619 Y12.5019
G01 X25.4479 Y12.4503
G01 X25.4555 Y12.4450
G01 X25.5385 Y12.3833
G01 X25.6175 Y12.3119
G01 X25.6240 Y12.3052
G01 X25.6933 Y12.2285
G01 X25.7586 Y12.1405
G01 X25.8149 Y12.0465
G01 X25.8593 Y11.9531
G01 X25.8629 Y11.9445
G01 X25.8987 Y11.8442
G01 X25.9240 Y11.7439
G01 X25.9264 Y11.7317
G01 X25.9407 Y11.6356
G01 X25.9417 Y11.6264
G01 X25.9468 Y11.5200
G01 X25.9468 Y10.9068
G01 X26.1932 Y10.9068
G01 X26.1932 Y11.5764
G01 X26.1792 Y11.7451
G01 X26.1238 Y11.9641
G01 X26.0330 Y12.1710
G01 X25.9094 Y12.3602
G01 X25.7564 Y12.5264
G01 X25.5782 Y12.6651
G01 X25.3795 Y12.7727
G01 X25.2068 Y12.8319
G00 Z2.0000
G00 X12.8873 Y15.9775
G01 F60.00
G01 Z-0.2866
G01 F120.00
G01 X13.0325 Y16.1227
G01 X13.0530 Y16.1519
G01 X13.0608 Y16.1614
G01 X13.0672 Y16.1680
G01 X13.1018 Y16.2012
G01 X13.1109 Y16.2092
G01 X13.1208 Y16.2163
G01 X13.1287 Y16.2210
G01 X13.1396 Y16.2263
G01 X13.1481 Y16.2296
G01 X13.2238 Y16.2520
G01 X13.2327 Y16.2540
G01 X13.2446 Y16.2557
G01 X13.2567 Y16.2563
G01 X16.0833 Y16.2563
G01 X16.0926 Y16.2560
G01 X16.1078 Y16.2539
G01 X16.1548 Y16.2447
G01 X16.1666 Y16.2417
G01 X16.1781 Y16.2377
G01 X16.1892 Y16.2326
G01 X16.1996 Y16.2264
G01 X16.2071 Y16.2212
G01 X16.2641 Y16.1757
G01 X16.2753 Y16.1656
G01 X16.2814 Y16.1589
G01 X16.2870 Y16.1518
G01 X16.3075 Y16.1227
G01 X16.4527 Y15.9775
G01 X16.6209 Y15.8597
G01 X16.8070 Y15.7729
G01 X17.0054 Y15.7197
G01 X17.2100 Y15.7018
G01 X17.4146 Y15.7197
G01 X17.6130 Y15.7729
G01 X17.7991 Y15.8597
G01 X17.9673 Y15.9775
G01 X18.1125 Y16.1227
G01 X18.1349 Y16.1543
G01 X18.1408 Y16.1614
G01 X18.1472 Y16.1680
G01 X18.1818 Y16.2012
G01 X18.1909 Y16.2092
G01 X18.1983 Y16.2146
G01 X18.2060 Y16.2195
G01 X18.2141 Y16.2238
G01 X18.2224 Y16.2275
G01 X18.2339 Y16.2315
G01 X18.3038 Y16.2520
G01 X18.3127 Y16.2540
G01 X18.3246 Y16.2557
G01 X18.3367 Y16.2563
G01 X18.4691 Y16.2563
G01 X18.5422 Y16.2542
G01 X18.5457 Y16.2546
G01 X18.6164 Y16.2713
G01 X18.6854 Y16.2856
G01 X18.6882 Y16.2866
G01 X18.7535 Y16.3193
G01 X18.8164 Y16.3487
G01 X18.8194 Y16.3506
G01 X18.8725 Y16.3952
G01 X18.8953 Y16.4133
G01 X18.9060 Y16.4232
G01 X18.9368 Y16.4491
G01 X18.9460 Y16.4613
G01 X18.9661 Y16.4840
G01 X23.9933 Y21.5113
G01 X24.0465 Y21.5615
G01 X24.0487 Y21.5642
G01 X24.0851 Y21.6233
G01 X24.1253 Y21.6844
G01 X24.1268 Y21.6876
G01 X24.1486 Y21.7535
G01 X24.1737 Y21.8228
G01 X24.1743 Y21.8256
G01 X24.1804 Y21.8948
G01 X24.1837 Y21.9237
G01 X24.1842 Y21.9382
G01 X24.1877 Y21.9783
G01 X24.1856 Y21.9935
G01 X24.1837 Y22.0237
G01 X24.1837 Y23.1524
G01 X24.1841 Y23.1629
G01 X24.1870 Y23.1928
G01 X24.1895 Y23.2050
G01 X24.1933 Y23.2169
G01 X24.1982 Y23.2284
G01 X24.2287 Y23.2912
G01 X24.2331 Y23.2996
G01 X24.2400 Y23.3101
G01 X24.2479 Y23.3199
G01 X24.2567 Y23.3289
G01 X24.2639 Y23.3351
G01 X24.2768 Y23.3441
G01 X24.3364 Y23.3804
G01 X24.3443 Y23.3849
G01 X24.3525 Y23.3887
G01 X24.3614 Y23.3922
G01 X24.5491 Y23.4797
G01 X24.7173 Y23.5975
G01 X24.8625 Y23.7427
G01 X24.9803 Y23.9109
G01 X25.0671 Y24.0970
G01 X25.1203 Y24.2954
G01 X25.1382 Y24.5000
G01 X25.1203 Y24.7046
G01 X25.0671 Y24.9030
G01 X24.9803 Y25.0891
G01 X24.8625 Y25.2573
G01 X24.7173 Y25.4025
G01 X24.5491 Y25.5203
G01 X24.4983 Y25.5441
G01 X24.4898 Y25.5487
G01 X24.4818 Y25.5539
G01 X24.4717 Y25.5618
G01 X24.4203 Y25.6063
G01 X24.4113 Y25.6149
G01 X24.4032 Y25.6243
G01 X24.3961 Y25.6345
G01 X24.3900 Y25.6453
G01 X24.3850 Y25.6566
G01 X24.3820 Y25.6655
G01 X24.3609 Y25.7354
G01 X24.3581 Y25.7476
G01 X24.3566 Y25.7601
G01 X24.3565 Y25.7759
G01 X24.3574 Y25.7853
G01 X24.3589 Y25.7946
G01 X24.3612 Y25.8038
G01 X24.3812 Y25.8740
G01 X24.3856 Y25.8858
G01 X24.3911 Y25.8971
G01 X24.3995 Y25.9104
G01 X24.4074 Y25.9203
G01 X24.4185 Y25.9314
G01 X24.4709 Y25.9775
G01 X24.4828 Y25.9868
G01 X24.4905 Y25.9917
G01 X24.4984 Y25.9960
G01 X24.5491 Y26.0197
G01 X24.7173 Y26.1375
G01 X24.8625 Y26.2827
G01 X24.9803 Y26.4509
G01 X25.0671 Y26.6370
G01 X25.1203 Y26.8354
G01 X25.1382 Y27.0400
G01 X25.1203 Y27.2446
G01 X25.0671 Y27.4430
G01 X24.9803 Y27.6291
G01 X24.8625 Y27.7973
G01 X24.7173 Y27.9425
G01 X24.5491 Y28.0603
G01 X24.4983 Y28.0841
G01 X24.4898 Y28.0887
G01 X24.4818 Y28.0939
G01 X24.4717 Y28.1018
G01 X24.4203 Y28.1463
G01 X24.4113 Y28.1549
G01 X24.4032 Y28.1643
G01 X24.3961 Y28.1745
G01 X24.3900 Y28.1853
G01 X24.3850 Y28.1966
G01 X24.3820 Y28.2054
G01 X24.3609 Y28.2754
G01 X24.3581 Y28.2876
G01 X24.3569 Y28.2970
G01 X24.3564 Y28.3064
G01 X24.3565 Y28.3159
G01 X24.3574 Y28.3253
G01 X24.3589 Y28.3346
G01 X24.3612 Y28.3438
G01 X24.3812 Y28.4140
G01 X24.3856 Y28.4258
G01 X24.3911 Y28.4371
G01 X24.3977 Y28.4479
G01 X24.4073 Y28.4603
G01 X24.4185 Y28.4714
G01 X24.4709 Y28.5175
G01 X24.4828 Y28.5268
G01 X24.4905 Y28.5317
G01 X24.4984 Y28.5360
G01 X24.5491 Y28.5597
G01 X24.7173 Y28.6775
G01 X24.8625 Y28.8227
G01 X24.9803 Y28.9909
G01 X25.0671 Y29.1770
G01 X25.1203 Y29.3754
G01 X25.1382 Y29.5800
G01 X25.1203 Y29.7846
G01 X25.0671 Y29.9830
G01 X24.9803 Y30.1691
G01 X24.8625 Y30.3373
G01 X24.7173 Y30.4825
G01 X24.5491 Y30.6003
G01 X24.4983 Y30.6241
G01 X24.4898 Y30.6287
G01 X24.4818 Y30.6339
G01 X24.4717 Y30.6418
G01 X24.4203 Y30.6863
G01 X24.4113 Y30.6949
G01 X24.4032 Y30.7043
G01 X24.3978 Y30.7119
G01 X24.3914 Y30.7225
G01 X24.3861 Y30.7338
G01 X24.3820 Y30.7454
G01 X24.3618 Y30.8123
G01 X24.3581 Y30.8276
G01 X24.3566 Y30.8401
G01 X24.3565 Y30.8559
G01 X24.3578 Y30.8684
G01 X24.3612 Y30.8838
G01 X24.3803 Y30.9510
G01 X24.3844 Y30.9629
G01 X24.3882 Y30.9715
G01 X24.3942 Y30.9826
G01 X24.4014 Y30.9930
G01 X24.4073 Y31.0003
G01 X24.4185 Y31.0114
G01 X24.4709 Y31.0575
G01 X24.4828 Y31.0668
G01 X24.4905 Y31.0717
G01 X24.4984 Y31.0760
G01 X24.5491 Y31.0997
G01 X24.7173 Y31.2175
G01 X24.8625 Y31.3627
G01 X24.9803 Y31.5309
G01 X25.0671 Y31.7170
G01 X25.1203 Y31.9154
G01 X25.1382 Y32.1200
G01 X25.1203 Y32.3246
G01 X25.0671 Y32.5230
G01 X24.9803 Y32.7091
G01 X24.8625 Y32.8773
G01 X24.7173 Y33.0225
G01 X24.5491 Y33.1403
G01 X24.3630 Y33.2271
G01 X24.1646 Y33.2803
G01 X24.0112 Y33.2937
G01 X23.1088 Y33.2937
G01 X22.9554 Y33.2803
G01 X22.7570 Y33.2271
G01 X22.5709 Y33.1403
G01 X22.4027 Y33.0225
G01 X22.2575 Y32.8773
G01 X22.2370 Y32.8481
G01 X22.2292 Y32.8386
G01 X22.2228 Y32.8320
G01 X22.1882 Y32.7988
G01 X22.1767 Y32.7889
G01 X22.1692 Y32.7837
G01 X22.1613 Y32.7790
G01 X22.1532 Y32.7749
G01 X22.1419 Y32.7704
G01 X22.0691 Y32.7488
G01 X22.0544 Y32.7455
G01 X22.0454 Y32.7443
G01 X22.0333 Y32.7437
G01 X19.7609 Y32.7437
G01 X19.6878 Y32.7458
G01 X19.6843 Y32.7454
G01 X19.6168 Y32.7294
G01 X19.5452 Y32.7146
G01 X19.5418 Y32.7134
G01 X19.4798 Y32.6823
G01 X19.4136 Y32.6513
G01 X19.4106 Y32.6494
G01 X19.3575 Y32.6048
G01 X19.3347 Y32.5867
G01 X19.3240 Y32.5768
G01 X19.2932 Y32.5509
G01 X19.2840 Y32.5387
G01 X19.2639 Y32.5160
G01 X16.7767 Y30.0287
G01 X16.7235 Y29.9785
G01 X16.7213 Y29.9758
G01 X16.6849 Y29.9167
G01 X16.6445 Y29.8550
G01 X16.6432 Y29.8524
G01 X16.6202 Y29.7831
G01 X16.5964 Y29.7178
G01 X16.5957 Y29.7144
G01 X16.5896 Y29.6452
G01 X16.5863 Y29.6163
G01 X16.5858 Y29.6018
G01 X16.5823 Y29.5617
G01 X16.5844 Y29.5466
G01 X16.5863 Y29.5163
G01 X16.5863 Y21.8167
G01 X16.5860 Y21.8074
G01 X16.5839 Y21.7922
G01 X16.5747 Y21.7452
G01 X16.5726 Y21.7363
G01 X16.5699 Y21.7276
G01 X16.5653 Y21.7163
G01 X16.5611 Y21.7082
G01 X16.5547 Y21.6978
G01 X16.5493 Y21.6905
G01 X16.5057 Y21.6359
G01 X16.4977 Y21.6269
G01 X16.4912 Y21.6206
G01 X16.4842 Y21.6148
G01 X16.4527 Y21.5925
G01 X16.3075 Y21.4473
G01 X16.1897 Y21.2791
G01 X16.1029 Y21.0930
G01 X16.0497 Y20.8946
G01 X16.0318 Y20.6900
G01 X16.0497 Y20.4854
G01 X16.0852 Y20.3521
G01 X16.0888 Y20.3346
G01 X16.0904 Y20.3222
G01 X16.0907 Y20.3097
G01 X16.0899 Y20.2972
G01 X16.0785 Y20.2187
G01 X16.0745 Y20.2035
G01 X16.0687 Y20.1889
G01 X16.0611 Y20.1751
G01 X16.0519 Y20.1624
G01 X16.0041 Y20.1071
G01 X15.9954 Y20.0981
G01 X15.9858 Y20.0899
G01 X15.9755 Y20.0827
G01 X15.9645 Y20.0765
G01 X15.9529 Y20.0715
G01 X15.9440 Y20.0685
G01 X15.8740 Y20.0480
G01 X15.8593 Y20.0450
G01 X15.8473 Y20.0438
G01 X15.0288 Y20.0437
G01 X15.0187 Y20.0444
G01 X14.9923 Y20.0473
G01 X14.9831 Y20.0486
G01 X14.9680 Y20.0523
G01 X14.9535 Y20.0579
G01 X14.9451 Y20.0620
G01 X14.8811 Y20.0970
G01 X14.8686 Y20.1053
G01 X14.8570 Y20.1150
G01 X13.8487 Y21.1233
G01 X13.7985 Y21.1765
G01 X13.7958 Y21.1787
G01 X13.7367 Y21.2151
G01 X13.6751 Y21.2555
G01 X13.6724 Y21.2568
G01 X13.6036 Y21.2796
G01 X13.5372 Y21.3037
G01 X13.5344 Y21.3043
G01 X13.4653 Y21.3104
G01 X13.4363 Y21.3137
G01 X13.4218 Y21.3142
G01 X13.3817 Y21.3177
G01 X13.3665 Y21.3156
G01 X13.3394 Y21.3137
G01 X13.2567 Y21.3137
G01 X13.2474 Y21.3140
G01 X13.2352 Y21.3155
G01 X13.1822 Y21.3260
G01 X13.1734 Y21.3283
G01 X13.1619 Y21.3323
G01 X13.1482 Y21.3389
G01 X13.1353 Y21.3470
G01 X13.0759 Y21.3943
G01 X13.0669 Y21.4023
G01 X13.0606 Y21.4088
G01 X13.0548 Y21.4158
G01 X13.0325 Y21.4473
G01 X12.8873 Y21.5925
G01 X12.7191 Y21.7103
G01 X12.5330 Y21.7971
G01 X12.3346 Y21.8503
G01 X12.1300 Y21.8682
G01 X11.9254 Y21.8503
G01 X11.7270 Y21.7971
G01 X11.5409 Y21.7103
G01 X11.3727 Y21.5925
G01 X11.2275 Y21.4473
G01 X11.1097 Y21.2791
G01 X11.0229 Y21.0930
G01 X10.9697 Y20.8946
G01 X10.9518 Y20.6900
G01 X10.9697 Y20.4854
G01 X11.0229 Y20.2870
G01 X11.1097 Y20.1009
G01 X11.2275 Y19.9327
G01 X11.3727 Y19.7875
G01 X11.5409 Y19.6697
G01 X11.7270 Y19.5829
G01 X11.9254 Y19.5297
G01 X12.1300 Y19.5118
G01 X12.3346 Y19.5297
G01 X12.5330 Y19.5829
G01 X12.7191 Y19.6697
G01 X12.8873 Y19.7875
G01 X12.9766 Y19.8767
G01 X12.9855 Y19.8848
G01 X12.9952 Y19.8921
G01 X13.0420 Y19.9222
G01 X13.0559 Y19.9299
G01 X13.0646 Y19.9337
G01 X13.0766 Y19.9377
G01 X13.0890 Y19.9405
G01 X13.1015 Y19.9420
G01 X13.1712 Y19.9470
G01 X13.1807 Y19.9473
G01 X13.1964 Y19.9463
G01 X13.2057 Y19.9448
G01 X13.2149 Y19.9425
G01 X13.2268 Y19.9385
G01 X13.2383 Y19.9333
G01 X13.3024 Y19.8983
G01 X13.3151 Y19.8903
G01 X13.3223 Y19.8848
G01 X13.3291 Y19.8788
G01 X14.2213 Y18.9867
G01 X14.2715 Y18.9335
G01 X14.2742 Y18.9313
G01 X14.3364 Y18.8929
G01 X14.3950 Y18.8545
G01 X14.3976 Y18.8532
G01 X14.4635 Y18.8314
G01 X14.5322 Y18.8064
G01 X14.5356 Y18.8057
G01 X14.6048 Y18.7996
G01 X14.6337 Y18.7963
G01 X14.6482 Y18.7958
G01 X14.6883 Y18.7923
G01 X14.7035 Y18.7944
G01 X14.7337 Y18.7963
G01 X18.4691 Y18.7963
G01 X18.5422 Y18.7942
G01 X18.5457 Y18.7946
G01 X18.6164 Y18.8113
G01 X18.6854 Y18.8256
G01 X18.6882 Y18.8266
G01 X18.7535 Y18.8594
G01 X18.8164 Y18.8887
G01 X18.8194 Y18.8906
G01 X18.8725 Y18.9352
G01 X18.8953 Y18.9533
G01 X18.9060 Y18.9632
G01 X18.9368 Y18.9891
G01 X18.9460 Y19.0013
G01 X18.9661 Y19.0240
G01 X20.1833 Y20.2413
G01 X20.2365 Y20.2915
G01 X20.2387 Y20.2942
G01 X20.2771 Y20.3564
G01 X20.3155 Y20.4149
G01 X20.3168 Y20.4176
G01 X20.3398 Y20.4869
G01 X20.3636 Y20.5522
G01 X20.3643 Y20.5556
G01 X20.3704 Y20.6248
G01 X20.3737 Y20.6537
G01 X20.3742 Y20.6682
G01 X20.3777 Y20.7083
G01 X20.3756 Y20.7235
G01 X20.3737 Y20.7537
G01 X20.3737 Y24.1378
G01 X20.3744 Y24.1513
G01 X20.3773 Y24.1777
G01 X20.3786 Y24.1869
G01 X20.3806 Y24.1960
G01 X20.3833 Y24.2050
G01 X20.3892 Y24.2194
G01 X20.4285 Y24.2914
G01 X20.4371 Y24.3038
G01 X20.4472 Y24.3151
G01 X22.1778 Y26.0457
G01 X22.1876 Y26.0541
G01 X22.2174 Y26.0770
G01 X22.2278 Y26.0835
G01 X22.2388 Y26.0890
G01 X22.2503 Y26.0935
G01 X22.2592 Y26.0960
G01 X22.3269 Y26.1130
G01 X22.3393 Y26.1155
G01 X22.3518 Y26.1167
G01 X22.3644 Y26.1167
G01 X22.3769 Y26.1154
G01 X22.3893 Y26.1129
G01 X22.3983 Y26.1102
G01 X22.4645 Y26.0879
G01 X22.4730 Y26.0847
G01 X22.4812 Y26.0809
G01 X22.4891 Y26.0765
G01 X22.4967 Y26.0716
G01 X22.5709 Y26.0197
G01 X22.6218 Y25.9959
G01 X22.6356 Y25.9879
G01 X22.6483 Y25.9782
G01 X22.6997 Y25.9337
G01 X22.7065 Y25.9273
G01 X22.7128 Y25.9205
G01 X22.7222 Y25.9081
G01 X22.7271 Y25.9002
G01 X22.7313 Y25.8919
G01 X22.7371 Y25.8775
G01 X22.7582 Y25.8077
G01 X22.7613 Y25.7955
G01 X22.7628 Y25.7861
G01 X22.7636 Y25.7736
G01 X22.7633 Y25.7610
G01 X22.7617 Y25.7485
G01 X22.7588 Y25.7362
G01 X22.7397 Y25.6690
G01 X22.7356 Y25.6571
G01 X22.7304 Y25.6456
G01 X22.7241 Y25.6348
G01 X22.7167 Y25.6246
G01 X22.7105 Y25.6174
G01 X22.7015 Y25.6086
G01 X22.6491 Y25.5625
G01 X22.6372 Y25.5532
G01 X22.6295 Y25.5483
G01 X22.6216 Y25.5440
G01 X22.5709 Y25.5203
G01 X22.4027 Y25.4025
G01 X22.2575 Y25.2573
G01 X22.1397 Y25.0891
G01 X22.0529 Y24.9030
G01 X21.9997 Y24.7046
G01 X21.9818 Y24.5000
G01 X21.9997 Y24.2954
G01 X22.0529 Y24.0970
G01 X22.1397 Y23.9109
G01 X22.2575 Y23.7427
G01 X22.4027 Y23.5975
G01 X22.5709 Y23.4797
G01 X22.7586 Y23.3921
G01 X22.7828 Y23.3834
G01 X22.7914 Y23.3797
G01 X22.7997 Y23.3754
G01 X22.8077 Y23.3705
G01 X22.8200 Y23.3610
G01 X22.8729 Y23.3153
G01 X22.8819 Y23.3066
G01 X22.8901 Y23.2970
G01 X22.8973 Y23.2867
G01 X22.9020 Y23.2785
G01 X22.9073 Y23.2670
G01 X22.9115 Y23.2552
G01 X22.9320 Y23.1852
G01 X22.9350 Y23.1704
G01 X22.9363 Y23.1554
G01 X22.9363 Y22.3188
G01 X22.9356 Y22.3087
G01 X22.9319 Y22.2761
G01 X22.9294 Y22.2640
G01 X22.9257 Y22.2521
G01 X22.9221 Y22.2435
G01 X22.9180 Y22.2351
G01 X22.8845 Y22.1738
G01 X22.8782 Y22.1635
G01 X22.8710 Y22.1538
G01 X22.8628 Y22.1449
G01 X18.4113 Y17.6933
G01 X18.4000 Y17.6833
G01 X18.3901 Y17.6763
G01 X18.3431 Y17.6461
G01 X18.3348 Y17.6415
G01 X18.3232 Y17.6363
G01 X18.3082 Y17.6315
G01 X18.2926 Y17.6286
G01 X18.2166 Y17.6230
G01 X18.2072 Y17.6227
G01 X18.1915 Y17.6237
G01 X18.1791 Y17.6259
G01 X18.1669 Y17.6293
G01 X18.1524 Y17.6353
G01 X18.0828 Y17.6731
G01 X18.0702 Y17.6814
G01 X18.0632 Y17.6871
G01 X18.0566 Y17.6933
G01 X17.9673 Y17.7825
G01 X17.7991 Y17.9003
G01 X17.6130 Y17.9871
G01 X17.4146 Y18.0403
G01 X17.2100 Y18.0582
G01 X17.0054 Y18.0403
G01 X16.8070 Y17.9871
G01 X16.6209 Y17.9003
G01 X16.4527 Y17.7825
G01 X16.3075 Y17.6373
G01 X16.2870 Y17.6081
G01 X16.2792 Y17.5986
G01 X16.2728 Y17.5920
G01 X16.2382 Y17.5588
G01 X16.2267 Y17.5489
G01 X16.2192 Y17.5437
G01 X16.2087 Y17.5376
G01 X16.2004 Y17.5337
G01 X16.1890 Y17.5294
G01 X16.1162 Y17.5080
G01 X16.1014 Y17.5050
G01 X16.0894 Y17.5038
G01 X13.2567 Y17.5037
G01 X13.2474 Y17.5040
G01 X13.2382 Y17.5050
G01 X13.1852 Y17.5153
G01 X13.1705 Y17.5192
G01 X13.1619 Y17.5223
G01 X13.1508 Y17.5274
G01 X13.1429 Y17.5319
G01 X13.1329 Y17.5388
G01 X13.0759 Y17.5843
G01 X13.0647 Y17.5944
G01 X13.0586 Y17.6011
G01 X13.0530 Y17.6082
G01 X13.0325 Y17.6373
G01 X12.8873 Y17.7825
G01 X12.7191 Y17.9003
G01 X12.5330 Y17.9871
G01 X12.3346 Y18.0403
G01 X12.1300 Y18.0582
G01 X11.9254 Y18.0403
G01 X11.7270 Y17.9871
G01 X11.5409 Y17.9003
G01 X11.3727 Y17.7825
G01 X11.2275 Y17.6373
G01 X11.1097 Y17.4691
G01 X11.0229 Y17.2830
G01 X10.9697 Y17.0846
G01 X10.9518 Y16.8800
G01 X10.9697 Y16.6754
G01 X11.0229 Y16.4770
G01 X11.1097 Y16.2909
G01 X11.2275 Y16.1227
G01 X11.3727 Y15.9775
G01 X11.5409 Y15.8597
G01 X11.7270 Y15.7729
G01 X11.9254 Y15.7197
G01 X12.1300 Y15.7018
G01 X12.3346 Y15.7197
G01 X12.5330 Y15.7729
G01 X12.7191 Y15.8597
G01 X12.8873 Y15.9775
G00 Z2.0000
G00 X12.9759 Y16.5031
G01 F60.00
G01 Z-0.2866
G01 F120.00
G01 X16.3641 Y16.5031
G01 X16.3926 Y16.4431
G01 X16.4361 Y16.3704
G01 X16.4430 Y16.3600
G01 X16.4897 Y16.2970
G01 X16.4956 Y16.2897
G01 X16.5547 Y16.2247
G01 X16.6173 Y16.1676
G01 X16.6270 Y16.1597
G01 X16.6900 Y16.1130
G01 X16.6977 Y16.1077
G01 X16.7731 Y16.0626
G01 X16.8496 Y16.0263
G01 X16.8611 Y16.0215
G01 X16.9410 Y15.9931
G01 X17.0231 Y15.9724
G01 X17.0353 Y15.9699
G01 X17.1192 Y15.9577
G01 X17.2100 Y15.9532
G01 X17.3008 Y15.9577
G01 X17.3847 Y15.9699
G01 X17.3969 Y15.9724
G01 X17.4790 Y15.9931
G01 X17.5589 Y16.0215
G01 X17.5704 Y16.0263
G01 X17.6469 Y16.0626
G01 X17.7223 Y16.1077
G01 X17.7300 Y16.1130
G01 X17.7930 Y16.1597
G01 X17.8027 Y16.1676
G01 X17.8653 Y16.2247
G01 X17.9244 Y16.2897
G01 X17.9303 Y16.2970
G01 X17.9770 Y16.3600
G01 X17.9839 Y16.3704
G01 X18.0274 Y16.4431
G01 X18.0559 Y16.5031
G01 X18.4800 Y16.5031
G01 X18.5169 Y16.5049
G01 X18.5474 Y16.5093
G01 X18.5596 Y16.5117
G01 X18.5894 Y16.5193
G01 X18.6184 Y16.5295
G01 X18.6299 Y16.5343
G01 X18.6577 Y16.5476
G01 X18.6842 Y16.5633
G01 X18.6945 Y16.5702
G01 X18.7191 Y16.5886
G01 X18.7465 Y16.6135
G01 X23.8265 Y21.6935
G01 X23.8514 Y21.7209
G01 X23.8716 Y21.7480
G01 X23.8894 Y21.7769
G01 X23.8952 Y21.7879
G01 X23.9082 Y21.8158
G01 X23.9207 Y21.8506
G01 X23.9283 Y21.8804
G01 X23.9307 Y21.8926
G01 X23.9351 Y21.9231
G01 X23.9369 Y21.9569
G01 X23.9369 Y23.5732
G01 X23.9662 Y23.5734
G01 X24.0508 Y23.5777
G01 X24.1347 Y23.5899
G01 X24.1469 Y23.5924
G01 X24.2290 Y23.6131
G01 X24.3089 Y23.6415
G01 X24.3204 Y23.6463
G01 X24.3913 Y23.6798
G01 X24.4023 Y23.6857
G01 X24.4749 Y23.7294
G01 X24.5430 Y23.7797
G01 X24.5527 Y23.7876
G01 X24.6153 Y23.8447
G01 X24.6764 Y23.9120
G01 X24.7270 Y23.9800
G01 X24.7339 Y23.9904
G01 X24.7774 Y24.0631
G01 X24.8163 Y24.1453
G01 X24.8449 Y24.2251
G01 X24.8486 Y24.2370
G01 X24.8690 Y24.3192
G01 X24.8816 Y24.4030
G01 X24.8828 Y24.4154
G01 X24.8868 Y24.5000
G01 X24.8828 Y24.5846
G01 X24.8816 Y24.5970
G01 X24.8701 Y24.6747
G01 X24.8676 Y24.6869
G01 X24.8469 Y24.7690
G01 X24.8185 Y24.8489
G01 X24.8137 Y24.8604
G01 X24.7774 Y24.9369
G01 X24.7339 Y25.0096
G01 X24.7270 Y25.0200
G01 X24.6803 Y25.0830
G01 X24.6724 Y25.0927
G01 X24.6153 Y25.1553
G01 X24.5527 Y25.2124
G01 X24.5430 Y25.2203
G01 X24.4749 Y25.2706
G01 X24.3969 Y25.3174
G01 X24.3147 Y25.3563
G01 X24.2349 Y25.3849
G01 X24.2230 Y25.3886
G01 X24.1408 Y25.4090
G01 X24.0570 Y25.4216
G01 X24.0446 Y25.4228
G01 X23.9631 Y25.4268
G01 X23.1569 Y25.4268
G01 X23.0692 Y25.4223
G01 X22.9853 Y25.4101
G01 X22.9761 Y25.4083
G01 X22.8910 Y25.3869
G01 X22.8053 Y25.3563
G01 X22.7231 Y25.3174
G01 X22.6504 Y25.2739
G01 X22.6400 Y25.2670
G01 X22.5770 Y25.2203
G01 X22.5673 Y25.2124
G01 X22.5047 Y25.1553
G01 X22.4436 Y25.0880
G01 X22.3894 Y25.0149
G01 X22.3457 Y24.9423
G01 X22.3398 Y24.9313
G01 X22.3063 Y24.8604
G01 X22.3015 Y24.8489
G01 X22.2731 Y24.7690
G01 X22.2524 Y24.6869
G01 X22.2499 Y24.6747
G01 X22.2377 Y24.5908
G01 X22.2332 Y24.5000
G01 X22.2377 Y24.4092
G01 X22.2499 Y24.3253
G01 X22.2524 Y24.3131
G01 X22.2731 Y24.2310
G01 X22.3037 Y24.1453
G01 X22.3426 Y24.0631
G01 X22.3861 Y23.9904
G01 X22.3930 Y23.9800
G01 X22.4397 Y23.9170
G01 X22.4476 Y23.9073
G01 X22.5047 Y23.8447
G01 X22.5673 Y23.7876
G01 X22.5745 Y23.7816
G01 X22.6451 Y23.7294
G01 X22.7231 Y23.6826
G01 X22.8053 Y23.6437
G01 X22.8880 Y23.6140
G01 X22.8970 Y23.6114
G01 X22.9792 Y23.5910
G01 X23.0630 Y23.5784
G01 X23.0754 Y23.5772
G01 X23.1538 Y23.5734
G01 X23.1831 Y23.5732
G01 X23.1831 Y22.1161
G01 X18.3239 Y17.2569
G01 X18.0559 Y17.2569
G01 X18.0274 Y17.3169
G01 X17.9839 Y17.3896
G01 X17.9770 Y17.4000
G01 X17.9303 Y17.4630
G01 X17.9244 Y17.4703
G01 X17.8653 Y17.5353
G01 X17.8027 Y17.5924
G01 X17.7930 Y17.6003
G01 X17.7300 Y17.6470
G01 X17.7223 Y17.6523
G01 X17.6469 Y17.6974
G01 X17.5704 Y17.7337
G01 X17.5589 Y17.7385
G01 X17.4790 Y17.7669
G01 X17.3969 Y17.7876
G01 X17.3847 Y17.7901
G01 X17.3008 Y17.8023
G01 X17.2100 Y17.8068
G01 X17.1192 Y17.8023
G01 X17.0353 Y17.7901
G01 X17.0231 Y17.7876
G01 X16.9410 Y17.7669
G01 X16.8611 Y17.7385
G01 X16.8496 Y17.7337
G01 X16.7731 Y17.6974
G01 X16.6977 Y17.6523
G01 X16.6900 Y17.6470
G01 X16.6270 Y17.6003
G01 X16.6173 Y17.5924
G01 X16.5547 Y17.5353
G01 X16.4956 Y17.4703
G01 X16.4897 Y17.4630
G01 X16.4430 Y17.4000
G01 X16.4361 Y17.3896
G01 X16.3926 Y17.3169
G01 X16.3641 Y17.2569
G01 X12.9759 Y17.2569
G01 X12.9474 Y17.3169
G01 X12.9039 Y17.3896
G01 X12.8970 Y17.4000
G01 X12.8503 Y17.4630
G01 X12.8444 Y17.4703
G01 X12.7853 Y17.5353
G01 X12.7227 Y17.5924
G01 X12.7130 Y17.6003
G01 X12.6500 Y17.6470
G01 X12.6423 Y17.6523
G01 X12.5669 Y17.6974
G01 X12.4904 Y17.7337
G01 X12.4789 Y17.7385
G01 X12.3990 Y17.7669
G01 X12.3169 Y17.7876
G01 X12.3047 Y17.7901
G01 X12.2208 Y17.8023
G01 X12.1300 Y17.8068
G01 X12.0392 Y17.8023
G01 X11.9553 Y17.7901
G01 X11.9431 Y17.7876
G01 X11.8610 Y17.7669
G01 X11.7811 Y17.7385
G01 X11.7696 Y17.7337
G01 X11.6931 Y17.6974
G01 X11.6151 Y17.6506
G01 X11.5420 Y17.5964
G01 X11.4792 Y17.5396
G01 X11.4704 Y17.5308
G01 X11.4136 Y17.4680
G01 X11.3630 Y17.4000
G01 X11.3561 Y17.3896
G01 X11.3126 Y17.3169
G01 X11.2750 Y17.2375
G01 X11.2715 Y17.2289
G01 X11.2431 Y17.1490
G01 X11.2210 Y17.0608
G01 X11.2077 Y16.9708
G01 X11.2032 Y16.8800
G01 X11.2077 Y16.7892
G01 X11.2210 Y16.6992
G01 X11.2431 Y16.6110
G01 X11.2737 Y16.5253
G01 X11.3126 Y16.4431
G01 X11.3594 Y16.3651
G01 X11.4136 Y16.2920
G01 X11.4747 Y16.2247
G01 X11.5420 Y16.1636
G01 X11.6151 Y16.1094
G01 X11.6931 Y16.0626
G01 X11.7725 Y16.0250
G01 X11.7811 Y16.0215
G01 X11.8610 Y15.9931
G01 X11.9492 Y15.9710
G01 X12.0392 Y15.9577
G01 X12.1300 Y15.9532
G01 X12.2208 Y15.9577
G01 X12.3108 Y15.9710
G01 X12.3990 Y15.9931
G01 X12.4818 Y16.0226
G01 X12.4904 Y16.0263
G01 X12.5669 Y16.0626
G01 X12.6449 Y16.1094
G01 X12.7180 Y16.1636
G01 X12.7831 Y16.2225
G01 X12.7896 Y16.2292
G01 X12.8464 Y16.2920
G01 X12.8988 Y16.3625
G01 X12.9039 Y16.3704
G01 X12.9474 Y16.4431
G01 X12.9759 Y16.5031
G00 Z2.0000
G00 X12.9759 Y20.3131
G01 F60.00
G01 Z-0.2866
G01 F120.00
G01 X13.2439 Y20.3131
G01 X14.4057 Y19.1513
G01 X14.4309 Y19.1286
G01 X14.4555 Y19.1102
G01 X14.4658 Y19.1033
G01 X14.4923 Y19.0876
G01 X14.5201 Y19.0743
G01 X14.5316 Y19.0695
G01 X14.5606 Y19.0593
G01 X14.5934 Y19.0510
G01 X14.6026 Y19.0493
G01 X14.6331 Y19.0449
G01 X14.6700 Y19.0431
G01 X18.4831 Y19.0431
G01 X18.5169 Y19.0449
G01 X18.5535 Y19.0503
G01 X18.5894 Y19.0593
G01 X18.6214 Y19.0706
G01 X18.6299 Y19.0743
G01 X18.6577 Y19.0876
G01 X18.6842 Y19.1033
G01 X18.6945 Y19.1102
G01 X18.7167 Y19.1267
G01 X18.7238 Y19.1327
G01 X18.7465 Y19.1535
G01 X20.0187 Y20.4257
G01 X20.0414 Y20.4509
G01 X20.0634 Y20.4806
G01 X20.0824 Y20.5123
G01 X20.0982 Y20.5458
G01 X20.1107 Y20.5806
G01 X20.1197 Y20.6165
G01 X20.1251 Y20.6531
G01 X20.1269 Y20.6869
G01 X20.1269 Y24.3439
G01 X22.3588 Y26.5758
G01 X22.3894 Y26.5251
G01 X22.4397 Y26.4570
G01 X22.4476 Y26.4473
G01 X22.5025 Y26.3869
G01 X22.5092 Y26.3804
G01 X22.5720 Y26.3236
G01 X22.6425 Y26.2712
G01 X22.6504 Y26.2661
G01 X22.7231 Y26.2226
G01 X22.8053 Y26.1837
G01 X22.8910 Y26.1531
G01 X22.9761 Y26.1317
G01 X22.9853 Y26.1299
G01 X23.0692 Y26.1177
G01 X23.1569 Y26.1132
G01 X23.9631 Y26.1132
G01 X24.0508 Y26.1177
G01 X24.1347 Y26.1299
G01 X24.1469 Y26.1324
G01 X24.2290 Y26.1531
G01 X24.3147 Y26.1837
G01 X24.3969 Y26.2226
G01 X24.4749 Y26.2694
G01 X24.5480 Y26.3236
G01 X24.6153 Y26.3847
G01 X24.6764 Y26.4520
G01 X24.7306 Y26.5251
G01 X24.7774 Y26.6031
G01 X24.8163 Y26.6853
G01 X24.8469 Y26.7710
G01 X24.8690 Y26.8592
G01 X24.8823 Y26.9492
G01 X24.8868 Y27.0400
G01 X24.8823 Y27.1308
G01 X24.8690 Y27.2208
G01 X24.8478 Y27.3060
G01 X24.8449 Y27.3149
G01 X24.8163 Y27.3947
G01 X24.7802 Y27.4713
G01 X24.7743 Y27.4823
G01 X24.7306 Y27.5549
G01 X24.6803 Y27.6230
G01 X24.6724 Y27.6327
G01 X24.6153 Y27.6953
G01 X24.5527 Y27.7524
G01 X24.5430 Y27.7603
G01 X24.4749 Y27.8106
G01 X24.4023 Y27.8543
G01 X24.3913 Y27.8602
G01 X24.3147 Y27.8963
G01 X24.2349 Y27.9249
G01 X24.2230 Y27.9286
G01 X24.1408 Y27.9490
G01 X24.0570 Y27.9616
G01 X24.0446 Y27.9628
G01 X23.9631 Y27.9668
G01 X23.1538 Y27.9666
G01 X23.0692 Y27.9623
G01 X22.9853 Y27.9501
G01 X22.9731 Y27.9476
G01 X22.8970 Y27.9286
G01 X22.8851 Y27.9249
G01 X22.8053 Y27.8963
G01 X22.7287 Y27.8602
G01 X22.7177 Y27.8543
G01 X22.6504 Y27.8139
G01 X22.6400 Y27.8070
G01 X22.5720 Y27.7564
G01 X22.5092 Y27.6996
G01 X22.5025 Y27.6931
G01 X22.4436 Y27.6280
G01 X22.3894 Y27.5549
G01 X22.3426 Y27.4769
G01 X22.3141 Y27.4169
G01 X22.2869 Y27.4169
G01 X22.2562 Y27.4154
G01 X22.2469 Y27.4143
G01 X22.2195 Y27.4103
G01 X22.2104 Y27.4083
G01 X22.1806 Y27.4007
G01 X22.1486 Y27.3894
G01 X22.1401 Y27.3857
G01 X22.1123 Y27.3724
G01 X22.0806 Y27.3534
G01 X22.0509 Y27.3314
G01 X22.0257 Y27.3087
G01 X19.4835 Y24.7665
G01 X19.4586 Y24.7391
G01 X19.4366 Y24.7094
G01 X19.4176 Y24.6777
G01 X19.4018 Y24.6442
G01 X19.3893 Y24.6094
G01 X19.3803 Y24.5735
G01 X19.3749 Y24.5369
G01 X19.3731 Y24.5031
G01 X19.3731 Y20.8461
G01 X18.3239 Y19.7969
G01 X17.4550 Y19.7969
G01 X17.4820 Y19.8040
G01 X17.5589 Y19.8315
G01 X17.5675 Y19.8350
G01 X17.6469 Y19.8726
G01 X17.7223 Y19.9177
G01 X17.7300 Y19.9230
G01 X17.7980 Y19.9736
G01 X17.8608 Y20.0304
G01 X17.8696 Y20.0392
G01 X17.9224 Y20.0973
G01 X17.9284 Y20.1045
G01 X17.9806 Y20.1751
G01 X18.0243 Y20.2477
G01 X18.0302 Y20.2587
G01 X18.0637 Y20.3296
G01 X18.0685 Y20.3411
G01 X18.0969 Y20.4210
G01 X18.1190 Y20.5092
G01 X18.1323 Y20.5992
G01 X18.1368 Y20.6869
G01 X18.1366 Y20.6962
G01 X18.1328 Y20.7746
G01 X18.1316 Y20.7870
G01 X18.1190 Y20.8708
G01 X18.0969 Y20.9590
G01 X18.0685 Y21.0389
G01 X18.0637 Y21.0504
G01 X18.0274 Y21.1269
G01 X17.9823 Y21.2023
G01 X17.9770 Y21.2100
G01 X17.9303 Y21.2730
G01 X17.9224 Y21.2827
G01 X17.8653 Y21.3453
G01 X17.8003 Y21.4044
G01 X17.7930 Y21.4103
G01 X17.7300 Y21.4570
G01 X17.7196 Y21.4639
G01 X17.6469 Y21.5074
G01 X17.5869 Y21.5359
G01 X17.5869 Y29.4239
G01 X19.9061 Y31.7431
G01 X22.3141 Y31.7431
G01 X22.3426 Y31.6831
G01 X22.3861 Y31.6104
G01 X22.3930 Y31.6000
G01 X22.4397 Y31.5370
G01 X22.4476 Y31.5273
G01 X22.5047 Y31.4647
G01 X22.5720 Y31.4036
G01 X22.6451 Y31.3494
G01 X22.7177 Y31.3057
G01 X22.7287 Y31.2998
G01 X22.8053 Y31.2637
G01 X22.8851 Y31.2351
G01 X22.8970 Y31.2314
G01 X22.9761 Y31.2117
G01 X22.9853 Y31.2099
G01 X23.0692 Y31.1977
G01 X23.1569 Y31.1932
G01 X23.9600 Y31.1932
G01 X24.0477 Y31.1974
G01 X24.0570 Y31.1984
G01 X24.1408 Y31.2110
G01 X24.2290 Y31.2331
G01 X24.3147 Y31.2637
G01 X24.3913 Y31.2998
G01 X24.4023 Y31.3057
G01 X24.4749 Y31.3494
G01 X24.5430 Y31.3997
G01 X24.5527 Y31.4076
G01 X24.6108 Y31.4604
G01 X24.6196 Y31.4692
G01 X24.6764 Y31.5320
G01 X24.7270 Y31.6000
G01 X24.7339 Y31.6104
G01 X24.7774 Y31.6831
G01 X24.8163 Y31.7653
G01 X24.8469 Y31.8510
G01 X24.8676 Y31.9331
G01 X24.8701 Y31.9453
G01 X24.8823 Y32.0292
G01 X24.8866 Y32.1138
G01 X24.8866 Y32.1262
G01 X24.8828 Y32.2046
G01 X24.8816 Y32.2170
G01 X24.8690 Y32.3008
G01 X24.8469 Y32.3890
G01 X24.8185 Y32.4689
G01 X24.8137 Y32.4804
G01 X24.7774 Y32.5569
G01 X24.7339 Y32.6296
G01 X24.7270 Y32.6400
G01 X24.6764 Y32.7080
G01 X24.6196 Y32.7708
G01 X24.6131 Y32.7775
G01 X24.5480 Y32.8364
G01 X24.4800 Y32.8870
G01 X24.4696 Y32.8939
G01 X24.3969 Y32.9374
G01 X24.3147 Y32.9763
G01 X24.2349 Y33.0049
G01 X24.2230 Y33.0086
G01 X24.1469 Y33.0276
G01 X24.1378 Y33.0296
G01 X24.0508 Y33.0423
G01 X23.9600 Y33.0468
G01 X23.1600 Y33.0468
G01 X23.0723 Y33.0426
G01 X23.0630 Y33.0416
G01 X22.9853 Y33.0301
G01 X22.9731 Y33.0276
G01 X22.8910 Y33.0069
G01 X22.8111 Y32.9785
G01 X22.7996 Y32.9737
G01 X22.7231 Y32.9374
G01 X22.6504 Y32.8939
G01 X22.6425 Y32.8888
G01 X22.5720 Y32.8364
G01 X22.5092 Y32.7796
G01 X22.5004 Y32.7708
G01 X22.4436 Y32.7080
G01 X22.3930 Y32.6400
G01 X22.3861 Y32.6296
G01 X22.3426 Y32.5569
G01 X22.3141 Y32.4969
G01 X19.7500 Y32.4969
G01 X19.7131 Y32.4951
G01 X19.6765 Y32.4897
G01 X19.6406 Y32.4807
G01 X19.6086 Y32.4694
G01 X19.6001 Y32.4657
G01 X19.5723 Y32.4524
G01 X19.5406 Y32.4334
G01 X19.5109 Y32.4114
G01 X19.4835 Y32.3865
G01 X16.9413 Y29.8443
G01 X16.9186 Y29.8191
G01 X16.8966 Y29.7894
G01 X16.8776 Y29.7577
G01 X16.8618 Y29.7242
G01 X16.8493 Y29.6894
G01 X16.8403 Y29.6535
G01 X16.8349 Y29.6169
G01 X16.8331 Y29.5831
G01 X16.8331 Y21.5359
G01 X16.7731 Y21.5074
G01 X16.7004 Y21.4639
G01 X16.6900 Y21.4570
G01 X16.6270 Y21.4103
G01 X16.6197 Y21.4044
G01 X16.5547 Y21.3453
G01 X16.4976 Y21.2827
G01 X16.4897 Y21.2730
G01 X16.4430 Y21.2100
G01 X16.4377 Y21.2023
G01 X16.3926 Y21.1269
G01 X16.3563 Y21.0504
G01 X16.3515 Y21.0389
G01 X16.3231 Y20.9590
G01 X16.3010 Y20.8708
G01 X16.2884 Y20.7870
G01 X16.2872 Y20.7746
G01 X16.2832 Y20.6900
G01 X16.2877 Y20.5992
G01 X16.2999 Y20.5153
G01 X16.3024 Y20.5031
G01 X16.3214 Y20.4270
G01 X16.3251 Y20.4151
G01 X16.3537 Y20.3353
G01 X16.3926 Y20.2531
G01 X16.4394 Y20.1751
G01 X16.4916 Y20.1045
G01 X16.4976 Y20.0973
G01 X16.5504 Y20.0392
G01 X16.5592 Y20.0304
G01 X16.6220 Y19.9736
G01 X16.6900 Y19.9230
G01 X16.6977 Y19.9177
G01 X16.7731 Y19.8726
G01 X16.8525 Y19.8350
G01 X16.8611 Y19.8315
G01 X16.9380 Y19.8040
G01 X16.9650 Y19.7969
G01 X14.8261 Y19.7969
G01 X13.6665 Y20.9565
G01 X13.6391 Y20.9814
G01 X13.6120 Y21.0016
G01 X13.6042 Y21.0067
G01 X13.5777 Y21.0224
G01 X13.5499 Y21.0357
G01 X13.5384 Y21.0405
G01 X13.5094 Y21.0507
G01 X13.4796 Y21.0583
G01 X13.4674 Y21.0607
G01 X13.4369 Y21.0651
G01 X13.4000 Y21.0669
G01 X12.9759 Y21.0669
G01 X12.9474 Y21.1269
G01 X12.9039 Y21.1996
G01 X12.8970 Y21.2100
G01 X12.8503 Y21.2730
G01 X12.8424 Y21.2827
G01 X12.7853 Y21.3453
G01 X12.7180 Y21.4064
G01 X12.6449 Y21.4606
G01 X12.5723 Y21.5043
G01 X12.5613 Y21.5102
G01 X12.4847 Y21.5463
G01 X12.4049 Y21.5749
G01 X12.3930 Y21.5786
G01 X12.3139 Y21.5983
G01 X12.3047 Y21.6001
G01 X12.2208 Y21.6123
G01 X12.1362 Y21.6166
G01 X12.1238 Y21.6166
G01 X12.0454 Y21.6128
G01 X12.0330 Y21.6116
G01 X11.9492 Y21.5990
G01 X11.8610 Y21.5769
G01 X11.7753 Y21.5463
G01 X11.6931 Y21.5074
G01 X11.6151 Y21.4606
G01 X11.5470 Y21.4103
G01 X11.5373 Y21.4024
G01 X11.4792 Y21.3496
G01 X11.4704 Y21.3408
G01 X11.4136 Y21.2780
G01 X11.3594 Y21.2049
G01 X11.3126 Y21.1269
G01 X11.2750 Y21.0475
G01 X11.2715 Y21.0389
G01 X11.2431 Y20.9590
G01 X11.2210 Y20.8708
G01 X11.2077 Y20.7808
G01 X11.2032 Y20.6900
G01 X11.2077 Y20.5992
G01 X11.2210 Y20.5092
G01 X11.2431 Y20.4210
G01 X11.2737 Y20.3353
G01 X11.3126 Y20.2531
G01 X11.3594 Y20.1751
G01 X11.4136 Y20.1020
G01 X11.4747 Y20.0347
G01 X11.5420 Y19.9736
G01 X11.6151 Y19.9194
G01 X11.6931 Y19.8726
G01 X11.7725 Y19.8350
G01 X11.7811 Y19.8315
G01 X11.8610 Y19.8031
G01 X11.9492 Y19.7810
G01 X12.0392 Y19.7677
G01 X12.1300 Y19.7632
G01 X12.2208 Y19.7677
G01 X12.3108 Y19.7810
G01 X12.3990 Y19.8031
G01 X12.4818 Y19.8326
G01 X12.4904 Y19.8363
G01 X12.5669 Y19.8726
G01 X12.6449 Y19.9194
G01 X12.7180 Y19.9736
G01 X12.7831 Y20.0325
G01 X12.7896 Y20.0392
G01 X12.8464 Y20.1020
G01 X12.8988 Y20.1725
G01 X12.9039 Y20.1804
G01 X12.9474 Y20.2531
G01 X12.9759 Y20.3131
G00 Z2.0000
G00 X12.8873 Y32.4875
G01 F60.00
G01 Z-0.2866
G01 F120.00
G01 X13.0325 Y32.6327
G01 X13.1503 Y32.8009
G01 X13.2371 Y32.9870
G01 X13.2903 Y33.1854
G01 X13.3082 Y33.3900
G01 X13.2942 Y33.5522
G01 X13.2943 Y33.5649
G01 X13.2967 Y33.6021
G01 X13.2981 Y33.6143
G01 X13.3006 Y33.6263
G01 X13.3033 Y33.6351
G01 X13.3066 Y33.6437
G01 X13.3105 Y33.6521
G01 X13.3469 Y33.7188
G01 X13.3534 Y33.7289
G01 X13.3589 Y33.7361
G01 X13.3671 Y33.7450
G01 X15.8332 Y36.2111
G01 X15.8452 Y36.2224
G01 X15.8525 Y36.2284
G01 X15.8628 Y36.2355
G01 X15.8738 Y36.2415
G01 X15.9402 Y36.2719
G01 X15.9489 Y36.2755
G01 X15.9579 Y36.2784
G01 X15.9671 Y36.2807
G01 X15.9764 Y36.2822
G01 X15.9858 Y36.2831
G01 X15.9952 Y36.2833
G01 X16.0078 Y36.2824
G01 X16.0801 Y36.2721
G01 X16.0955 Y36.2689
G01 X16.1104 Y36.2638
G01 X16.1189 Y36.2599
G01 X16.1272 Y36.2553
G01 X16.1402 Y36.2464
G01 X16.1979 Y36.1966
G01 X16.2091 Y36.1856
G01 X16.2170 Y36.1758
G01 X16.2255 Y36.1626
G01 X16.2323 Y36.1484
G01 X16.2365 Y36.1365
G01 X16.2570 Y36.0666
G01 X16.2600 Y36.0518
G01 X16.2612 Y36.0398
G01 X16.2613 Y34.1605
G01 X16.2606 Y34.1434
G01 X16.2587 Y34.1306
G01 X16.2555 Y34.1181
G01 X16.2322 Y34.0488
G01 X16.2278 Y34.0376
G01 X16.2238 Y34.0295
G01 X16.2176 Y34.0191
G01 X16.1897 Y33.9791
G01 X16.1029 Y33.7930
G01 X16.0497 Y33.5946
G01 X16.0318 Y33.3900
G01 X16.0497 Y33.1854
G01 X16.1029 Y32.9870
G01 X16.1897 Y32.8009
G01 X16.3075 Y32.6327
G01 X16.4527 Y32.4875
G01 X16.6209 Y32.3697
G01 X16.8070 Y32.2829
G01 X17.0054 Y32.2297
G01 X17.2100 Y32.2118
G01 X17.4146 Y32.2297
G01 X17.6130 Y32.2829
G01 X17.7991 Y32.3697
G01 X17.9673 Y32.4875
G01 X18.1125 Y32.6327
G01 X18.2303 Y32.8009
G01 X18.3171 Y32.9870
G01 X18.3703 Y33.1854
G01 X18.3882 Y33.3900
G01 X18.3703 Y33.5946
G01 X18.3171 Y33.7930
G01 X18.2303 Y33.9791
G01 X18.1125 Y34.1473
G01 X17.9673 Y34.2925
G01 X17.7991 Y34.4103
G01 X17.6535 Y34.4782
G01 X17.6393 Y34.4860
G01 X17.6262 Y34.4955
G01 X17.5694 Y34.5451
G01 X17.5607 Y34.5540
G01 X17.5510 Y34.5662
G01 X17.5429 Y34.5796
G01 X17.5365 Y34.5939
G01 X17.5335 Y34.6028
G01 X17.5123 Y34.6756
G01 X17.5096 Y34.6905
G01 X17.5087 Y34.7055
G01 X17.5087 Y37.1266
G01 X17.5093 Y37.1384
G01 X17.5115 Y37.1531
G01 X17.5238 Y37.2098
G01 X17.5288 Y37.2247
G01 X17.5340 Y37.2362
G01 X17.5404 Y37.2470
G01 X17.5479 Y37.2571
G01 X17.5972 Y37.3150
G01 X17.6079 Y37.3256
G01 X17.6198 Y37.3349
G01 X17.7499 Y37.4199
G01 X17.9116 Y37.5687
G01 X18.0466 Y37.7421
G01 X18.1512 Y37.9355
G01 X18.2225 Y38.1433
G01 X18.2587 Y38.3601
G01 X18.2587 Y38.5799
G01 X18.2225 Y38.7967
G01 X18.1512 Y39.0046
G01 X18.0466 Y39.1979
G01 X17.9116 Y39.3713
G01 X17.7499 Y39.5201
G01 X17.7319 Y39.5319
G01 X17.7250 Y39.5370
G01 X17.6930 Y39.5647
G01 X17.6841 Y39.5736
G01 X17.6762 Y39.5833
G01 X17.6693 Y39.5938
G01 X17.6648 Y39.6020
G01 X17.6339 Y39.6682
G01 X17.6291 Y39.6799
G01 X17.6249 Y39.6950
G01 X17.6228 Y39.7074
G01 X17.6220 Y39.7200
G01 X17.6228 Y39.7357
G01 X17.6326 Y39.8081
G01 X17.6357 Y39.8235
G01 X17.6395 Y39.8355
G01 X17.6445 Y39.8470
G01 X17.6507 Y39.8580
G01 X17.6578 Y39.8684
G01 X17.7072 Y39.9264
G01 X17.7154 Y39.9352
G01 X17.7221 Y39.9413
G01 X17.7293 Y39.9468
G01 X17.7496 Y39.9603
G01 X17.9112 Y40.1091
G01 X18.0461 Y40.2824
G01 X18.1507 Y40.4757
G01 X18.2048 Y40.6332
G01 X17.9428 Y40.6332
G01 X17.9319 Y40.6028
G01 X17.9284 Y40.5941
G01 X17.8872 Y40.5068
G01 X17.8829 Y40.4985
G01 X17.8299 Y40.4104
G01 X17.7706 Y40.3302
G01 X17.7648 Y40.3229
G01 X17.6957 Y40.2468
G01 X17.6172 Y40.1757
G01 X17.5321 Y40.1126
G01 X17.4440 Y40.0596
G01 X17.4357 Y40.0553
G01 X17.3455 Y40.0129
G01 X17.2517 Y39.9791
G01 X17.2398 Y39.9755
G01 X17.1431 Y39.9514
G01 X17.0445 Y39.9367
G01 X17.0321 Y39.9354
G01 X16.9325 Y39.9307
G01 X16.8344 Y39.9307
G01 X16.7348 Y39.9356
G01 X16.7255 Y39.9367
G01 X16.6269 Y39.9514
G01 X16.5302 Y39.9755
G01 X16.5183 Y39.9791
G01 X16.4245 Y40.0129
G01 X16.3315 Y40.0567
G01 X16.3233 Y40.0612
G01 X16.2379 Y40.1126
G01 X16.1528 Y40.1757
G01 X16.0743 Y40.2468
G01 X16.0052 Y40.3229
G01 X15.9994 Y40.3302
G01 X15.9401 Y40.4104
G01 X15.8871 Y40.4985
G01 X15.8828 Y40.5068
G01 X15.8416 Y40.5941
G01 X15.8381 Y40.6028
G01 X15.8272 Y40.6332
G01 X15.5652 Y40.6332
G01 X15.6193 Y40.4756
G01 X15.7239 Y40.2824
G01 X15.8588 Y40.1090
G01 X16.0204 Y39.9603
G01 X16.0381 Y39.9487
G01 X16.0472 Y39.9418
G01 X16.0770 Y39.9160
G01 X16.0838 Y39.9094
G01 X16.0900 Y39.9023
G01 X16.0991 Y39.8895
G01 X16.1052 Y39.8786
G01 X16.1386 Y39.8066
G01 X16.1428 Y39.7948
G01 X16.1457 Y39.7825
G01 X16.1475 Y39.7700
G01 X16.1480 Y39.7575
G01 X16.1468 Y39.7418
G01 X16.1374 Y39.6725
G01 X16.1351 Y39.6602
G01 X16.1315 Y39.6481
G01 X16.1255 Y39.6336
G01 X16.1193 Y39.6226
G01 X16.1122 Y39.6122
G01 X16.0628 Y39.5542
G01 X16.0546 Y39.5454
G01 X16.0479 Y39.5393
G01 X16.0407 Y39.5338
G01 X16.0201 Y39.5201
G01 X15.8584 Y39.3713
G01 X15.7234 Y39.1978
G01 X15.6188 Y39.0046
G01 X15.5475 Y38.7967
G01 X15.5113 Y38.5799
G01 X15.5113 Y38.3601
G01 X15.5475 Y38.1433
G01 X15.6126 Y37.9536
G01 X15.6168 Y37.9384
G01 X15.6191 Y37.9229
G01 X15.6234 Y37.8470
G01 X15.6229 Y37.8347
G01 X15.6212 Y37.8225
G01 X15.6175 Y37.8076
G01 X15.6132 Y37.7961
G01 X15.6079 Y37.7850
G01 X15.5744 Y37.7237
G01 X15.5681 Y37.7134
G01 X15.5609 Y37.7037
G01 X15.5527 Y37.6948
G01 X12.4850 Y34.6271
G01 X12.4756 Y34.6185
G01 X12.4355 Y34.5890
G01 X12.4222 Y34.5813
G01 X12.4110 Y34.5763
G01 X12.4023 Y34.5733
G01 X12.3934 Y34.5710
G01 X12.3218 Y34.5566
G01 X12.3129 Y34.5551
G01 X12.3009 Y34.5541
G01 X12.2888 Y34.5543
G01 X12.1300 Y34.5682
G01 X11.9254 Y34.5503
G01 X11.7270 Y34.4971
G01 X11.5409 Y34.4103
G01 X11.3727 Y34.2925
G01 X11.2275 Y34.1473
G01 X11.1097 Y33.9791
G01 X11.0229 Y33.7930
G01 X10.9697 Y33.5946
G01 X10.9518 Y33.3900
G01 X10.9697 Y33.1854
G01 X11.0229 Y32.9870
G01 X11.1097 Y32.8009
G01 X11.2275 Y32.6327
G01 X11.3727 Y32.4875
G01 X11.5409 Y32.3697
G01 X11.7270 Y32.2829
G01 X11.9254 Y32.2297
G01 X12.1300 Y32.2118
G01 X12.3346 Y32.2297
G01 X12.5330 Y32.2829
G01 X12.7191 Y32.3697
G01 X12.8873 Y32.4875
G00 Z2.0000
G00 X12.4616 Y34.2547
G01 F60.00
G01 Z-0.2866
G01 F120.00
G01 X12.3990 Y34.2769
G01 X12.3169 Y34.2976
G01 X12.3078 Y34.2996
G01 X12.2208 Y34.3123
G01 X12.1362 Y34.3166
G01 X12.1269 Y34.3168
G01 X12.0392 Y34.3123
G01 X11.9492 Y34.2990
G01 X11.8610 Y34.2769
G01 X11.7811 Y34.2485
G01 X11.7725 Y34.2450
G01 X11.6931 Y34.2074
G01 X11.6151 Y34.1606
G01 X11.5420 Y34.1064
G01 X11.4747 Y34.0453
G01 X11.4136 Y33.9780
G01 X11.3594 Y33.9049
G01 X11.3126 Y33.8269
G01 X11.2763 Y33.7504
G01 X11.2726 Y33.7418
G01 X11.2431 Y33.6590
G01 X11.2210 Y33.5708
G01 X11.2077 Y33.4808
G01 X11.2032 Y33.3900
G01 X11.2077 Y33.2992
G01 X11.2210 Y33.2092
G01 X11.2431 Y33.1210
G01 X11.2737 Y33.0353
G01 X11.3126 Y32.9531
G01 X11.3594 Y32.8751
G01 X11.4136 Y32.8020
G01 X11.4747 Y32.7347
G01 X11.5420 Y32.6736
G01 X11.6151 Y32.6194
G01 X11.6931 Y32.5726
G01 X11.7696 Y32.5363
G01 X11.7782 Y32.5326
G01 X11.8610 Y32.5031
G01 X11.9431 Y32.4824
G01 X11.9553 Y32.4799
G01 X12.0392 Y32.4677
G01 X12.1300 Y32.4632
G01 X12.2146 Y32.4672
G01 X12.2270 Y32.4684
G01 X12.3108 Y32.4810
G01 X12.3930 Y32.5014
G01 X12.4049 Y32.5051
G01 X12.4847 Y32.5337
G01 X12.5669 Y32.5726
G01 X12.6449 Y32.6194
G01 X12.7130 Y32.6697
G01 X12.7227 Y32.6776
G01 X12.7853 Y32.7347
G01 X12.8464 Y32.8020
G01 X12.8970 Y32.8700
G01 X12.9039 Y32.8804
G01 X12.9474 Y32.9531
G01 X12.9837 Y33.0296
G01 X12.9885 Y33.0411
G01 X13.0169 Y33.1210
G01 X13.0383 Y33.2061
G01 X13.0401 Y33.2153
G01 X13.0516 Y33.2930
G01 X13.0528 Y33.3054
G01 X13.0568 Y33.3900
G01 X13.0526 Y33.4777
G01 X13.0516 Y33.4870
G01 X13.0401 Y33.5647
G01 X13.0376 Y33.5769
G01 X13.0169 Y33.6590
G01 X12.9947 Y33.7216
G01 X16.5072 Y37.2342
G01 X16.5081 Y33.9942
G01 X16.4916 Y33.9755
G01 X16.4412 Y33.9075
G01 X16.4361 Y33.8996
G01 X16.3957 Y33.8323
G01 X16.3912 Y33.8241
G01 X16.3537 Y33.7447
G01 X16.3251 Y33.6649
G01 X16.3214 Y33.6530
G01 X16.3017 Y33.5739
G01 X16.2999 Y33.5647
G01 X16.2877 Y33.4808
G01 X16.2834 Y33.3962
G01 X16.2834 Y33.3838
G01 X16.2877 Y33.2992
G01 X16.2999 Y33.2153
G01 X16.3024 Y33.2031
G01 X16.3231 Y33.1210
G01 X16.3537 Y33.0353
G01 X16.3898 Y32.9587
G01 X16.3957 Y32.9477
G01 X16.4394 Y32.8751
G01 X16.4897 Y32.8070
G01 X16.4976 Y32.7973
G01 X16.5547 Y32.7347
G01 X16.6173 Y32.6776
G01 X16.6270 Y32.6697
G01 X16.6951 Y32.6194
G01 X16.7677 Y32.5757
G01 X16.7787 Y32.5698
G01 X16.8553 Y32.5337
G01 X16.9351 Y32.5051
G01 X16.9470 Y32.5014
G01 X17.0292 Y32.4810
G01 X17.1130 Y32.4684
G01 X17.1254 Y32.4672
G01 X17.2100 Y32.4632
G01 X17.2946 Y32.4672
G01 X17.3070 Y32.4684
G01 X17.3908 Y32.4810
G01 X17.4730 Y32.5014
G01 X17.4849 Y32.5051
G01 X17.5647 Y32.5337
G01 X17.6413 Y32.5698
G01 X17.6523 Y32.5757
G01 X17.7249 Y32.6194
G01 X17.7930 Y32.6697
G01 X17.8027 Y32.6776
G01 X17.8631 Y32.7325
G01 X17.8696 Y32.7392
G01 X17.9224 Y32.7973
G01 X17.9303 Y32.8070
G01 X17.9806 Y32.8751
G01 X18.0274 Y32.9531
G01 X18.0663 Y33.0353
G01 X18.0949 Y33.1151
G01 X18.0986 Y33.1270
G01 X18.1190 Y33.2092
G01 X18.1323 Y33.2992
G01 X18.1366 Y33.3838
G01 X18.1366 Y33.3962
G01 X18.1323 Y33.4808
G01 X18.1201 Y33.5647
G01 X18.1176 Y33.5769
G01 X18.0969 Y33.6590
G01 X18.0674 Y33.7418
G01 X18.0637 Y33.7504
G01 X18.0302 Y33.8213
G01 X18.0243 Y33.8323
G01 X17.9806 Y33.9049
G01 X17.9264 Y33.9780
G01 X17.8696 Y34.0408
G01 X17.8608 Y34.0496
G01 X17.7980 Y34.1064
G01 X17.7275 Y34.1588
G01 X17.7196 Y34.1639
G01 X17.6523 Y34.2043
G01 X17.6413 Y34.2102
G01 X17.5647 Y34.2463
G01 X17.4820 Y34.2760
G01 X17.4730 Y34.2786
G01 X17.3969 Y34.2976
G01 X17.3878 Y34.2996
G01 X17.3039 Y34.3120
G01 X17.2946 Y34.3128
G01 X17.2619 Y34.3144
G01 X17.2619 Y37.4428
G01 X17.3455 Y37.4729
G01 X17.4357 Y37.5153
G01 X17.4467 Y37.5212
G01 X17.5321 Y37.5726
G01 X17.6172 Y37.6357
G01 X17.6912 Y37.7025
G01 X17.7000 Y37.7113
G01 X17.7668 Y37.7853
G01 X17.8263 Y37.8653
G01 X17.8332 Y37.8756
G01 X17.8844 Y37.9612
G01 X17.9296 Y38.0570
G01 X17.9653 Y38.1567
G01 X17.9897 Y38.2534
G01 X17.9921 Y38.2656
G01 X18.0066 Y38.3642
G01 X18.0118 Y38.4700
G01 X18.0066 Y38.5758
G01 X17.9911 Y38.6806
G01 X17.9670 Y38.7773
G01 X17.9634 Y38.7892
G01 X17.9319 Y38.8772
G01 X17.9271 Y38.8887
G01 X17.8844 Y38.9788
G01 X17.8332 Y39.0644
G01 X17.8263 Y39.0747
G01 X17.7668 Y39.1547
G01 X17.6979 Y39.2310
G01 X17.6912 Y39.2375
G01 X17.6172 Y39.3043
G01 X17.5321 Y39.3674
G01 X17.4413 Y39.4219
G01 X17.3455 Y39.4671
G01 X17.2458 Y39.5028
G01 X17.1431 Y39.5286
G01 X17.0383 Y39.5441
G01 X16.9325 Y39.5493
G01 X16.8344 Y39.5493
G01 X16.7348 Y39.5444
G01 X16.7255 Y39.5433
G01 X16.6331 Y39.5296
G01 X16.6209 Y39.5272
G01 X16.5242 Y39.5028
G01 X16.4303 Y39.4694
G01 X16.4188 Y39.4646
G01 X16.3287 Y39.4219
G01 X16.2379 Y39.3674
G01 X16.1528 Y39.3043
G01 X16.0765 Y39.2354
G01 X16.0700 Y39.2287
G01 X16.0032 Y39.1547
G01 X15.9401 Y39.0696
G01 X15.8856 Y38.9788
G01 X15.8429 Y38.8887
G01 X15.8381 Y38.8772
G01 X15.8047 Y38.7833
G01 X15.7803 Y38.6866
G01 X15.7779 Y38.6744
G01 X15.7642 Y38.5820
G01 X15.7629 Y38.5696
G01 X15.7582 Y38.4700
G01 X15.7634 Y38.3642
G01 X15.7789 Y38.2594
G01 X15.8047 Y38.1567
G01 X15.8404 Y38.0570
G01 X15.8856 Y37.9612
G01 X15.9401 Y37.8704
G01 X15.9984 Y37.7915
G01 X12.4616 Y34.2547
G00 Z2.0000
G00 X15.5536 Y44.6834
G01 F60.00
G01 Z-0.2866
G01 F120.00
G01 X15.5153 Y44.5806
G01 X15.5113 Y44.5436
G01 X15.5113 Y42.5564
G01 X15.5153 Y42.5194
G01 X15.5536 Y42.4166
G01 X15.6180 Y42.3305
G01 X15.7041 Y42.2661
G01 X15.7245 Y42.2583
G01 X15.7485 Y42.2471
G01 X15.7593 Y42.2410
G01 X15.7694 Y42.2340
G01 X15.7811 Y42.2238
G01 X15.8317 Y42.1712
G01 X15.8380 Y42.1642
G01 X15.8438 Y42.1567
G01 X15.8506 Y42.1461
G01 X15.8562 Y42.1349
G01 X15.8608 Y42.1231
G01 X15.8634 Y42.1140
G01 X15.8789 Y42.0363
G01 X15.8802 Y42.0269
G01 X15.8808 Y42.0143
G01 X15.8804 Y42.0049
G01 X15.8793 Y41.9955
G01 X15.8768 Y41.9832
G01 X15.8741 Y41.9741
G01 X15.8451 Y41.9004
G01 X15.8385 Y41.8869
G01 X15.8337 Y41.8792
G01 X15.8284 Y41.8719
G01 X15.7239 Y41.7376
G01 X15.6193 Y41.5443
G01 X15.5652 Y41.3868
G01 X15.8272 Y41.3868
G01 X15.8381 Y41.4172
G01 X15.8416 Y41.4259
G01 X15.8828 Y41.5132
G01 X15.8871 Y41.5215
G01 X15.9401 Y41.6096
G01 X15.9994 Y41.6898
G01 X16.0052 Y41.6971
G01 X16.0743 Y41.7732
G01 X16.1528 Y41.8443
G01 X16.2379 Y41.9074
G01 X16.3260 Y41.9604
G01 X16.3343 Y41.9647
G01 X16.4245 Y42.0071
G01 X16.5183 Y42.0409
G01 X16.5302 Y42.0445
G01 X16.6269 Y42.0686
G01 X16.7255 Y42.0833
G01 X16.7379 Y42.0846
G01 X16.8375 Y42.0893
G01 X16.9356 Y42.0893
G01 X17.0352 Y42.0844
G01 X17.0445 Y42.0833
G01 X17.1431 Y42.0686
G01 X17.2398 Y42.0445
G01 X17.2517 Y42.0409
G01 X17.3455 Y42.0071
G01 X17.4385 Y41.9633
G01 X17.4467 Y41.9588
G01 X17.5321 Y41.9074
G01 X17.6172 Y41.8443
G01 X17.6957 Y41.7732
G01 X17.7648 Y41.6971
G01 X17.7706 Y41.6898
G01 X17.8299 Y41.6096
G01 X17.8829 Y41.5215
G01 X17.8872 Y41.5132
G01 X17.9284 Y41.4259
G01 X17.9319 Y41.4172
G01 X17.9428 Y41.3868
G01 X18.2048 Y41.3868
G01 X18.1507 Y41.5444
G01 X18.0461 Y41.7376
G01 X17.9396 Y41.8746
G01 X17.9230 Y41.8995
G01 X17.9170 Y41.9104
G01 X17.9121 Y41.9217
G01 X17.9083 Y41.9335
G01 X17.8919 Y42.0078
G01 X17.8896 Y42.0234
G01 X17.8891 Y42.0391
G01 X17.8898 Y42.0485
G01 X17.8912 Y42.0579
G01 X17.8941 Y42.0701
G01 X17.8970 Y42.0791
G01 X17.9238 Y42.1504
G01 X17.9309 Y42.1644
G01 X17.9397 Y42.1775
G01 X17.9479 Y42.1871
G01 X17.9593 Y42.1978
G01 X18.0226 Y42.2454
G01 X18.0328 Y42.2519
G01 X18.0408 Y42.2561
G01 X18.0491 Y42.2598
G01 X18.0659 Y42.2661
G01 X18.1520 Y42.3305
G01 X18.2164 Y42.4166
G01 X18.2547 Y42.5194
G01 X18.2587 Y42.5564
G01 X18.2589 Y43.6196
G01 X18.2631 Y43.6589
G01 X18.2656 Y43.6710
G01 X18.2693 Y43.6829
G01 X18.2729 Y43.6915
G01 X18.2770 Y43.6999
G01 X18.3105 Y43.7612
G01 X18.3151 Y43.7690
G01 X18.3221 Y43.7788
G01 X18.3322 Y43.7901
G01 X22.4749 Y47.9328
G01 X22.4850 Y47.9419
G01 X22.5106 Y47.9623
G01 X22.5237 Y47.9707
G01 X22.5348 Y47.9762
G01 X22.5495 Y47.9815
G01 X22.6194 Y48.0020
G01 X22.6282 Y48.0040
G01 X22.6372 Y48.0054
G01 X22.6522 Y48.0063
G01 X33.2778 Y48.0063
G01 X33.2913 Y48.0056
G01 X33.3239 Y48.0019
G01 X33.3360 Y47.9994
G01 X33.3479 Y47.9957
G01 X33.3565 Y47.9921
G01 X33.3649 Y47.9880
G01 X33.4289 Y47.9530
G01 X33.4414 Y47.9447
G01 X33.4485 Y47.9390
G01 X33.4551 Y47.9328
G01 X36.0128 Y45.3751
G01 X36.0198 Y45.3676
G01 X36.0386 Y45.3444
G01 X36.0441 Y45.3369
G01 X36.0492 Y45.3290
G01 X36.0549 Y45.3180
G01 X36.0596 Y45.3065
G01 X36.0812 Y45.2335
G01 X36.0834 Y45.2247
G01 X36.0850 Y45.2158
G01 X36.0863 Y45.2008
G01 X36.0863 Y42.7989
G01 X36.0903 Y42.7619
G01 X36.1286 Y42.6591
G01 X36.1930 Y42.5730
G01 X36.2791 Y42.5086
G01 X36.3819 Y42.4703
G01 X36.4189 Y42.4663
G01 X36.5755 Y42.4663
G01 X36.5876 Y42.4657
G01 X36.5995 Y42.4640
G01 X36.6571 Y42.4515
G01 X36.6692 Y42.4479
G01 X36.6838 Y42.4417
G01 X36.6975 Y42.4337
G01 X36.7100 Y42.4241
G01 X36.7675 Y42.3741
G01 X36.7762 Y42.3650
G01 X36.7839 Y42.3550
G01 X36.7890 Y42.3471
G01 X36.7935 Y42.3388
G01 X36.7996 Y42.3243
G01 X36.8212 Y42.2512
G01 X36.8234 Y42.2425
G01 X36.8254 Y42.2306
G01 X36.8263 Y42.2155
G01 X36.8263 Y32.2109
G01 X36.8242 Y32.1378
G01 X36.8246 Y32.1343
G01 X36.8406 Y32.0668
G01 X36.8554 Y31.9952
G01 X36.8566 Y31.9918
G01 X36.8877 Y31.9298
G01 X36.9190 Y31.8630
G01 X36.9206 Y31.8606
G01 X36.9652 Y31.8074
G01 X36.9833 Y31.7847
G01 X36.9932 Y31.7740
G01 X37.0191 Y31.7432
G01 X37.0313 Y31.7340
G01 X37.0540 Y31.7139
G01 X37.4749 Y31.2930
G01 X37.4833 Y31.2831
G01 X37.4890 Y31.2752
G01 X37.5238 Y31.2188
G01 X37.5280 Y31.2104
G01 X37.5327 Y31.1988
G01 X37.5362 Y31.1869
G01 X37.5385 Y31.1746
G01 X37.5395 Y31.1622
G01 X37.5422 Y31.0923
G01 X37.5418 Y31.0773
G01 X37.5408 Y31.0683
G01 X37.5394 Y31.0609
G01 X37.5219 Y30.8500
G01 X37.5394 Y30.6396
G01 X37.5912 Y30.4350
G01 X37.6760 Y30.2417
G01 X37.7914 Y30.0650
G01 X37.9344 Y29.9097
G01 X38.1010 Y29.7800
G01 X38.2866 Y29.6796
G01 X38.4863 Y29.6110
G01 X38.6945 Y29.5763
G01 X38.9055 Y29.5763
G01 X39.1138 Y29.6110
G01 X39.3134 Y29.6796
G01 X39.4990 Y29.7801
G01 X39.6656 Y29.9097
G01 X39.6731 Y29.9174
G01 X39.6821 Y29.9251
G01 X39.7164 Y29.9518
G01 X39.7296 Y29.9604
G01 X39.7439 Y29.9673
G01 X39.7588 Y29.9724
G01 X39.8363 Y29.9894
G01 X39.8457 Y29.9908
G01 X39.8582 Y29.9916
G01 X39.8677 Y29.9914
G01 X39.8802 Y29.9901
G01 X39.8925 Y29.9875
G01 X39.9016 Y29.9847
G01 X39.9758 Y29.9569
G01 X39.9844 Y29.9528
G01 X39.9952 Y29.9465
G01 X40.0054 Y29.9390
G01 X40.0148 Y29.9307
G01 X40.0212 Y29.9238
G01 X40.0272 Y29.9164
G01 X40.0691 Y29.8605
G01 X40.0742 Y29.8531
G01 X40.0802 Y29.8426
G01 X40.0853 Y29.8316
G01 X40.1086 Y29.7691
G01 X40.1730 Y29.6830
G01 X40.2591 Y29.6186
G01 X40.3619 Y29.5803
G01 X40.3989 Y29.5763
G01 X40.4685 Y29.5763
G01 X40.4776 Y29.5757
G01 X40.4895 Y29.5740
G01 X40.5471 Y29.5615
G01 X40.5592 Y29.5579
G01 X40.5709 Y29.5531
G01 X40.5794 Y29.5487
G01 X40.5875 Y29.5437
G01 X40.5952 Y29.5382
G01 X40.6575 Y29.4841
G01 X40.6682 Y29.4726
G01 X40.6773 Y29.4598
G01 X40.6848 Y29.4459
G01 X40.6906 Y29.4313
G01 X40.7120 Y29.3583
G01 X40.7140 Y29.3495
G01 X40.7154 Y29.3406
G01 X40.7163 Y29.3255
G01 X40.7163 Y27.3988
G01 X40.7156 Y27.3887
G01 X40.7119 Y27.3561
G01 X40.7094 Y27.3440
G01 X40.7046 Y27.3292
G01 X40.6980 Y27.3151
G01 X40.6630 Y27.2511
G01 X40.6565 Y27.2410
G01 X40.6510 Y27.2338
G01 X40.6428 Y27.2249
G01 X38.7313 Y25.3133
G01 X38.7223 Y25.3052
G01 X38.7127 Y25.2979
G01 X38.6631 Y25.2661
G01 X38.6520 Y25.2601
G01 X38.6432 Y25.2563
G01 X38.6343 Y25.2532
G01 X38.6251 Y25.2508
G01 X38.6157 Y25.2490
G01 X38.6063 Y25.2480
G01 X38.5303 Y25.2427
G01 X38.5146 Y25.2433
G01 X38.4991 Y25.2459
G01 X38.4869 Y25.2493
G01 X38.4724 Y25.2553
G01 X38.4028 Y25.2931
G01 X38.3902 Y25.3014
G01 X38.3832 Y25.3071
G01 X38.3766 Y25.3133
G01 X38.2873 Y25.4025
G01 X38.1191 Y25.5203
G01 X37.9330 Y25.6071
G01 X37.7346 Y25.6603
G01 X37.5300 Y25.6782
G01 X37.3254 Y25.6603
G01 X37.1270 Y25.6071
G01 X36.9409 Y25.5203
G01 X36.7727 Y25.4025
G01 X36.6275 Y25.2573
G01 X36.5097 Y25.0891
G01 X36.4229 Y24.9030
G01 X36.3697 Y24.7046
G01 X36.3518 Y24.5000
G01 X36.3697 Y24.2954
G01 X36.4229 Y24.0970
G01 X36.5097 Y23.9109
G01 X36.6275 Y23.7427
G01 X36.7727 Y23.5975
G01 X36.9409 Y23.4797
G01 X37.1270 Y23.3929
G01 X37.3254 Y23.3397
G01 X37.5300 Y23.3218
G01 X37.7346 Y23.3397
G01 X37.9330 Y23.3929
G01 X38.1191 Y23.4797
G01 X38.2873 Y23.5975
G01 X38.4325 Y23.7427
G01 X38.4530 Y23.7719
G01 X38.4588 Y23.7791
G01 X38.4650 Y23.7859
G01 X38.5018 Y23.8212
G01 X38.5086 Y23.8273
G01 X38.5208 Y23.8363
G01 X38.5341 Y23.8438
G01 X38.5424 Y23.8475
G01 X38.5510 Y23.8506
G01 X38.6209 Y23.8712
G01 X38.6327 Y23.8740
G01 X38.6446 Y23.8757
G01 X38.6567 Y23.8763
G01 X38.7891 Y23.8763
G01 X38.8622 Y23.8742
G01 X38.8657 Y23.8746
G01 X38.9364 Y23.8913
G01 X39.0054 Y23.9056
G01 X39.0082 Y23.9066
G01 X39.0702 Y23.9378
G01 X39.1364 Y23.9687
G01 X39.1394 Y23.9706
G01 X39.1926 Y24.0152
G01 X39.2153 Y24.0333
G01 X39.2260 Y24.0432
G01 X39.2568 Y24.0691
G01 X39.2660 Y24.0813
G01 X39.2861 Y24.1040
G01 X40.5311 Y25.3488
G01 X40.5402 Y25.3564
G01 X40.5500 Y25.3631
G01 X40.6072 Y25.3964
G01 X40.6212 Y25.4035
G01 X40.6359 Y25.4087
G01 X40.6512 Y25.4121
G01 X40.6668 Y25.4136
G01 X40.7461 Y25.4125
G01 X40.7617 Y25.4109
G01 X40.7740 Y25.4082
G01 X40.7860 Y25.4043
G01 X40.8003 Y25.3978
G01 X40.8112 Y25.3913
G01 X40.8693 Y25.3526
G01 X40.8767 Y25.3474
G01 X40.8836 Y25.3416
G01 X40.8943 Y25.3309
G01 X40.9091 Y25.3132
G01 X40.9213 Y25.3040
G01 X40.9440 Y25.2839
G01 X41.3729 Y24.8550
G01 X41.3835 Y24.8431
G01 X41.4110 Y24.8055
G01 X41.4173 Y24.7949
G01 X41.4213 Y24.7867
G01 X41.4247 Y24.7781
G01 X41.4275 Y24.7693
G01 X41.4297 Y24.7603
G01 X41.4434 Y24.6918
G01 X41.4455 Y24.6769
G01 X41.4459 Y24.6649
G01 X41.4454 Y24.6558
G01 X41.4318 Y24.5000
G01 X41.4497 Y24.2954
G01 X41.5029 Y24.0970
G01 X41.5897 Y23.9109
G01 X41.7075 Y23.7427
G01 X41.8527 Y23.5975
G01 X42.0209 Y23.4797
G01 X42.2070 Y23.3929
G01 X42.4054 Y23.3397
G01 X42.6100 Y23.3218
G01 X42.8146 Y23.3397
G01 X43.0130 Y23.3929
G01 X43.1991 Y23.4797
G01 X43.3673 Y23.5975
G01 X43.5125 Y23.7427
G01 X43.6303 Y23.9109
G01 X43.7171 Y24.0970
G01 X43.7703 Y24.2954
G01 X43.7882 Y24.5000
G01 X43.7703 Y24.7046
G01 X43.7171 Y24.9030
G01 X43.6303 Y25.0891
G01 X43.5125 Y25.2573
G01 X43.3673 Y25.4025
G01 X43.1991 Y25.5203
G01 X43.0130 Y25.6071
G01 X42.8146 Y25.6603
G01 X42.6100 Y25.6782
G01 X42.4478 Y25.6642
G01 X42.4351 Y25.6643
G01 X42.3979 Y25.6667
G01 X42.3857 Y25.6681
G01 X42.3767 Y25.6699
G01 X42.3678 Y25.6723
G01 X42.3591 Y25.6754
G01 X42.3507 Y25.6791
G01 X42.2787 Y25.7184
G01 X42.2663 Y25.7270
G01 X42.2550 Y25.7371
G01 X42.0372 Y25.9549
G01 X42.0303 Y25.9624
G01 X42.0115 Y25.9856
G01 X42.0059 Y25.9931
G01 X41.9993 Y26.0037
G01 X41.9938 Y26.0148
G01 X41.9904 Y26.0235
G01 X41.9680 Y26.0994
G01 X41.9660 Y26.1082
G01 X41.9646 Y26.1172
G01 X41.9637 Y26.1322
G01 X41.9637 Y27.0045
G01 X41.9642 Y27.0182
G01 X41.9677 Y27.0583
G01 X41.9656 Y27.0735
G01 X41.9637 Y27.1037
G01 X41.9637 Y29.3255
G01 X41.9643 Y29.3376
G01 X41.9666 Y29.3525
G01 X41.9793 Y29.4101
G01 X41.9832 Y29.4222
G01 X41.9898 Y29.4366
G01 X41.9981 Y29.4501
G01 X42.0059 Y29.4601
G01 X42.0537 Y29.5152
G01 X42.0603 Y29.5219
G01 X42.0674 Y29.5282
G01 X42.0750 Y29.5339
G01 X42.0829 Y29.5390
G01 X42.0941 Y29.5448
G01 X42.1028 Y29.5485
G01 X42.1117 Y29.5515
G01 X42.1817 Y29.5720
G01 X42.1935 Y29.5745
G01 X42.2055 Y29.5760
G01 X42.2145 Y29.5763
G01 X42.2811 Y29.5763
G01 X42.3181 Y29.5803
G01 X42.4209 Y29.6186
G01 X42.5070 Y29.6830
G01 X42.5714 Y29.7691
G01 X42.6097 Y29.8719
G01 X42.6137 Y29.9089
G01 X42.6137 Y31.7911
G01 X42.6097 Y31.8281
G01 X42.5714 Y31.9309
G01 X42.5070 Y32.0170
G01 X42.4209 Y32.0814
G01 X42.3181 Y32.1197
G01 X42.2811 Y32.1237
G01 X40.3989 Y32.1237
G01 X40.3619 Y32.1197
G01 X40.2591 Y32.0814
G01 X40.1730 Y32.0170
G01 X40.1086 Y31.9309
G01 X40.0864 Y31.8712
G01 X40.0830 Y31.8630
G01 X40.0776 Y31.8524
G01 X40.0542 Y31.8120
G01 X40.0469 Y31.8017
G01 X40.0385 Y31.7922
G01 X40.0293 Y31.7836
G01 X40.0192 Y31.7759
G01 X39.9563 Y31.7330
G01 X39.9481 Y31.7283
G01 X39.9395 Y31.7243
G01 X39.9247 Y31.7190
G01 X39.9093 Y31.7157
G01 X39.8968 Y31.7143
G01 X39.8207 Y31.7121
G01 X39.8112 Y31.7124
G01 X39.8019 Y31.7134
G01 X39.7926 Y31.7151
G01 X39.7804 Y31.7184
G01 X39.7716 Y31.7217
G01 X39.7630 Y31.7256
G01 X39.7547 Y31.7302
G01 X39.6897 Y31.7694
G01 X39.6777 Y31.7785
G01 X39.6710 Y31.7846
G01 X39.6656 Y31.7903
G01 X39.4990 Y31.9200
G01 X39.3134 Y32.0204
G01 X39.1138 Y32.0890
G01 X38.9055 Y32.1237
G01 X38.6945 Y32.1237
G01 X38.5766 Y32.1040
G01 X38.5677 Y32.1029
G01 X38.5586 Y32.1023
G01 X38.5059 Y32.1035
G01 X38.4932 Y32.1044
G01 X38.4838 Y32.1060
G01 X38.4746 Y32.1082
G01 X38.4655 Y32.1111
G01 X38.4538 Y32.1161
G01 X38.3842 Y32.1539
G01 X38.3741 Y32.1604
G01 X38.3646 Y32.1679
G01 X38.3580 Y32.1741
G01 X38.1425 Y32.3898
G01 X38.1177 Y32.4206
G01 X38.1108 Y32.4310
G01 X38.1051 Y32.4420
G01 X38.1015 Y32.4506
G01 X38.0985 Y32.4595
G01 X38.0788 Y32.5265
G01 X38.0766 Y32.5353
G01 X38.0743 Y32.5502
G01 X38.0737 Y32.5622
G01 X38.0738 Y42.2215
G01 X38.0746 Y42.2306
G01 X38.0760 Y42.2395
G01 X38.0885 Y42.2971
G01 X38.0932 Y42.3122
G01 X38.0998 Y42.3266
G01 X38.1081 Y42.3401
G01 X38.1159 Y42.3500
G01 X38.1637 Y42.4052
G01 X38.1727 Y42.4141
G01 X38.1824 Y42.4220
G01 X38.1902 Y42.4273
G01 X38.1984 Y42.4320
G01 X38.2069 Y42.4361
G01 X38.2157 Y42.4396
G01 X38.2888 Y42.4612
G01 X38.3005 Y42.4640
G01 X38.3094 Y42.4654
G01 X38.3215 Y42.4663
G01 X38.4811 Y42.4663
G01 X38.5181 Y42.4703
G01 X38.6209 Y42.5086
G01 X38.7070 Y42.5730
G01 X38.7714 Y42.6591
G01 X38.8097 Y42.7619
G01 X38.8137 Y42.7989
G01 X38.8137 Y46.8411
G01 X38.8097 Y46.8781
G01 X38.7714 Y46.9809
G01 X38.7070 Y47.0670
G01 X38.6209 Y47.1314
G01 X38.5181 Y47.1697
G01 X38.4811 Y47.1737
G01 X36.4189 Y47.1737
G01 X36.3819 Y47.1697
G01 X36.2689 Y47.1276
G01 X36.2432 Y47.1162
G01 X36.2317 Y47.1125
G01 X36.2199 Y47.1099
G01 X36.2079 Y47.1085
G01 X36.1383 Y47.1035
G01 X36.1257 Y47.1033
G01 X36.1131 Y47.1042
G01 X36.1007 Y47.1064
G01 X36.0886 Y47.1099
G01 X36.0769 Y47.1145
G01 X36.0684 Y47.1187
G01 X36.0019 Y47.1552
G01 X35.9895 Y47.1638
G01 X35.9782 Y47.1738
G01 X34.0887 Y49.0633
G01 X34.0385 Y49.1165
G01 X34.0358 Y49.1187
G01 X33.9736 Y49.1571
G01 X33.9151 Y49.1955
G01 X33.9124 Y49.1968
G01 X33.8465 Y49.2186
G01 X33.7778 Y49.2436
G01 X33.7744 Y49.2443
G01 X33.7052 Y49.2504
G01 X33.6763 Y49.2537
G01 X33.6618 Y49.2542
G01 X33.6217 Y49.2577
G01 X33.6065 Y49.2556
G01 X33.5763 Y49.2537
G01 X22.3009 Y49.2537
G01 X22.2272 Y49.2557
G01 X22.2243 Y49.2554
G01 X22.1532 Y49.2386
G01 X22.0846 Y49.2244
G01 X22.0818 Y49.2234
G01 X22.0165 Y49.1907
G01 X21.9536 Y49.1613
G01 X21.9506 Y49.1594
G01 X21.8975 Y49.1148
G01 X21.8747 Y49.0967
G01 X21.8640 Y49.0868
G01 X21.8332 Y49.0609
G01 X21.8240 Y49.0487
G01 X21.8039 Y49.0260
G01 X17.7276 Y44.9497
G01 X17.7175 Y44.9406
G01 X17.6969 Y44.9240
G01 X17.6894 Y44.9184
G01 X17.6815 Y44.9133
G01 X17.6733 Y44.9089
G01 X17.6648 Y44.9051
G01 X17.6560 Y44.9019
G01 X17.5802 Y44.8798
G01 X17.5683 Y44.8775
G01 X17.5533 Y44.8762
G01 X15.8439 Y44.8762
G01 X15.8069 Y44.8722
G01 X15.7041 Y44.8339
G01 X15.6180 Y44.7695
G01 X15.5536 Y44.6834
G00 Z2.0000
G00 X26.3332 Y45.1968
G01 F60.00
G01 Z-0.2866
G01 F120.00
G01 X26.3332 Y45.8100
G01 X26.3383 Y45.9164
G01 X26.3393 Y45.9256
G01 X26.3536 Y46.0217
G01 X26.3560 Y46.0339
G01 X26.3813 Y46.1342
G01 X26.4171 Y46.2345
G01 X26.4207 Y46.2431
G01 X26.4651 Y46.3365
G01 X26.5214 Y46.4305
G01 X26.5867 Y46.5185
G01 X26.6560 Y46.5952
G01 X26.6625 Y46.6019
G01 X26.7415 Y46.6733
G01 X26.8245 Y46.7350
G01 X26.8321 Y46.7403
G01 X26.9181 Y46.7919
G01 X26.9263 Y46.7964
G01 X27.0198 Y46.8406
G01 X27.0284 Y46.8440
G01 X27.0732 Y46.8600
G01 X27.0732 Y47.1219
G01 X26.9005 Y47.0627
G01 X26.7018 Y46.9551
G01 X26.5236 Y46.8164
G01 X26.3706 Y46.6502
G01 X26.2470 Y46.4610
G01 X26.1562 Y46.2541
G01 X26.1008 Y46.0351
G01 X26.0868 Y45.8664
G01 X26.0868 Y45.1968
G01 X26.3332 Y45.1968
G00 Z2.0000
G00 X27.8268 Y46.8600
G01 F60.00
G01 Z-0.2866
G01 F120.00
G01 X27.8716 Y46.8440
G01 X27.8802 Y46.8406
G01 X27.9709 Y46.7977
G01 X27.9792 Y46.7934
G01 X28.0705 Y46.7386
G01 X28.1536 Y46.6771
G01 X28.1609 Y46.6713
G01 X28.2397 Y46.5997
G01 X28.3133 Y46.5185
G01 X28.3786 Y46.4305
G01 X28.4319 Y46.3419
G01 X28.4377 Y46.3309
G01 X28.4818 Y46.2374
G01 X28.5187 Y46.1342
G01 X28.5453 Y46.0279
G01 X28.5611 Y45.9226
G01 X28.5619 Y45.9133
G01 X28.5668 Y45.8100
G01 X28.5668 Y45.1968
G01 X28.8132 Y45.1968
G01 X28.8132 Y45.8664
G01 X28.7992 Y46.0351
G01 X28.7438 Y46.2541
G01 X28.6530 Y46.4610
G01 X28.5294 Y46.6502
G01 X28.3764 Y46.8164
G01 X28.1982 Y46.9551
G01 X27.9995 Y47.0627
G01 X27.8268 Y47.1219
G01 X27.8268 Y46.8600
G00 Z2.0000
G00 X27.8268 Y42.7800
G01 F60.00
G01 Z-0.2866
G01 F120.00
G01 X27.8268 Y42.5181
G01 X27.9995 Y42.5773
G01 X28.1982 Y42.6849
G01 X28.3764 Y42.8236
G01 X28.5294 Y42.9898
G01 X28.6530 Y43.1790
G01 X28.7438 Y43.3859
G01 X28.7992 Y43.6049
G01 X28.8132 Y43.7736
G01 X28.8132 Y44.4432
G01 X28.5668 Y44.4432
G01 X28.5668 Y43.8300
G01 X28.5619 Y43.7267
G01 X28.5611 Y43.7174
G01 X28.5453 Y43.6121
G01 X28.5187 Y43.5058
G01 X28.4818 Y43.4026
G01 X28.4377 Y43.3091
G01 X28.4319 Y43.2981
G01 X28.3786 Y43.2095
G01 X28.3133 Y43.1215
G01 X28.2397 Y43.0403
G01 X28.1609 Y42.9687
G01 X28.1536 Y42.9629
G01 X28.0705 Y42.9014
G01 X27.9792 Y42.8466
G01 X27.9709 Y42.8423
G01 X27.8802 Y42.7994
G01 X27.8716 Y42.7960
G01 X27.8268 Y42.7800
G00 Z2.0000
G00 X27.0732 Y42.7800
G01 F60.00
G01 Z-0.2866
G01 F120.00
G01 X27.0284 Y42.7960
G01 X27.0198 Y42.7994
G01 X26.9291 Y42.8423
G01 X26.9208 Y42.8466
G01 X26.8295 Y42.9014
G01 X26.7464 Y42.9629
G01 X26.7391 Y42.9687
G01 X26.6603 Y43.0403
G01 X26.5867 Y43.1215
G01 X26.5214 Y43.2095
G01 X26.4681 Y43.2981
G01 X26.4623 Y43.3091
G01 X26.4182 Y43.4026
G01 X26.3813 Y43.5058
G01 X26.3547 Y43.6121
G01 X26.3389 Y43.7174
G01 X26.3381 Y43.7267
G01 X26.3332 Y43.8300
G01 X26.3332 Y44.4432
G01 X26.0868 Y44.4432
G01 X26.0868 Y43.7736
G01 X26.1008 Y43.6049
G01 X26.1562 Y43.3859
G01 X26.2470 Y43.1790
G01 X26.3706 Y42.9898
G01 X26.5236 Y42.8236
G01 X26.7018 Y42.6849
G01 X26.9005 Y42.5773
G01 X27.0732 Y42.5181
G01 X27.0732 Y42.7800
G00 Z2.0000
G00 X32.3800 Y31.1932
G01 F60.00
G01 Z-0.2866
G01 F120.00
G01 X32.3924 Y31.1938
G01 X32.4047 Y31.1956
G01 X32.4168 Y31.1987
G01 X32.4285 Y31.2029
G01 X32.4398 Y31.2082
G01 X32.4478 Y31.2129
G01 X32.4580 Y31.2200
G01 X32.4674 Y31.2282
G01 X32.4760 Y31.2372
G01 X32.4837 Y31.2470
G01 X32.4903 Y31.2575
G01 X32.4959 Y31.2686
G01 X32.5004 Y31.2802
G01 X32.5030 Y31.2892
G01 X32.5054 Y31.3014
G01 X32.5066 Y31.3138
G01 X32.5068 Y32.9231
G01 X32.5054 Y32.9386
G01 X32.5030 Y32.9508
G01 X32.4983 Y32.9656
G01 X32.4918 Y32.9798
G01 X32.4837 Y32.9930
G01 X32.4740 Y33.0052
G01 X32.4652 Y33.0140
G01 X32.4530 Y33.0237
G01 X32.4452 Y33.0288
G01 X32.4370 Y33.0333
G01 X32.4285 Y33.0371
G01 X32.4198 Y33.0404
G01 X32.4108 Y33.0430
G01 X32.4017 Y33.0449
G01 X32.3893 Y33.0465
G01 X32.3800 Y33.0468
G01 X29.9800 Y33.0468
G01 X29.9645 Y33.0458
G01 X29.9492 Y33.0430
G01 X29.9344 Y33.0383
G01 X29.9230 Y33.0333
G01 X29.9096 Y33.0254
G01 X29.8972 Y33.0160
G01 X29.8860 Y33.0052
G01 X29.8763 Y32.9930
G01 X29.8712 Y32.9852
G01 X29.8667 Y32.9770
G01 X29.8629 Y32.9685
G01 X29.8596 Y32.9598
G01 X29.8570 Y32.9508
G01 X29.8551 Y32.9417
G01 X29.8538 Y32.9324
G01 X29.8532 Y32.9231
G01 X29.8532 Y31.3169
G01 X29.8546 Y31.3014
G01 X29.8578 Y31.2862
G01 X29.8617 Y31.2744
G01 X29.8682 Y31.2602
G01 X29.8763 Y31.2470
G01 X29.8860 Y31.2348
G01 X29.8972 Y31.2240
G01 X29.9070 Y31.2163
G01 X29.9148 Y31.2112
G01 X29.9230 Y31.2067
G01 X29.9344 Y31.2017
G01 X29.9432 Y31.1987
G01 X29.9522 Y31.1963
G01 X29.9614 Y31.1946
G01 X29.9707 Y31.1935
G01 X29.9800 Y31.1932
G01 X32.3800 Y31.1932
G00 Z2.0000
G00 X32.3812 Y29.1158
G01 F60.00
G01 Z-0.2866
G01 F120.00
G01 X34.6131 Y26.8839
G01 X34.6131 Y18.1500
G01 X34.6149 Y18.1131
G01 X34.6203 Y18.0765
G01 X34.6293 Y18.0406
G01 X34.6418 Y18.0058
G01 X34.6576 Y17.9723
G01 X34.6766 Y17.9406
G01 X34.6986 Y17.9109
G01 X34.7235 Y17.8835
G01 X38.4231 Y14.1839
G01 X38.4231 Y13.0669
G01 X38.4249 Y13.0331
G01 X38.4303 Y12.9965
G01 X38.4393 Y12.9606
G01 X38.4495 Y12.9316
G01 X38.4530 Y12.9229
G01 X38.4661 Y12.8951
G01 X38.4706 Y12.8869
G01 X38.4849 Y12.8632
G01 X38.4902 Y12.8555
G01 X38.5086 Y12.8309
G01 X38.5313 Y12.8057
G01 X39.1600 Y12.1769
G01 X38.3759 Y12.1769
G01 X38.3474 Y12.2369
G01 X38.3006 Y12.3149
G01 X38.2464 Y12.3880
G01 X38.1853 Y12.4553
G01 X38.1180 Y12.5164
G01 X38.0449 Y12.5706
G01 X37.9669 Y12.6174
G01 X37.8875 Y12.6550
G01 X37.8789 Y12.6585
G01 X37.7990 Y12.6869
G01 X37.7108 Y12.7090
G01 X37.6208 Y12.7223
G01 X37.5362 Y12.7266
G01 X37.5238 Y12.7266
G01 X37.4454 Y12.7228
G01 X37.4330 Y12.7216
G01 X37.3492 Y12.7090
G01 X37.2670 Y12.6886
G01 X37.2580 Y12.6860
G01 X37.1753 Y12.6563
G01 X37.0987 Y12.6202
G01 X37.0877 Y12.6143
G01 X37.0204 Y12.5739
G01 X37.0100 Y12.5670
G01 X36.9420 Y12.5164
G01 X36.8792 Y12.4596
G01 X36.8704 Y12.4508
G01 X36.8136 Y12.3880
G01 X36.7594 Y12.3149
G01 X36.7126 Y12.2369
G01 X36.6737 Y12.1547
G01 X36.6431 Y12.0690
G01 X36.6224 Y11.9869
G01 X36.6199 Y11.9747
G01 X36.6084 Y11.8970
G01 X36.6072 Y11.8846
G01 X36.6032 Y11.8000
G01 X36.6072 Y11.7154
G01 X36.6084 Y11.7030
G01 X36.6210 Y11.6192
G01 X36.6431 Y11.5310
G01 X36.6737 Y11.4453
G01 X36.7098 Y11.3687
G01 X36.7157 Y11.3577
G01 X36.7594 Y11.2851
G01 X36.8097 Y11.2170
G01 X36.8176 Y11.2073
G01 X36.8704 Y11.1492
G01 X36.8792 Y11.1404
G01 X36.9420 Y11.0836
G01 X37.0151 Y11.0294
G01 X37.0877 Y10.9857
G01 X37.0987 Y10.9798
G01 X37.1753 Y10.9437
G01 X37.2551 Y10.9151
G01 X37.2670 Y10.9114
G01 X37.3492 Y10.8910
G01 X37.4330 Y10.8784
G01 X37.4454 Y10.8772
G01 X37.5300 Y10.8732
G01 X37.6146 Y10.8772
G01 X37.6270 Y10.8784
G01 X37.7108 Y10.8910
G01 X37.7990 Y10.9131
G01 X37.8789 Y10.9415
G01 X37.8904 Y10.9463
G01 X37.9613 Y10.9798
G01 X37.9723 Y10.9857
G01 X38.0449 Y11.0294
G01 X38.1130 Y11.0797
G01 X38.1227 Y11.0876
G01 X38.1808 Y11.1404
G01 X38.1896 Y11.1492
G01 X38.2464 Y11.2120
G01 X38.3006 Y11.2851
G01 X38.3474 Y11.3631
G01 X38.3759 Y11.4231
G01 X41.7641 Y11.4231
G01 X41.7926 Y11.3631
G01 X41.8361 Y11.2904
G01 X41.8430 Y11.2800
G01 X41.8897 Y11.2170
G01 X41.8976 Y11.2073
G01 X41.9547 Y11.1447
G01 X42.0173 Y11.0876
G01 X42.0270 Y11.0797
G01 X42.0951 Y11.0294
G01 X42.1731 Y10.9826
G01 X42.2553 Y10.9437
G01 X42.3380 Y10.9140
G01 X42.3470 Y10.9114
G01 X42.4292 Y10.8910
G01 X42.5192 Y10.8777
G01 X42.6100 Y10.8732
G01 X42.7008 Y10.8777
G01 X42.7908 Y10.8910
G01 X42.8790 Y10.9131
G01 X42.9647 Y10.9437
G01 X43.0413 Y10.9798
G01 X43.0523 Y10.9857
G01 X43.1196 Y11.0261
G01 X43.1300 Y11.0330
G01 X43.1980 Y11.0836
G01 X43.2608 Y11.1404
G01 X43.2696 Y11.1492
G01 X43.3264 Y11.2120
G01 X43.3806 Y11.2851
G01 X43.4274 Y11.3631
G01 X43.4637 Y11.4396
G01 X43.4685 Y11.4511
G01 X43.4969 Y11.5310
G01 X43.5176 Y11.6131
G01 X43.5201 Y11.6253
G01 X43.5316 Y11.7030
G01 X43.5328 Y11.7154
G01 X43.5368 Y11.8000
G01 X43.5323 Y11.8908
G01 X43.5190 Y11.9808
G01 X43.4986 Y12.0630
G01 X43.4949 Y12.0749
G01 X43.4685 Y12.1489
G01 X43.4637 Y12.1604
G01 X43.4274 Y12.2369
G01 X43.3839 Y12.3096
G01 X43.3770 Y12.3200
G01 X43.3264 Y12.3880
G01 X43.2696 Y12.4508
G01 X43.2631 Y12.4575
G01 X43.1980 Y12.5164
G01 X43.1300 Y12.5670
G01 X43.1196 Y12.5739
G01 X43.0523 Y12.6143
G01 X43.0413 Y12.6202
G01 X42.9647 Y12.6563
G01 X42.8849 Y12.6849
G01 X42.8730 Y12.6886
G01 X42.7908 Y12.7090
G01 X42.7008 Y12.7223
G01 X42.6100 Y12.7268
G01 X42.5192 Y12.7223
G01 X42.4353 Y12.7101
G01 X42.4231 Y12.7076
G01 X42.3410 Y12.6869
G01 X42.2611 Y12.6585
G01 X42.2496 Y12.6537
G01 X42.1731 Y12.6174
G01 X42.1004 Y12.5739
G01 X42.0925 Y12.5688
G01 X42.0220 Y12.5164
G01 X41.9592 Y12.4596
G01 X41.9504 Y12.4508
G01 X41.8936 Y12.3880
G01 X41.8430 Y12.3200
G01 X41.8361 Y12.3096
G01 X41.7926 Y12.2369
G01 X41.7641 Y12.1769
G01 X40.2261 Y12.1769
G01 X39.1769 Y13.2261
G01 X39.1769 Y14.3400
G01 X39.1754 Y14.3738
G01 X39.1707 Y14.4074
G01 X39.1683 Y14.4196
G01 X39.1607 Y14.4494
G01 X39.1482 Y14.4842
G01 X39.1352 Y14.5121
G01 X39.1294 Y14.5231
G01 X39.1134 Y14.5494
G01 X39.0933 Y14.5767
G01 X39.0873 Y14.5838
G01 X39.0665 Y14.6065
G01 X35.3669 Y18.3061
G01 X35.3669 Y27.0400
G01 X35.3651 Y27.0769
G01 X35.3607 Y27.1074
G01 X35.3583 Y27.1196
G01 X35.3507 Y27.1494
G01 X35.3405 Y27.1784
G01 X35.3370 Y27.1871
G01 X35.3252 Y27.2121
G01 X35.3194 Y27.2231
G01 X35.3051 Y27.2468
G01 X35.2998 Y27.2545
G01 X35.2814 Y27.2791
G01 X35.2565 Y27.3065
G01 X32.7143 Y29.8487
G01 X32.6891 Y29.8714
G01 X32.6594 Y29.8934
G01 X32.6277 Y29.9124
G01 X32.5999 Y29.9257
G01 X32.5914 Y29.9294
G01 X32.5594 Y29.9407
G01 X32.5296 Y29.9483
G01 X32.5205 Y29.9503
G01 X32.4931 Y29.9543
G01 X32.4838 Y29.9554
G01 X32.4531 Y29.9569
G01 X32.4259 Y29.9569
G01 X32.3974 Y30.0169
G01 X32.3506 Y30.0949
G01 X32.2964 Y30.1680
G01 X32.2375 Y30.2331
G01 X32.2308 Y30.2396
G01 X32.1680 Y30.2964
G01 X32.1000 Y30.3470
G01 X32.0896 Y30.3539
G01 X32.0223 Y30.3943
G01 X32.0113 Y30.4002
G01 X31.9404 Y30.4337
G01 X31.9289 Y30.4385
G01 X31.8490 Y30.4669
G01 X31.7669 Y30.4876
G01 X31.7547 Y30.4901
G01 X31.6708 Y30.5023
G01 X31.5862 Y30.5066
G01 X30.7769 Y30.5068
G01 X30.6954 Y30.5028
G01 X30.6830 Y30.5016
G01 X30.5992 Y30.4890
G01 X30.5170 Y30.4686
G01 X30.5051 Y30.4649
G01 X30.4253 Y30.4363
G01 X30.3487 Y30.4002
G01 X30.3377 Y30.3943
G01 X30.2651 Y30.3506
G01 X30.1970 Y30.3003
G01 X30.1873 Y30.2924
G01 X30.1247 Y30.2353
G01 X30.0636 Y30.1680
G01 X30.0130 Y30.1000
G01 X30.0061 Y30.0896
G01 X29.9626 Y30.0169
G01 X29.9263 Y29.9404
G01 X29.9215 Y29.9289
G01 X29.8931 Y29.8490
G01 X29.8710 Y29.7608
G01 X29.8577 Y29.6708
G01 X29.8532 Y29.5800
G01 X29.8577 Y29.4892
G01 X29.8710 Y29.3992
G01 X29.8931 Y29.3110
G01 X29.9237 Y29.2253
G01 X29.9626 Y29.1431
G01 X30.0094 Y29.0651
G01 X30.0636 Y28.9920
G01 X30.1247 Y28.9247
G01 X30.1920 Y28.8636
G01 X30.2651 Y28.8094
G01 X30.3431 Y28.7626
G01 X30.4253 Y28.7237
G01 X30.5110 Y28.6931
G01 X30.5931 Y28.6724
G01 X30.6053 Y28.6699
G01 X30.6892 Y28.6577
G01 X30.7769 Y28.6532
G01 X31.5831 Y28.6532
G01 X31.6708 Y28.6577
G01 X31.7547 Y28.6699
G01 X31.7639 Y28.6717
G01 X31.8490 Y28.6931
G01 X31.9347 Y28.7237
G01 X32.0169 Y28.7626
G01 X32.0896 Y28.8061
G01 X32.0975 Y28.8112
G01 X32.1680 Y28.8636
G01 X32.2308 Y28.9204
G01 X32.2375 Y28.9269
G01 X32.2924 Y28.9873
G01 X32.3003 Y28.9970
G01 X32.3506 Y29.0651
G01 X32.3812 Y29.1158
G00 Z2.0000
G00 X29.9341 Y26.6631
G01 F60.00
G01 Z-0.2866
G01 F120.00
G01 X29.9626 Y26.6031
G01 X30.0061 Y26.5304
G01 X30.0130 Y26.5200
G01 X30.0597 Y26.4570
G01 X30.0676 Y26.4473
G01 X30.1247 Y26.3847
G01 X30.1897 Y26.3256
G01 X30.1970 Y26.3197
G01 X30.2651 Y26.2694
G01 X30.3431 Y26.2226
G01 X30.4253 Y26.1837
G01 X30.5110 Y26.1531
G01 X30.5931 Y26.1324
G01 X30.6053 Y26.1299
G01 X30.6892 Y26.1177
G01 X30.7769 Y26.1132
G01 X31.5800 Y26.1132
G01 X31.6708 Y26.1177
G01 X31.7608 Y26.1310
G01 X31.8490 Y26.1531
G01 X31.9347 Y26.1837
G01 X32.0113 Y26.2198
G01 X32.0223 Y26.2257
G01 X32.0896 Y26.2661
G01 X32.1000 Y26.2730
G01 X32.1680 Y26.3236
G01 X32.2353 Y26.3847
G01 X32.2964 Y26.4520
G01 X32.3470 Y26.5200
G01 X32.3539 Y26.5304
G01 X32.3943 Y26.5977
G01 X32.4002 Y26.6087
G01 X32.4363 Y26.6853
G01 X32.4669 Y26.7710
G01 X32.4890 Y26.8592
G01 X32.5020 Y26.9461
G01 X32.5028 Y26.9554
G01 X32.5066 Y27.0338
G01 X32.5066 Y27.0462
G01 X32.5023 Y27.1308
G01 X32.4890 Y27.2208
G01 X32.4669 Y27.3090
G01 X32.4385 Y27.3889
G01 X32.4337 Y27.4004
G01 X32.4002 Y27.4713
G01 X32.3943 Y27.4823
G01 X32.3506 Y27.5549
G01 X32.2964 Y27.6280
G01 X32.2353 Y27.6953
G01 X32.1727 Y27.7524
G01 X32.1630 Y27.7603
G01 X32.1000 Y27.8070
G01 X32.0896 Y27.8139
G01 X32.0169 Y27.8574
G01 X31.9375 Y27.8950
G01 X31.9289 Y27.8985
G01 X31.8490 Y27.9269
G01 X31.7608 Y27.9490
G01 X31.6708 Y27.9623
G01 X31.5862 Y27.9666
G01 X30.7769 Y27.9668
G01 X30.6892 Y27.9623
G01 X30.5992 Y27.9490
G01 X30.5110 Y27.9269
G01 X30.4253 Y27.8963
G01 X30.3431 Y27.8574
G01 X30.2704 Y27.8139
G01 X30.2625 Y27.8088
G01 X30.1920 Y27.7564
G01 X30.1292 Y27.6996
G01 X30.1225 Y27.6931
G01 X30.0676 Y27.6327
G01 X30.0597 Y27.6230
G01 X30.0094 Y27.5549
G01 X29.9788 Y27.5042
G01 X29.0169 Y28.4661
G01 X29.0169 Y34.5039
G01 X32.7165 Y38.2035
G01 X32.7373 Y38.2262
G01 X32.7452 Y38.2358
G01 X32.7634 Y38.2606
G01 X32.7794 Y38.2869
G01 X32.7852 Y38.2979
G01 X32.7982 Y38.3258
G01 X32.8087 Y38.3547
G01 X32.8116 Y38.3636
G01 X32.8197 Y38.3965
G01 X32.8243 Y38.4269
G01 X32.8256 Y38.4393
G01 X32.8269 Y38.4700
G01 X32.8269 Y42.7800
G01 X32.8716 Y42.7960
G01 X32.8802 Y42.7994
G01 X32.9737 Y42.8436
G01 X32.9819 Y42.8481
G01 X33.0652 Y42.8981
G01 X33.0730 Y42.9032
G01 X33.1585 Y42.9667
G01 X33.2352 Y43.0360
G01 X33.2440 Y43.0448
G01 X33.3113 Y43.1191
G01 X33.3171 Y43.1264
G01 X33.3786 Y43.2095
G01 X33.4319 Y43.2981
G01 X33.4377 Y43.3091
G01 X33.4818 Y43.4026
G01 X33.5168 Y43.4999
G01 X33.5204 Y43.5118
G01 X33.5440 Y43.6061
G01 X33.5464 Y43.6183
G01 X33.5614 Y43.7205
G01 X33.5668 Y43.8300
G01 X33.5668 Y45.8131
G01 X33.5614 Y45.9195
G01 X33.5453 Y46.0279
G01 X33.5187 Y46.1342
G01 X33.4840 Y46.2316
G01 X33.4793 Y46.2431
G01 X33.4377 Y46.3309
G01 X33.4319 Y46.3419
G01 X33.3786 Y46.4305
G01 X33.3171 Y46.5136
G01 X33.3092 Y46.5232
G01 X33.2397 Y46.5997
G01 X33.1585 Y46.6733
G01 X33.0705 Y46.7386
G01 X32.9765 Y46.7949
G01 X32.8774 Y46.8418
G01 X32.7742 Y46.8787
G01 X32.6679 Y46.9053
G01 X32.5626 Y46.9211
G01 X32.5533 Y46.9219
G01 X32.4500 Y46.9268
G01 X32.3405 Y46.9214
G01 X32.2321 Y46.9053
G01 X32.1258 Y46.8787
G01 X32.0226 Y46.8418
G01 X31.9235 Y46.7949
G01 X31.8295 Y46.7386
G01 X31.7415 Y46.6733
G01 X31.6603 Y46.5997
G01 X31.5867 Y46.5185
G01 X31.5214 Y46.4305
G01 X31.4651 Y46.3365
G01 X31.4182 Y46.2374
G01 X31.3813 Y46.1342
G01 X31.3547 Y46.0279
G01 X31.3393 Y45.9256
G01 X31.3381 Y45.9133
G01 X31.3332 Y45.8100
G01 X31.3332 Y43.8300
G01 X31.3386 Y43.7205
G01 X31.3536 Y43.6183
G01 X31.3553 Y43.6091
G01 X31.3796 Y43.5118
G01 X31.3832 Y43.4999
G01 X31.4182 Y43.4026
G01 X31.4623 Y43.3091
G01 X31.4681 Y43.2981
G01 X31.5214 Y43.2095
G01 X31.5829 Y43.1264
G01 X31.5887 Y43.1191
G01 X31.6560 Y43.0448
G01 X31.6648 Y43.0360
G01 X31.7415 Y42.9667
G01 X31.8270 Y42.9032
G01 X31.8348 Y42.8981
G01 X31.9181 Y42.8481
G01 X31.9263 Y42.8436
G01 X32.0198 Y42.7994
G01 X32.0284 Y42.7960
G01 X32.0731 Y42.7800
G01 X32.0731 Y38.6261
G01 X28.3713 Y34.9243
G01 X28.3486 Y34.8991
G01 X28.3284 Y34.8720
G01 X28.3106 Y34.8431
G01 X28.3048 Y34.8321
G01 X28.2918 Y34.8042
G01 X28.2793 Y34.7694
G01 X28.2703 Y34.7335
G01 X28.2652 Y34.7000
G01 X28.2644 Y34.6907
G01 X28.2631 Y34.6600
G01 X28.2631 Y28.3100
G01 X28.2649 Y28.2731
G01 X28.2703 Y28.2365
G01 X28.2793 Y28.2006
G01 X28.2895 Y28.1716
G01 X28.2943 Y28.1601
G01 X28.3076 Y28.1323
G01 X28.3233 Y28.1058
G01 X28.3302 Y28.0955
G01 X28.3486 Y28.0709
G01 X28.3713 Y28.0457
G01 X29.6457 Y26.7713
G01 X29.6709 Y26.7486
G01 X29.7006 Y26.7266
G01 X29.7323 Y26.7076
G01 X29.7601 Y26.6943
G01 X29.7686 Y26.6906
G01 X29.8006 Y26.6793
G01 X29.8304 Y26.6717
G01 X29.8395 Y26.6697
G01 X29.8669 Y26.6657
G01 X29.8762 Y26.6646
G01 X29.9069 Y26.6631
G01 X29.9341 Y26.6631
G00 Z2.0000
G00 X28.0146 Y28.2443
G01 F60.00
G01 Z-0.2866
G01 F120.00
G01 X28.0306 Y28.1768
G01 X28.0456 Y28.1046
G01 X28.0466 Y28.1018
G01 X28.0794 Y28.0365
G01 X28.1087 Y27.9736
G01 X28.1106 Y27.9706
G01 X28.1552 Y27.9174
G01 X28.1733 Y27.8947
G01 X28.1833 Y27.8840
G01 X28.2091 Y27.8532
G01 X28.2213 Y27.8440
G01 X28.2440 Y27.8239
G01 X29.4613 Y26.6067
G01 X29.5115 Y26.5535
G01 X29.5142 Y26.5513
G01 X29.5764 Y26.5129
G01 X29.6344 Y26.4747
G01 X29.6376 Y26.4732
G01 X29.6973 Y26.4534
G01 X29.7152 Y26.4467
G01 X29.7292 Y26.4397
G01 X29.7371 Y26.4347
G01 X29.7446 Y26.4292
G01 X29.8015 Y26.3836
G01 X29.8125 Y26.3733
G01 X29.8184 Y26.3664
G01 X29.8239 Y26.3592
G01 X29.8775 Y26.2827
G01 X30.0227 Y26.1375
G01 X30.1909 Y26.0197
G01 X30.2417 Y25.9959
G01 X30.2529 Y25.9896
G01 X30.2608 Y25.9842
G01 X30.2683 Y25.9782
G01 X30.3197 Y25.9337
G01 X30.3265 Y25.9273
G01 X30.3328 Y25.9205
G01 X30.3386 Y25.9132
G01 X30.3439 Y25.9055
G01 X30.3486 Y25.8975
G01 X30.3539 Y25.8862
G01 X30.3571 Y25.8775
G01 X30.3791 Y25.8046
G01 X30.3813 Y25.7955
G01 X30.3828 Y25.7861
G01 X30.3835 Y25.7767
G01 X30.3836 Y25.7673
G01 X30.3826 Y25.7547
G01 X30.3796 Y25.7393
G01 X30.3588 Y25.6660
G01 X30.3556 Y25.6571
G01 X30.3518 Y25.6485
G01 X30.3474 Y25.6401
G01 X30.3423 Y25.6321
G01 X30.3347 Y25.6221
G01 X30.3238 Y25.6107
G01 X30.2691 Y25.5624
G01 X30.2596 Y25.5549
G01 X30.2495 Y25.5483
G01 X30.2416 Y25.5440
G01 X30.1909 Y25.5203
G01 X30.0227 Y25.4025
G01 X29.8775 Y25.2573
G01 X29.7597 Y25.0891
G01 X29.6729 Y24.9030
G01 X29.6197 Y24.7046
G01 X29.6018 Y24.5000
G01 X29.6197 Y24.2954
G01 X29.6729 Y24.0970
G01 X29.7597 Y23.9109
G01 X29.8775 Y23.7427
G01 X30.0227 Y23.5975
G01 X30.1909 Y23.4797
G01 X30.3770 Y23.3929
G01 X30.5754 Y23.3397
G01 X30.7288 Y23.3263
G01 X31.6312 Y23.3263
G01 X31.7846 Y23.3397
G01 X31.9830 Y23.3929
G01 X32.1691 Y23.4797
G01 X32.3373 Y23.5975
G01 X32.4825 Y23.7427
G01 X32.6003 Y23.9109
G01 X32.6871 Y24.0970
G01 X32.7403 Y24.2954
G01 X32.7582 Y24.5000
G01 X32.7403 Y24.7046
G01 X32.6871 Y24.9030
G01 X32.6003 Y25.0891
G01 X32.4825 Y25.2573
G01 X32.3373 Y25.4025
G01 X32.1691 Y25.5203
G01 X32.1183 Y25.5441
G01 X32.1098 Y25.5487
G01 X32.1018 Y25.5539
G01 X32.0917 Y25.5618
G01 X32.0403 Y25.6063
G01 X32.0335 Y25.6127
G01 X32.0252 Y25.6219
G01 X32.0161 Y25.6345
G01 X32.0087 Y25.6481
G01 X32.0039 Y25.6595
G01 X31.9801 Y25.7384
G01 X31.9772 Y25.7539
G01 X31.9763 Y25.7696
G01 X31.9774 Y25.7853
G01 X31.9796 Y25.7977
G01 X32.0022 Y25.8770
G01 X32.0069 Y25.8887
G01 X32.0126 Y25.8999
G01 X32.0214 Y25.9130
G01 X32.0295 Y25.9226
G01 X32.0385 Y25.9314
G01 X32.0909 Y25.9775
G01 X32.1028 Y25.9868
G01 X32.1105 Y25.9917
G01 X32.1184 Y25.9960
G01 X32.1691 Y26.0197
G01 X32.3373 Y26.1375
G01 X32.4825 Y26.2827
G01 X32.6003 Y26.4509
G01 X32.6871 Y26.6370
G01 X32.7403 Y26.8354
G01 X32.7582 Y27.0400
G01 X32.7403 Y27.2446
G01 X32.6871 Y27.4430
G01 X32.6003 Y27.6291
G01 X32.4825 Y27.7973
G01 X32.3373 Y27.9425
G01 X32.1691 Y28.0603
G01 X32.1183 Y28.0841
G01 X32.1071 Y28.0904
G01 X32.0992 Y28.0958
G01 X32.0917 Y28.1018
G01 X32.0357 Y28.1505
G01 X32.0292 Y28.1572
G01 X32.0232 Y28.1643
G01 X32.0178 Y28.1719
G01 X32.0129 Y28.1798
G01 X32.0074 Y28.1909
G01 X32.0029 Y28.2025
G01 X31.9801 Y28.2784
G01 X31.9781 Y28.2876
G01 X31.9769 Y28.2970
G01 X31.9764 Y28.3064
G01 X31.9767 Y28.3190
G01 X31.9778 Y28.3284
G01 X31.9804 Y28.3407
G01 X32.0003 Y28.4110
G01 X32.0044 Y28.4229
G01 X32.0111 Y28.4371
G01 X32.0177 Y28.4479
G01 X32.0273 Y28.4603
G01 X32.0362 Y28.4693
G01 X32.0932 Y28.5195
G01 X32.1004 Y28.5251
G01 X32.1079 Y28.5301
G01 X32.1184 Y28.5360
G01 X32.1691 Y28.5597
G01 X32.2433 Y28.6116
G01 X32.2542 Y28.6184
G01 X32.2903 Y28.6373
G01 X32.3017 Y28.6419
G01 X32.3135 Y28.6455
G01 X32.3225 Y28.6473
G01 X32.3317 Y28.6486
G01 X32.4076 Y28.6540
G01 X32.4233 Y28.6537
G01 X32.4389 Y28.6515
G01 X32.4541 Y28.6474
G01 X32.4686 Y28.6415
G01 X32.5356 Y28.6051
G01 X32.5483 Y28.5971
G01 X32.5578 Y28.5897
G01 X32.5645 Y28.5835
G01 X34.2928 Y26.8551
G01 X34.2998 Y26.8476
G01 X34.3205 Y26.8219
G01 X34.3275 Y26.8117
G01 X34.3336 Y26.8008
G01 X34.3374 Y26.7923
G01 X34.3406 Y26.7835
G01 X34.3620 Y26.7106
G01 X34.3650 Y26.6958
G01 X34.3660 Y26.6868
G01 X34.3663 Y26.6778
G01 X34.3663 Y18.1609
G01 X34.3642 Y18.0878
G01 X34.3646 Y18.0843
G01 X34.3814 Y18.0132
G01 X34.3954 Y17.9452
G01 X34.3966 Y17.9418
G01 X34.4277 Y17.8798
G01 X34.4587 Y17.8136
G01 X34.4606 Y17.8106
G01 X34.5052 Y17.7575
G01 X34.5233 Y17.7347
G01 X34.5332 Y17.7240
G01 X34.5591 Y17.6932
G01 X34.5713 Y17.6840
G01 X34.5940 Y17.6639
G01 X38.1052 Y14.1527
G01 X38.1119 Y14.1450
G01 X38.1323 Y14.1194
G01 X38.1407 Y14.1063
G01 X38.1462 Y14.0952
G01 X38.1515 Y14.0805
G01 X38.1712 Y14.0135
G01 X38.1734 Y14.0047
G01 X38.1750 Y13.9958
G01 X38.1760 Y13.9868
G01 X38.1763 Y13.9778
G01 X38.1763 Y13.1688
G01 X38.1752 Y13.1465
G01 X38.1743 Y13.1372
G01 X38.1727 Y13.1279
G01 X38.1686 Y13.1129
G01 X38.1652 Y13.1041
G01 X38.1364 Y13.0370
G01 X38.1306 Y13.0259
G01 X38.1237 Y13.0153
G01 X38.1179 Y13.0079
G01 X38.1093 Y12.9987
G01 X38.1023 Y12.9924
G01 X38.0922 Y12.9848
G01 X38.0343 Y12.9457
G01 X38.0236 Y12.9391
G01 X38.0122 Y12.9337
G01 X38.0004 Y12.9294
G01 X37.9882 Y12.9263
G01 X37.9757 Y12.9245
G01 X37.9663 Y12.9239
G01 X37.8964 Y12.9222
G01 X37.8874 Y12.9223
G01 X37.8784 Y12.9231
G01 X37.8694 Y12.9245
G01 X37.8606 Y12.9265
G01 X37.7346 Y12.9603
G01 X37.5300 Y12.9782
G01 X37.3254 Y12.9603
G01 X37.1270 Y12.9071
G01 X36.9409 Y12.8203
G01 X36.7727 Y12.7025
G01 X36.6275 Y12.5573
G01 X36.5097 Y12.3891
G01 X36.4229 Y12.2030
G01 X36.3697 Y12.0046
G01 X36.3518 Y11.8000
G01 X36.3697 Y11.5954
G01 X36.4229 Y11.3970
G01 X36.5097 Y11.2109
G01 X36.6275 Y11.0427
G01 X36.7727 Y10.8975
G01 X36.9409 Y10.7797
G01 X37.1270 Y10.6929
G01 X37.3254 Y10.6397
G01 X37.5300 Y10.6218
G01 X37.7346 Y10.6397
G01 X37.9330 Y10.6929
G01 X38.1191 Y10.7797
G01 X38.2873 Y10.8975
G01 X38.4325 Y11.0427
G01 X38.4530 Y11.0719
G01 X38.4608 Y11.0814
G01 X38.4672 Y11.0880
G01 X38.5018 Y11.1212
G01 X38.5133 Y11.1311
G01 X38.5234 Y11.1379
G01 X38.5313 Y11.1424
G01 X38.5396 Y11.1463
G01 X38.5510 Y11.1506
G01 X38.6238 Y11.1720
G01 X38.6356 Y11.1745
G01 X38.6506 Y11.1762
G01 X40.0345 Y11.1763
G01 X40.0482 Y11.1758
G01 X40.0883 Y11.1723
G01 X40.1035 Y11.1744
G01 X40.1337 Y11.1763
G01 X41.4833 Y11.1763
G01 X41.4926 Y11.1760
G01 X41.5018 Y11.1750
G01 X41.5548 Y11.1647
G01 X41.5695 Y11.1608
G01 X41.5809 Y11.1565
G01 X41.5892 Y11.1526
G01 X41.5996 Y11.1464
G01 X41.6071 Y11.1412
G01 X41.6641 Y11.0957
G01 X41.6753 Y11.0856
G01 X41.6814 Y11.0789
G01 X41.6870 Y11.0718
G01 X41.7075 Y11.0427
G01 X41.8527 Y10.8975
G01 X42.0209 Y10.7797
G01 X42.2070 Y10.6929
G01 X42.4054 Y10.6397
G01 X42.6100 Y10.6218
G01 X42.8146 Y10.6397
G01 X43.0130 Y10.6929
G01 X43.1991 Y10.7797
G01 X43.3673 Y10.8975
G01 X43.5125 Y11.0427
G01 X43.6303 Y11.2109
G01 X43.7171 Y11.3970
G01 X43.7703 Y11.5954
G01 X43.7882 Y11.8000
G01 X43.7703 Y12.0046
G01 X43.7171 Y12.2030
G01 X43.6303 Y12.3891
G01 X43.5125 Y12.5573
G01 X43.3673 Y12.7025
G01 X43.1991 Y12.8203
G01 X43.0130 Y12.9071
G01 X42.8146 Y12.9603
G01 X42.6100 Y12.9782
G01 X42.4054 Y12.9603
G01 X42.2070 Y12.9071
G01 X42.0209 Y12.8203
G01 X41.8527 Y12.7025
G01 X41.7075 Y12.5573
G01 X41.6870 Y12.5281
G01 X41.6792 Y12.5186
G01 X41.6728 Y12.5120
G01 X41.6382 Y12.4788
G01 X41.6267 Y12.4689
G01 X41.6192 Y12.4637
G01 X41.6113 Y12.4590
G01 X41.6032 Y12.4549
G01 X41.5948 Y12.4514
G01 X41.5861 Y12.4485
G01 X41.5191 Y12.4288
G01 X41.5103 Y12.4266
G01 X41.4954 Y12.4243
G01 X41.4833 Y12.4237
G01 X40.4254 Y12.4239
G01 X40.3923 Y12.4273
G01 X40.3831 Y12.4286
G01 X40.3710 Y12.4314
G01 X40.3592 Y12.4354
G01 X40.3451 Y12.4420
G01 X40.2838 Y12.4755
G01 X40.2760 Y12.4801
G01 X40.2686 Y12.4853
G01 X40.2615 Y12.4910
G01 X40.2549 Y12.4972
G01 X39.4972 Y13.2549
G01 X39.4881 Y13.2650
G01 X39.4677 Y13.2906
G01 X39.4608 Y13.3010
G01 X39.4538 Y13.3148
G01 X39.4485 Y13.3295
G01 X39.4280 Y13.3994
G01 X39.4250 Y13.4142
G01 X39.4237 Y13.4292
G01 X39.4237 Y14.3291
G01 X39.4257 Y14.4028
G01 X39.4254 Y14.4057
G01 X39.4086 Y14.4768
G01 X39.3944 Y14.5454
G01 X39.3934 Y14.5482
G01 X39.3623 Y14.6102
G01 X39.3313 Y14.6764
G01 X39.3294 Y14.6794
G01 X39.2848 Y14.7325
G01 X39.2667 Y14.7553
G01 X39.2568 Y14.7660
G01 X39.2309 Y14.7968
G01 X39.2187 Y14.8060
G01 X39.1960 Y14.8261
G01 X35.6872 Y18.3349
G01 X35.6803 Y18.3424
G01 X35.6595 Y18.3681
G01 X35.6525 Y18.3783
G01 X35.6464 Y18.3892
G01 X35.6426 Y18.3977
G01 X35.6394 Y18.4065
G01 X35.6180 Y18.4794
G01 X35.6160 Y18.4882
G01 X35.6146 Y18.4972
G01 X35.6137 Y18.5122
G01 X35.6137 Y27.0291
G01 X35.6158 Y27.1022
G01 X35.6154 Y27.1057
G01 X35.5994 Y27.1732
G01 X35.5844 Y27.2454
G01 X35.5834 Y27.2482
G01 X35.5507 Y27.3135
G01 X35.5213 Y27.3764
G01 X35.5194 Y27.3794
G01 X35.4748 Y27.4325
G01 X35.4567 Y27.4553
G01 X35.4468 Y27.4660
G01 X35.4209 Y27.4968
G01 X35.4087 Y27.5060
G01 X35.3860 Y27.5261
G01 X32.8987 Y30.0133
G01 X32.8485 Y30.0665
G01 X32.8458 Y30.0687
G01 X32.7836 Y30.1071
G01 X32.7256 Y30.1452
G01 X32.7224 Y30.1468
G01 X32.6586 Y30.1680
G01 X32.6419 Y30.1745
G01 X32.6308 Y30.1803
G01 X32.6179 Y30.1889
G01 X32.5562 Y30.2384
G01 X32.5475 Y30.2468
G01 X32.5379 Y30.2583
G01 X32.4825 Y30.3373
G01 X32.3373 Y30.4825
G01 X32.3194 Y30.4951
G01 X32.3014 Y30.5095
G01 X32.2918 Y30.5181
G01 X32.2853 Y30.5252
G01 X32.2792 Y30.5327
G01 X32.2738 Y30.5406
G01 X32.2365 Y30.6035
G01 X32.2319 Y30.6118
G01 X32.2269 Y30.6233
G01 X32.2230 Y30.6353
G01 X32.2204 Y30.6476
G01 X32.2190 Y30.6601
G01 X32.2188 Y30.6727
G01 X32.2213 Y30.7425
G01 X32.2224 Y30.7551
G01 X32.2240 Y30.7644
G01 X32.2272 Y30.7766
G01 X32.2304 Y30.7854
G01 X32.2343 Y30.7941
G01 X32.2388 Y30.8024
G01 X32.2439 Y30.8103
G01 X32.2837 Y30.8677
G01 X32.2894 Y30.8753
G01 X32.3000 Y30.8869
G01 X32.3120 Y30.8970
G01 X32.3252 Y30.9056
G01 X32.3393 Y30.9125
G01 X32.4039 Y30.9393
G01 X32.4124 Y30.9424
G01 X32.4210 Y30.9450
G01 X32.4299 Y30.9469
G01 X32.4581 Y30.9503
G01 X32.5609 Y30.9886
G01 X32.6470 Y31.0530
G01 X32.7114 Y31.1391
G01 X32.7497 Y31.2419
G01 X32.7537 Y31.2789
G01 X32.7537 Y32.9611
G01 X32.7497 Y32.9981
G01 X32.7114 Y33.1009
G01 X32.6470 Y33.1870
G01 X32.5609 Y33.2514
G01 X32.4581 Y33.2897
G01 X32.4211 Y33.2937
G01 X29.9389 Y33.2937
G01 X29.9019 Y33.2897
G01 X29.7991 Y33.2514
G01 X29.7128 Y33.1868
G01 X29.7066 Y33.1795
G01 X29.6885 Y33.1601
G01 X29.6819 Y33.1535
G01 X29.6724 Y33.1455
G01 X29.6594 Y33.1369
G01 X29.6484 Y33.1312
G01 X29.5848 Y33.1022
G01 X29.5731 Y33.0975
G01 X29.5610 Y33.0940
G01 X29.5486 Y33.0918
G01 X29.5361 Y33.0908
G01 X29.5235 Y33.0910
G01 X29.5141 Y33.0920
G01 X29.4449 Y33.1019
G01 X29.4295 Y33.1052
G01 X29.4176 Y33.1091
G01 X29.4061 Y33.1142
G01 X29.3925 Y33.1221
G01 X29.3824 Y33.1296
G01 X29.3225 Y33.1816
G01 X29.3138 Y33.1908
G01 X29.3044 Y33.2033
G01 X29.2965 Y33.2170
G01 X29.2904 Y33.2315
G01 X29.2688 Y33.3045
G01 X29.2666 Y33.3133
G01 X29.2650 Y33.3222
G01 X29.2640 Y33.3312
G01 X29.2637 Y33.3403
G01 X29.2639 Y34.3046
G01 X29.2673 Y34.3377
G01 X29.2686 Y34.3469
G01 X29.2714 Y34.3590
G01 X29.2754 Y34.3708
G01 X29.2820 Y34.3849
G01 X29.3155 Y34.4462
G01 X29.3201 Y34.4540
G01 X29.3253 Y34.4614
G01 X29.3310 Y34.4685
G01 X29.3372 Y34.4751
G01 X32.8833 Y38.0213
G01 X32.9365 Y38.0715
G01 X32.9387 Y38.0742
G01 X32.9769 Y38.1360
G01 X33.0155 Y38.1949
G01 X33.0168 Y38.1976
G01 X33.0398 Y38.2669
G01 X33.0636 Y38.3322
G01 X33.0643 Y38.3356
G01 X33.0704 Y38.4048
G01 X33.0737 Y38.4337
G01 X33.0742 Y38.4482
G01 X33.0777 Y38.4883
G01 X33.0756 Y38.5035
G01 X33.0737 Y38.5337
G01 X33.0737 Y42.4675
G01 X33.0743 Y42.4802
G01 X33.0757 Y42.4897
G01 X33.0777 Y42.4991
G01 X33.0931 Y42.5589
G01 X33.0957 Y42.5678
G01 X33.1002 Y42.5792
G01 X33.1043 Y42.5875
G01 X33.1106 Y42.5981
G01 X33.1180 Y42.6079
G01 X33.1263 Y42.6170
G01 X33.1741 Y42.6648
G01 X33.1836 Y42.6734
G01 X33.1965 Y42.6829
G01 X33.3768 Y42.8233
G01 X33.5298 Y42.9895
G01 X33.6536 Y43.1790
G01 X33.7442 Y43.3857
G01 X33.7997 Y43.6048
G01 X33.8137 Y43.7736
G01 X33.8137 Y45.8664
G01 X33.7997 Y46.0352
G01 X33.7442 Y46.2543
G01 X33.6535 Y46.4613
G01 X33.5298 Y46.6505
G01 X33.3768 Y46.8168
G01 X33.1984 Y46.9556
G01 X32.9997 Y47.0631
G01 X32.7859 Y47.1365
G01 X32.5630 Y47.1737
G01 X32.3370 Y47.1737
G01 X32.1141 Y47.1365
G01 X31.9003 Y47.0631
G01 X31.7016 Y46.9556
G01 X31.5232 Y46.8167
G01 X31.3702 Y46.6505
G01 X31.2466 Y46.4613
G01 X31.1558 Y46.2543
G01 X31.1003 Y46.0352
G01 X31.0863 Y45.8664
G01 X31.0863 Y43.7736
G01 X31.1003 Y43.6048
G01 X31.1558 Y43.3857
G01 X31.2466 Y43.1787
G01 X31.3702 Y42.9895
G01 X31.5232 Y42.8233
G01 X31.7035 Y42.6829
G01 X31.7164 Y42.6734
G01 X31.7660 Y42.6275
G01 X31.7767 Y42.6163
G01 X31.7825 Y42.6090
G01 X31.7892 Y42.5986
G01 X31.7950 Y42.5876
G01 X31.7996 Y42.5762
G01 X31.8220 Y42.5003
G01 X31.8240 Y42.4915
G01 X31.8257 Y42.4796
G01 X31.8263 Y42.4675
G01 X31.8263 Y38.8322
G01 X31.8256 Y38.8187
G01 X31.8219 Y38.7861
G01 X31.8186 Y38.7710
G01 X31.8146 Y38.7592
G01 X31.8080 Y38.7451
G01 X31.7730 Y38.6811
G01 X31.7682 Y38.6735
G01 X31.7629 Y38.6662
G01 X31.7528 Y38.6549
G01 X28.2067 Y35.1087
G01 X28.1535 Y35.0585
G01 X28.1513 Y35.0558
G01 X28.1129 Y34.9936
G01 X28.0745 Y34.9351
G01 X28.0732 Y34.9324
G01 X28.0502 Y34.8631
G01 X28.0264 Y34.7978
G01 X28.0257 Y34.7944
G01 X28.0196 Y34.7252
G01 X28.0163 Y34.6963
G01 X28.0158 Y34.6818
G01 X28.0123 Y34.6417
G01 X28.0144 Y34.6265
G01 X28.0163 Y34.5963
G01 X28.0163 Y28.3209
G01 X28.0142 Y28.2478
G01 X28.0146 Y28.2443
G00 Z2.0000
G00 X23.9600 Y28.6532
G01 F60.00
G01 Z-0.2866
G01 F120.00
G01 X24.0446 Y28.6572
G01 X24.0570 Y28.6584
G01 X24.1408 Y28.6710
G01 X24.2290 Y28.6931
G01 X24.3089 Y28.7215
G01 X24.3204 Y28.7263
G01 X24.3969 Y28.7626
G01 X24.4749 Y28.8094
G01 X24.5480 Y28.8636
G01 X24.6108 Y28.9204
G01 X24.6196 Y28.9292
G01 X24.6764 Y28.9920
G01 X24.7270 Y29.0600
G01 X24.7339 Y29.0704
G01 X24.7774 Y29.1431
G01 X24.8137 Y29.2196
G01 X24.8185 Y29.2311
G01 X24.8469 Y29.3110
G01 X24.8676 Y29.3931
G01 X24.8701 Y29.4053
G01 X24.8823 Y29.4892
G01 X24.8866 Y29.5738
G01 X24.8866 Y29.5862
G01 X24.8828 Y29.6646
G01 X24.8816 Y29.6770
G01 X24.8690 Y29.7608
G01 X24.8486 Y29.8430
G01 X24.8449 Y29.8549
G01 X24.8163 Y29.9347
G01 X24.7774 Y30.0169
G01 X24.7339 Y30.0896
G01 X24.7270 Y30.1000
G01 X24.6803 Y30.1630
G01 X24.6744 Y30.1703
G01 X24.6153 Y30.2353
G01 X24.5480 Y30.2964
G01 X24.4749 Y30.3506
G01 X24.3969 Y30.3974
G01 X24.3147 Y30.4363
G01 X24.2290 Y30.4669
G01 X24.1408 Y30.4890
G01 X24.0570 Y30.5016
G01 X24.0446 Y30.5028
G01 X23.9600 Y30.5068
G01 X23.1600 Y30.5068
G01 X23.0754 Y30.5028
G01 X23.0630 Y30.5016
G01 X22.9792 Y30.4890
G01 X22.8970 Y30.4686
G01 X22.8851 Y30.4649
G01 X22.8053 Y30.4363
G01 X22.7231 Y30.3974
G01 X22.6504 Y30.3539
G01 X22.6400 Y30.3470
G01 X22.5770 Y30.3003
G01 X22.5697 Y30.2944
G01 X22.5047 Y30.2353
G01 X22.4436 Y30.1680
G01 X22.3894 Y30.0949
G01 X22.3426 Y30.0169
G01 X22.3037 Y29.9347
G01 X22.2731 Y29.8490
G01 X22.2510 Y29.7608
G01 X22.2377 Y29.6708
G01 X22.2332 Y29.5800
G01 X22.2377 Y29.4892
G01 X22.2510 Y29.3992
G01 X22.2731 Y29.3110
G01 X22.3037 Y29.2253
G01 X22.3426 Y29.1431
G01 X22.3894 Y29.0651
G01 X22.4397 Y28.9970
G01 X22.4456 Y28.9897
G01 X22.5047 Y28.9247
G01 X22.5673 Y28.8676
G01 X22.5770 Y28.8597
G01 X22.6400 Y28.8130
G01 X22.6504 Y28.8061
G01 X22.7231 Y28.7626
G01 X22.8053 Y28.7237
G01 X22.8910 Y28.6931
G01 X22.9761 Y28.6717
G01 X22.9853 Y28.6699
G01 X23.0692 Y28.6577
G01 X23.1569 Y28.6532
G01 X23.9600 Y28.6532
G00 Z2.0000
G00 X31.9289 Y23.6415
G01 F60.00
G01 Z-0.2866
G01 F120.00
G01 X31.9404 Y23.6463
G01 X32.0169 Y23.6826
G01 X32.0896 Y23.7261
G01 X32.1000 Y23.7330
G01 X32.1680 Y23.7836
G01 X32.2308 Y23.8404
G01 X32.2396 Y23.8492
G01 X32.2964 Y23.9120
G01 X32.3470 Y23.9800
G01 X32.3539 Y23.9904
G01 X32.3974 Y24.0631
G01 X32.4337 Y24.1396
G01 X32.4385 Y24.1511
G01 X32.4669 Y24.2310
G01 X32.4876 Y24.3131
G01 X32.4901 Y24.3253
G01 X32.5023 Y24.4092
G01 X32.5066 Y24.4938
G01 X32.5066 Y24.5062
G01 X32.5023 Y24.5908
G01 X32.4901 Y24.6747
G01 X32.4876 Y24.6869
G01 X32.4669 Y24.7690
G01 X32.4385 Y24.8489
G01 X32.4337 Y24.8604
G01 X32.3974 Y24.9369
G01 X32.3539 Y25.0096
G01 X32.3470 Y25.0200
G01 X32.2964 Y25.0880
G01 X32.2396 Y25.1508
G01 X32.2308 Y25.1596
G01 X32.1727 Y25.2124
G01 X32.1655 Y25.2184
G01 X32.0949 Y25.2706
G01 X32.0223 Y25.3143
G01 X32.0113 Y25.3202
G01 X31.9347 Y25.3563
G01 X31.8549 Y25.3849
G01 X31.8430 Y25.3886
G01 X31.7608 Y25.4090
G01 X31.6770 Y25.4216
G01 X31.6646 Y25.4228
G01 X31.5800 Y25.4268
G01 X30.7800 Y25.4268
G01 X30.6923 Y25.4226
G01 X30.6830 Y25.4216
G01 X30.5992 Y25.4090
G01 X30.5110 Y25.3869
G01 X30.4253 Y25.3563
G01 X30.3431 Y25.3174
G01 X30.2651 Y25.2706
G01 X30.1920 Y25.2164
G01 X30.1247 Y25.1553
G01 X30.0676 Y25.0927
G01 X30.0616 Y25.0855
G01 X30.0094 Y25.0149
G01 X29.9626 Y24.9369
G01 X29.9237 Y24.8547
G01 X29.8931 Y24.7690
G01 X29.8710 Y24.6808
G01 X29.8577 Y24.5908
G01 X29.8532 Y24.5000
G01 X29.8577 Y24.4092
G01 X29.8710 Y24.3192
G01 X29.8931 Y24.2310
G01 X29.9237 Y24.1453
G01 X29.9626 Y24.0631
G01 X30.0094 Y23.9851
G01 X30.0636 Y23.9120
G01 X30.1247 Y23.8447
G01 X30.1873 Y23.7876
G01 X30.1945 Y23.7816
G01 X30.2651 Y23.7294
G01 X30.3377 Y23.6857
G01 X30.3487 Y23.6798
G01 X30.4253 Y23.6437
G01 X30.5110 Y23.6131
G01 X30.5931 Y23.5924
G01 X30.6053 Y23.5899
G01 X30.6830 Y23.5784
G01 X30.6923 Y23.5774
G01 X30.7800 Y23.5732
G01 X31.5800 Y23.5732
G01 X31.6646 Y23.5772
G01 X31.6770 Y23.5784
G01 X31.7547 Y23.5899
G01 X31.7669 Y23.5924
G01 X31.8490 Y23.6131
G01 X31.9289 Y23.6415
G00 Z2.0000
G00 X38.3759 Y24.1231
G01 F60.00
G01 Z-0.2866
G01 F120.00
G01 X38.8000 Y24.1231
G01 X38.8307 Y24.1244
G01 X38.8400 Y24.1252
G01 X38.8735 Y24.1303
G01 X38.9034 Y24.1376
G01 X38.9153 Y24.1413
G01 X38.9442 Y24.1518
G01 X38.9721 Y24.1648
G01 X38.9831 Y24.1706
G01 X39.0094 Y24.1866
G01 X39.0367 Y24.2067
G01 X39.0438 Y24.2127
G01 X39.0665 Y24.2335
G01 X40.9631 Y26.1300
G01 X40.9631 Y25.7700
G01 X40.9644 Y25.7393
G01 X40.9652 Y25.7300
G01 X40.9693 Y25.7026
G01 X40.9717 Y25.6904
G01 X40.9793 Y25.6606
G01 X40.9895 Y25.6316
G01 X40.9930 Y25.6229
G01 X41.0076 Y25.5923
G01 X41.0266 Y25.5606
G01 X41.0486 Y25.5309
G01 X41.0713 Y25.5057
G01 X41.7453 Y24.8316
G01 X41.7231 Y24.7690
G01 X41.7010 Y24.6808
G01 X41.6877 Y24.5908
G01 X41.6834 Y24.5062
G01 X41.6834 Y24.4938
G01 X41.6872 Y24.4154
G01 X41.6884 Y24.4030
G01 X41.7010 Y24.3192
G01 X41.7222 Y24.2340
G01 X41.7251 Y24.2251
G01 X41.7515 Y24.1511
