(G-CODE GENERATED BY FLATCAM v8.994 - www.flatcam.org - Version Date: 2020/11/7)

(Name: med_assoc_lick_sens_addon-PTH.drl_cnc)
(Type: G-code from Geometry)
(Units: MM)

(Created on Thursday, 13 July 2023 at 14:01)

(This preprocessor is the default preprocessor used by FlatCAM.)
(It is made to work with MACH3 compatible motion controllers.)


(TOOLS DIAMETER: )
(Tool: 1 -> Dia: 0.8000999999999999)
(Tool: 2 -> Dia: 0.89916)
(Tool: 3 -> Dia: 1.0998199999999998)
(Tool: 4 -> Dia: 1.3208)

(FEEDRATE Z: )
(Tool: 1 -> Feedrate: 300)
(Tool: 2 -> Feedrate: 300)
(Tool: 3 -> Feedrate: 300)
(Tool: 4 -> Feedrate: 300)

(FEEDRATE RAPIDS: )
(Tool: 1 -> Feedrate Rapids: 1500)
(Tool: 2 -> Feedrate Rapids: 1500)
(Tool: 3 -> Feedrate Rapids: 1500)
(Tool: 4 -> Feedrate Rapids: 1500)

(Z_CUT: )
(Tool: 1 -> Z_Cut: -1.7)
(Tool: 2 -> Z_Cut: -1.7)
(Tool: 3 -> Z_Cut: -1.7)
(Tool: 4 -> Z_Cut: -1.7)

(Tools Offset: )
(Tool: 1 -> Offset Z: 0.0)
(Tool: 2 -> Offset Z: 0.0)
(Tool: 3 -> Offset Z: 0.0)
(Tool: 4 -> Offset Z: 0.0)

(Z_MOVE: )
(Tool: 1 -> Z_Move: 2)
(Tool: 2 -> Z_Move: 2)
(Tool: 3 -> Z_Move: 2)
(Tool: 4 -> Z_Move: 2)

(Z Toolchange: 15 mm)
(X,Y Toolchange: 0.0000, 0.0000 mm)
(Z Start: None mm)
(Z End: 0.5 mm)
(X,Y End: None mm)
(Steps per circle: 64)
(Preprocessor Excellon: default)

(X range:   11.7299 ...   43.0101  mm)
(Y range:    3.7800 ...   45.4804  mm)

(Spindle Speed: 0 RPM)
G21
G90
G94

G01 F300.00

M5
G00 Z15.0000
T3M6
(MSG, Change to Tool Dia = 0.8001 ||| Total drills for tool T1 = 30)
M0
G00 Z15.0000

G01 F300.00
M03
G00 X42.6100 Y24.5000
G01 Z-1.7000
G01 Z0
G00 Z2.0000
G00 X37.5300 Y24.5000
G01 Z-1.7000
G01 Z0
G00 Z2.0000
G00 X38.8000 Y30.8500
G01 Z-1.7000
G01 Z0
G00 Z2.0000
G00 X41.3400 Y30.8500
G01 Z-1.7000
G01 Z0
G00 Z2.0000
G00 X37.4513 Y44.8200
G01 Z-1.7000
G01 Z0
G00 Z2.0000
G00 X32.4500 Y44.8200
G01 Z-1.7000
G01 Z0
G00 Z2.0000
G00 X27.4487 Y44.8200
G01 Z-1.7000
G01 Z0
G00 Z2.0000
G00 X16.8849 Y43.5500
G01 Z-1.7000
G01 Z0
G00 Z2.0000
G00 X16.8849 Y41.0100
G01 Z-1.7000
G01 Z0
G00 Z2.0000
G00 X16.8849 Y38.4700
G01 Z-1.7000
G01 Z0
G00 Z2.0000
G00 X17.2100 Y33.3900
G01 Z-1.7000
G01 Z0
G00 Z2.0000
G00 X12.1300 Y33.3900
G01 Z-1.7000
G01 Z0
G00 Z2.0000
G00 X12.1300 Y20.6900
G01 Z-1.7000
G01 Z0
G00 Z2.0000
G00 X12.1300 Y16.8800
G01 Z-1.7000
G01 Z0
G00 Z2.0000
G00 X12.1300 Y4.1800
G01 Z-1.7000
G01 Z0
G00 Z2.0000
G00 X17.2100 Y4.1800
G01 Z-1.7000
G01 Z0
G00 Z2.0000
G00 X17.2100 Y16.8800
G01 Z-1.7000
G01 Z0
G00 Z2.0000
G00 X17.2100 Y20.6900
G01 Z-1.7000
G01 Z0
G00 Z2.0000
G00 X23.5600 Y24.5000
G01 Z-1.7000
G01 Z0
G00 Z2.0000
G00 X23.5600 Y27.0400
G01 Z-1.7000
G01 Z0
G00 Z2.0000
G00 X23.5600 Y29.5800
G01 Z-1.7000
G01 Z0
G00 Z2.0000
G00 X23.5600 Y32.1200
G01 Z-1.7000
G01 Z0
G00 Z2.0000
G00 X31.1800 Y32.1200
G01 Z-1.7000
G01 Z0
G00 Z2.0000
G00 X31.1800 Y29.5800
G01 Z-1.7000
G01 Z0
G00 Z2.0000
G00 X31.1800 Y27.0400
G01 Z-1.7000
G01 Z0
G00 Z2.0000
G00 X31.1800 Y24.5000
G01 Z-1.7000
G01 Z0
G00 Z2.0000
G00 X24.8300 Y10.5300
G01 Z-1.7000
G01 Z0
G00 Z2.0000
G00 X29.8313 Y10.5300
G01 Z-1.7000
G01 Z0
G00 Z2.0000
G00 X37.5300 Y11.8000
G01 Z-1.7000
G01 Z0
G00 Z2.0000
G00 X42.6100 Y11.8000
G01 Z-1.7000
G01 Z0
G00 Z2.0000
M05
G00 Z0.50


