(G-CODE GENERATED BY FLATCAM v8.994 - www.flatcam.org - Version Date: 2020/11/7)

(Name: med_assoc_lick_sens_addon-Edge_Cuts.gbr_cutout_cnc)
(Type: G-code from Geometry)
(Units: MM)

(Created on Thursday, 13 July 2023 at 14:10)

(This preprocessor is the default preprocessor used by FlatCAM.)
(It is made to work with MACH3 compatible motion controllers.)

(TOOL DIAMETER: 0.8 mm)
(Feedrate_XY: 120.0 mm/min)
(Feedrate_Z: 60.0 mm/min)
(Feedrate rapids 1500.0 mm/min)

(Z_Cut: -1.8 mm)
(DepthPerCut: 0.4 mm <=>5 passes)
(Z_Move: 2.0 mm)
(Z Start: None mm)
(Z End: 15.0 mm)
(X,Y End: None mm)
(Steps per circle: 64)
(Preprocessor Geometry: default)

(X range:    0.1500 ...   52.0500  mm)
(Y range:   -0.1800 ...   52.9900  mm)

(Spindle Speed: 0.0 RPM)
G21
G90
G94

G01 F120.00

M5
G00 Z15.0000
G00 X0.0000 Y0.0000
T3M6    
(MSG, Change to Tool Dia = 0.8000)
M0
G00 Z15.0000

M03
G01 F120.00
G00 X23.8000 Y-0.1800
G01 F60.00
G01 Z-0.4000
G01 F120.00
G01 X0.7000 Y-0.1800
G01 X0.6706 Y-0.1792
G01 X0.6217 Y-0.1744
G01 X0.5688 Y-0.1641
G01 X0.5170 Y-0.1486
G01 X0.4671 Y-0.1282
G01 X0.4194 Y-0.1030
G01 X0.3744 Y-0.0732
G01 X0.3325 Y-0.0391
G01 X0.2942 Y-0.0012
G01 X0.2597 Y0.0404
G01 X0.2295 Y0.0852
G01 X0.2039 Y0.1326
G01 X0.1830 Y0.1824
G01 X0.1671 Y0.2340
G01 X0.1563 Y0.2869
G01 X0.1508 Y0.3406
G01 X0.1500 Y0.3700
G01 X0.1500 Y24.1050
G00 X0.1500 Y24.1050
G01 F60.00
G01 Z-0.8000
G01 F120.00
G01 X0.1500 Y0.3700
G01 X0.1508 Y0.3406
G01 X0.1563 Y0.2869
G01 X0.1671 Y0.2340
G01 X0.1830 Y0.1824
G01 X0.2039 Y0.1326
G01 X0.2295 Y0.0852
G01 X0.2597 Y0.0404
G01 X0.2942 Y-0.0012
G01 X0.3325 Y-0.0391
G01 X0.3744 Y-0.0732
G01 X0.4194 Y-0.1030
G01 X0.4671 Y-0.1282
G01 X0.5170 Y-0.1486
G01 X0.5688 Y-0.1641
G01 X0.6217 Y-0.1744
G01 X0.6706 Y-0.1792
G01 X0.7000 Y-0.1800
G01 X23.8000 Y-0.1800
G00 X23.8000 Y-0.1800
G01 F60.00
G01 Z-1.2000
G01 F120.00
G01 X0.7000 Y-0.1800
G01 X0.6706 Y-0.1792
G01 X0.6217 Y-0.1744
G01 X0.5688 Y-0.1641
G01 X0.5170 Y-0.1486
G01 X0.4671 Y-0.1282
G01 X0.4194 Y-0.1030
G01 X0.3744 Y-0.0732
G01 X0.3325 Y-0.0391
G01 X0.2942 Y-0.0012
G01 X0.2597 Y0.0404
G01 X0.2295 Y0.0852
G01 X0.2039 Y0.1326
G01 X0.1830 Y0.1824
G01 X0.1671 Y0.2340
G01 X0.1563 Y0.2869
G01 X0.1508 Y0.3406
G01 X0.1500 Y0.3700
G01 X0.1500 Y24.1050
G00 X0.1500 Y24.1050
G01 F60.00
G01 Z-1.6000
G01 F120.00
G01 X0.1500 Y0.3700
G01 X0.1508 Y0.3406
G01 X0.1563 Y0.2869
G01 X0.1671 Y0.2340
G01 X0.1830 Y0.1824
G01 X0.2039 Y0.1326
G01 X0.2295 Y0.0852
G01 X0.2597 Y0.0404
G01 X0.2942 Y-0.0012
G01 X0.3325 Y-0.0391
G01 X0.3744 Y-0.0732
G01 X0.4194 Y-0.1030
G01 X0.4671 Y-0.1282
G01 X0.5170 Y-0.1486
G01 X0.5688 Y-0.1641
G01 X0.6217 Y-0.1744
G01 X0.6706 Y-0.1792
G01 X0.7000 Y-0.1800
G01 X23.8000 Y-0.1800
G00 X23.8000 Y-0.1800
G01 F60.00
G01 Z-1.8000
G01 F120.00
G01 X0.7000 Y-0.1800
G01 X0.6706 Y-0.1792
G01 X0.6217 Y-0.1744
G01 X0.5688 Y-0.1641
G01 X0.5170 Y-0.1486
G01 X0.4671 Y-0.1282
G01 X0.4194 Y-0.1030
G01 X0.3744 Y-0.0732
G01 X0.3325 Y-0.0391
G01 X0.2942 Y-0.0012
G01 X0.2597 Y0.0404
G01 X0.2295 Y0.0852
G01 X0.2039 Y0.1326
G01 X0.1830 Y0.1824
G01 X0.1671 Y0.2340
G01 X0.1563 Y0.2869
G01 X0.1508 Y0.3406
G01 X0.1500 Y0.3700
G01 X0.1500 Y24.1050
G00 Z2.0000
G00 X0.1500 Y28.9050
G01 F60.00
G01 Z-0.4000
G01 F120.00
G01 X0.1500 Y52.4400
G01 X0.1508 Y52.4694
G01 X0.1563 Y52.5231
G01 X0.1671 Y52.5760
G01 X0.1830 Y52.6276
G01 X0.2039 Y52.6774
G01 X0.2295 Y52.7248
G01 X0.2597 Y52.7696
G01 X0.2942 Y52.8112
G01 X0.3325 Y52.8491
G01 X0.3744 Y52.8832
G01 X0.4194 Y52.9130
G01 X0.4671 Y52.9382
G01 X0.5170 Y52.9586
G01 X0.5688 Y52.9741
G01 X0.6217 Y52.9844
G01 X0.6706 Y52.9892
G01 X0.7000 Y52.9900
G01 X23.8000 Y52.9900
G00 X23.8000 Y52.9900
G01 F60.00
G01 Z-0.8000
G01 F120.00
G01 X0.7000 Y52.9900
G01 X0.6706 Y52.9892
G01 X0.6217 Y52.9844
G01 X0.5688 Y52.9741
G01 X0.5170 Y52.9586
G01 X0.4671 Y52.9382
G01 X0.4194 Y52.9130
G01 X0.3744 Y52.8832
G01 X0.3325 Y52.8491
G01 X0.2942 Y52.8112
G01 X0.2597 Y52.7696
G01 X0.2295 Y52.7248
G01 X0.2039 Y52.6774
G01 X0.1830 Y52.6276
G01 X0.1671 Y52.5760
G01 X0.1563 Y52.5231
G01 X0.1508 Y52.4694
G01 X0.1500 Y52.4400
G01 X0.1500 Y28.9050
G00 X0.1500 Y28.9050
G01 F60.00
G01 Z-1.2000
G01 F120.00
G01 X0.1500 Y52.4400
G01 X0.1508 Y52.4694
G01 X0.1563 Y52.5231
G01 X0.1671 Y52.5760
G01 X0.1830 Y52.6276
G01 X0.2039 Y52.6774
G01 X0.2295 Y52.7248
G01 X0.2597 Y52.7696
G01 X0.2942 Y52.8112
G01 X0.3325 Y52.8491
G01 X0.3744 Y52.8832
G01 X0.4194 Y52.9130
G01 X0.4671 Y52.9382
G01 X0.5170 Y52.9586
G01 X0.5688 Y52.9741
G01 X0.6217 Y52.9844
G01 X0.6706 Y52.9892
G01 X0.7000 Y52.9900
G01 X23.8000 Y52.9900
G00 X23.8000 Y52.9900
G01 F60.00
G01 Z-1.6000
G01 F120.00
G01 X0.7000 Y52.9900
G01 X0.6706 Y52.9892
G01 X0.6217 Y52.9844
G01 X0.5688 Y52.9741
G01 X0.5170 Y52.9586
G01 X0.4671 Y52.9382
G01 X0.4194 Y52.9130
G01 X0.3744 Y52.8832
G01 X0.3325 Y52.8491
G01 X0.2942 Y52.8112
G01 X0.2597 Y52.7696
G01 X0.2295 Y52.7248
G01 X0.2039 Y52.6774
G01 X0.1830 Y52.6276
G01 X0.1671 Y52.5760
G01 X0.1563 Y52.5231
G01 X0.1508 Y52.4694
G01 X0.1500 Y52.4400
G01 X0.1500 Y28.9050
G00 X0.1500 Y28.9050
G01 F60.00
G01 Z-1.8000
G01 F120.00
G01 X0.1500 Y52.4400
G01 X0.1508 Y52.4694
G01 X0.1563 Y52.5231
G01 X0.1671 Y52.5760
G01 X0.1830 Y52.6276
G01 X0.2039 Y52.6774
G01 X0.2295 Y52.7248
G01 X0.2597 Y52.7696
G01 X0.2942 Y52.8112
G01 X0.3325 Y52.8491
G01 X0.3744 Y52.8832
G01 X0.4194 Y52.9130
G01 X0.4671 Y52.9382
G01 X0.5170 Y52.9586
G01 X0.5688 Y52.9741
G01 X0.6217 Y52.9844
G01 X0.6706 Y52.9892
G01 X0.7000 Y52.9900
G01 X23.8000 Y52.9900
G00 Z2.0000
G00 X28.6000 Y52.9900
G01 F60.00
G01 Z-0.4000
G01 F120.00
G01 X51.5000 Y52.9900
G01 X51.5294 Y52.9892
G01 X51.5783 Y52.9844
G01 X51.6312 Y52.9741
G01 X51.6830 Y52.9586
G01 X51.7329 Y52.9382
G01 X51.7806 Y52.9130
G01 X51.8256 Y52.8832
G01 X51.8675 Y52.8491
G01 X51.9058 Y52.8112
G01 X51.9403 Y52.7696
G01 X51.9705 Y52.7248
G01 X51.9961 Y52.6774
G01 X52.0170 Y52.6276
G01 X52.0329 Y52.5760
G01 X52.0437 Y52.5231
G01 X52.0492 Y52.4694
G01 X52.0500 Y52.4400
G01 X52.0500 Y28.9050
G00 X52.0500 Y28.9050
G01 F60.00
G01 Z-0.8000
G01 F120.00
G01 X52.0500 Y52.4400
G01 X52.0492 Y52.4694
G01 X52.0437 Y52.5231
G01 X52.0329 Y52.5760
G01 X52.0170 Y52.6276
G01 X51.9961 Y52.6774
G01 X51.9705 Y52.7248
G01 X51.9403 Y52.7696
G01 X51.9058 Y52.8112
G01 X51.8675 Y52.8491
G01 X51.8256 Y52.8832
G01 X51.7806 Y52.9130
G01 X51.7329 Y52.9382
G01 X51.6830 Y52.9586
G01 X51.6312 Y52.9741
G01 X51.5783 Y52.9844
G01 X51.5294 Y52.9892
G01 X51.5000 Y52.9900
G01 X28.6000 Y52.9900
G00 X28.6000 Y52.9900
G01 F60.00
G01 Z-1.2000
G01 F120.00
G01 X51.5000 Y52.9900
G01 X51.5294 Y52.9892
G01 X51.5783 Y52.9844
G01 X51.6312 Y52.9741
G01 X51.6830 Y52.9586
G01 X51.7329 Y52.9382
G01 X51.7806 Y52.9130
G01 X51.8256 Y52.8832
G01 X51.8675 Y52.8491
G01 X51.9058 Y52.8112
G01 X51.9403 Y52.7696
G01 X51.9705 Y52.7248
G01 X51.9961 Y52.6774
G01 X52.0170 Y52.6276
G01 X52.0329 Y52.5760
G01 X52.0437 Y52.5231
G01 X52.0492 Y52.4694
G01 X52.0500 Y52.4400
G01 X52.0500 Y28.9050
G00 X52.0500 Y28.9050
G01 F60.00
G01 Z-1.6000
G01 F120.00
G01 X52.0500 Y52.4400
G01 X52.0492 Y52.4694
G01 X52.0437 Y52.5231
G01 X52.0329 Y52.5760
G01 X52.0170 Y52.6276
G01 X51.9961 Y52.6774
G01 X51.9705 Y52.7248
G01 X51.9403 Y52.7696
G01 X51.9058 Y52.8112
G01 X51.8675 Y52.8491
G01 X51.8256 Y52.8832
G01 X51.7806 Y52.9130
G01 X51.7329 Y52.9382
G01 X51.6830 Y52.9586
G01 X51.6312 Y52.9741
G01 X51.5783 Y52.9844
G01 X51.5294 Y52.9892
G01 X51.5000 Y52.9900
G01 X28.6000 Y52.9900
G00 X28.6000 Y52.9900
G01 F60.00
G01 Z-1.8000
G01 F120.00
G01 X51.5000 Y52.9900
G01 X51.5294 Y52.9892
G01 X51.5783 Y52.9844
G01 X51.6312 Y52.9741
G01 X51.6830 Y52.9586
G01 X51.7329 Y52.9382
G01 X51.7806 Y52.9130
G01 X51.8256 Y52.8832
G01 X51.8675 Y52.8491
G01 X51.9058 Y52.8112
G01 X51.9403 Y52.7696
G01 X51.9705 Y52.7248
G01 X51.9961 Y52.6774
G01 X52.0170 Y52.6276
G01 X52.0329 Y52.5760
G01 X52.0437 Y52.5231
G01 X52.0492 Y52.4694
G01 X52.0500 Y52.4400
G01 X52.0500 Y28.9050
G00 Z2.0000
G00 X52.0500 Y24.1050
G01 F60.00
G01 Z-0.4000
G01 F120.00
G01 X52.0500 Y0.3700
G01 X52.0492 Y0.3406
G01 X52.0437 Y0.2869
G01 X52.0329 Y0.2340
G01 X52.0170 Y0.1824
G01 X51.9961 Y0.1326
G01 X51.9705 Y0.0852
G01 X51.9403 Y0.0404
G01 X51.9058 Y-0.0012
G01 X51.8675 Y-0.0391
G01 X51.8256 Y-0.0732
G01 X51.7806 Y-0.1030
G01 X51.7329 Y-0.1282
G01 X51.6830 Y-0.1486
G01 X51.6312 Y-0.1641
G01 X51.5783 Y-0.1744
G01 X51.5294 Y-0.1792
G01 X51.5000 Y-0.1800
G01 X28.6000 Y-0.1800
G00 X28.6000 Y-0.1800
G01 F60.00
G01 Z-0.8000
G01 F120.00
G01 X51.5000 Y-0.1800
G01 X51.5294 Y-0.1792
G01 X51.5783 Y-0.1744
G01 X51.6312 Y-0.1641
G01 X51.6830 Y-0.1486
G01 X51.7329 Y-0.1282
G01 X51.7806 Y-0.1030
G01 X51.8256 Y-0.0732
G01 X51.8675 Y-0.0391
G01 X51.9058 Y-0.0012
G01 X51.9403 Y0.0404
G01 X51.9705 Y0.0852
G01 X51.9961 Y0.1326
G01 X52.0170 Y0.1824
G01 X52.0329 Y0.2340
G01 X52.0437 Y0.2869
G01 X52.0492 Y0.3406
G01 X52.0500 Y0.3700
G01 X52.0500 Y24.1050
G00 X52.0500 Y24.1050
G01 F60.00
G01 Z-1.2000
G01 F120.00
G01 X52.0500 Y0.3700
G01 X52.0492 Y0.3406
G01 X52.0437 Y0.2869
G01 X52.0329 Y0.2340
G01 X52.0170 Y0.1824
G01 X51.9961 Y0.1326
G01 X51.9705 Y0.0852
G01 X51.9403 Y0.0404
G01 X51.9058 Y-0.0012
G01 X51.8675 Y-0.0391
G01 X51.8256 Y-0.0732
G01 X51.7806 Y-0.1030
G01 X51.7329 Y-0.1282
G01 X51.6830 Y-0.1486
G01 X51.6312 Y-0.1641
G01 X51.5783 Y-0.1744
G01 X51.5294 Y-0.1792
G01 X51.5000 Y-0.1800
G01 X28.6000 Y-0.1800
G00 X28.6000 Y-0.1800
G01 F60.00
G01 Z-1.6000
G01 F120.00
G01 X51.5000 Y-0.1800
G01 X51.5294 Y-0.1792
G01 X51.5783 Y-0.1744
G01 X51.6312 Y-0.1641
G01 X51.6830 Y-0.1486
G01 X51.7329 Y-0.1282
G01 X51.7806 Y-0.1030
G01 X51.8256 Y-0.0732
G01 X51.8675 Y-0.0391
G01 X51.9058 Y-0.0012
G01 X51.9403 Y0.0404
G01 X51.9705 Y0.0852
G01 X51.9961 Y0.1326
G01 X52.0170 Y0.1824
G01 X52.0329 Y0.2340
G01 X52.0437 Y0.2869
G01 X52.0492 Y0.3406
G01 X52.0500 Y0.3700
G01 X52.0500 Y24.1050
G00 X52.0500 Y24.1050
G01 F60.00
G01 Z-1.8000
G01 F120.00
G01 X52.0500 Y0.3700
G01 X52.0492 Y0.3406
G01 X52.0437 Y0.2869
G01 X52.0329 Y0.2340
G01 X52.0170 Y0.1824
G01 X51.9961 Y0.1326
G01 X51.9705 Y0.0852
G01 X51.9403 Y0.0404
G01 X51.9058 Y-0.0012
G01 X51.8675 Y-0.0391
G01 X51.8256 Y-0.0732
G01 X51.7806 Y-0.1030
G01 X51.7329 Y-0.1282
G01 X51.6830 Y-0.1486
G01 X51.6312 Y-0.1641
G01 X51.5783 Y-0.1744
G01 X51.5294 Y-0.1792
G01 X51.5000 Y-0.1800
G01 X28.6000 Y-0.1800
G00 Z2.0000
M05
G00 Z2.0000
G00 Z15.00


